PhotoStyler/Resources/LUTs/Airy.cube
# Generated by tools/generate_luts.py
# Placeholder starter look - replace with an exported Lightroom LUT.
TITLE "PhotoStyler Airy"
LUT_3D_SIZE 9
DOMAIN_MIN 0.0 0.0 0.0
DOMAIN_MAX 1.0 1.0 1.0
0.032820 0.032820 0.032538
0.172175 0.032820 0.032538
0.304639 0.032820 0.032538
0.430212 0.032820 0.032538
0.550105 0.032820 0.032538
0.674563 0.032820 0.032538
0.805911 0.032820 0.032538
0.944150 0.032820 0.032538
1.000000 0.032820 0.032538
0.032820 0.172175 0.032538
0.172175 0.172175 0.032538
0.304639 0.172175 0.032538
0.430212 0.172175 0.032538
0.550105 0.172175 0.032538
0.674563 0.172175 0.032538
0.805911 0.172175 0.032538
0.944150 0.172175 0.032538
1.000000 0.172175 0.032538
0.032820 0.304639 0.032538
0.172175 0.304639 0.032538
0.304639 0.304639 0.032538
0.430212 0.304639 0.032538
0.550105 0.304639 0.032538
0.674563 0.304639 0.032538
0.805911 0.304639 0.032538
0.944150 0.304639 0.032538
1.000000 0.304639 0.032538
0.032820 0.430212 0.032538
0.172175 0.430212 0.032538
0.304639 0.430212 0.032538
0.430212 0.430212 0.032538
0.550105 0.430212 0.032538
0.674563 0.430212 0.032538
0.805911 0.430212 0.032538
0.944150 0.430212 0.032538
1.000000 0.430212 0.032538
0.032820 0.550105 0.032538
0.172175 0.550105 0.032538
0.304639 0.550105 0.032538
0.430212 0.550105 0.032538
0.550105 0.550105 0.032538
0.674563 0.550105 0.032538
0.805911 0.550105 0.032538
0.944150 0.550105 0.032582
1.000000 0.550105 0.033169
0.032820 0.674563 0.032538
0.172175 0.674563 0.032538
0.304639 0.674563 0.032538
0.430212 0.674563 0.032538
0.550105 0.674563 0.033130
0.674563 0.674563 0.034635
0.805911 0.674563 0.036139
0.944150 0.674563 0.037643
1.000000 0.674563 0.038230
0.032820 0.805911 0.032538
0.172175 0.805911 0.033678
0.304639 0.805911 0.035182
0.430212 0.805911 0.036687
0.550105 0.805911 0.038190
0.674563 0.805911 0.039693
0.805911 0.805911 0.041195
0.944150 0.805911 0.042696
1.000000 0.805911 0.043282
0.032820 0.944150 0.037234
0.172175 0.944150 0.038737
0.304639 0.944150 0.040240
0.430212 0.944150 0.041741
0.550105 0.944150 0.043242
0.674563 0.944150 0.044743
0.805911 0.944150 0.046242
0.944150 0.944150 0.047741
1.000000 0.944150 0.048326
0.032820 1.000000 0.039208
0.172175 1.000000 0.040711
0.304639 1.000000 0.042212
0.430212 1.000000 0.043713
0.550105 1.000000 0.045213
0.674563 1.000000 0.046712
0.805911 1.000000 0.048211
0.944150 1.000000 0.049709
1.000000 1.000000 0.050294
0.032820 0.032820 0.171082
0.172175 0.032820 0.171082
0.304639 0.032820 0.171082
0.430212 0.032820 0.171082
0.550105 0.032820 0.171082
0.674563 0.032820 0.171082
0.805911 0.032820 0.171082
0.944150 0.032820 0.171082
1.000000 0.032820 0.171082
0.032820 0.172175 0.171082
0.172175 0.172175 0.171082
0.304639 0.172175 0.171082
0.430212 0.172175 0.171082
0.550105 0.172175 0.171082
0.674563 0.172175 0.171082
0.805911 0.172175 0.171082
0.944150 0.172175 0.171082
1.000000 0.172175 0.171082
0.032820 0.304639 0.171082
0.172175 0.304639 0.171082
0.304639 0.304639 0.171082
0.430212 0.304639 0.171082
0.550105 0.304639 0.171082
0.674563 0.304639 0.171082
0.805911 0.304639 0.171082
0.944150 0.304639 0.171082
1.000000 0.304639 0.171082
0.032820 0.430212 0.171082
0.172175 0.430212 0.171082
0.304639 0.430212 0.171082
0.430212 0.430212 0.171082
0.550105 0.430212 0.171082
0.674563 0.430212 0.171082
0.805911 0.430212 0.171082
0.944150 0.430212 0.171082
1.000000 0.430212 0.171082
0.032820 0.550105 0.171082
0.172175 0.550105 0.171082
0.304639 0.550105 0.171082
0.430212 0.550105 0.171082
0.550105 0.550105 0.171082
0.674563 0.550105 0.171082
0.805911 0.550105 0.171082
0.944150 0.550105 0.171613
1.000000 0.550105 0.172175
0.032820 0.674563 0.171082
0.172175 0.674563 0.171082
0.304639 0.674563 0.171082
0.430212 0.674563 0.171082
0.550105 0.674563 0.172137
0.674563 0.674563 0.173576
0.805911 0.674563 0.175014
0.944150 0.674563 0.176451
1.000000 0.674563 0.177012
0.032820 0.805911 0.171221
0.172175 0.805911 0.172661
0.304639 0.805911 0.174099
0.430212 0.805911 0.175537
0.550105 0.805911 0.176975
0.674563 0.805911 0.178411
0.805911 0.805911 0.179847
0.944150 0.805911 0.181282
1.000000 0.805911 0.181842
0.032820 0.944150 0.176061
0.172175 0.944150 0.177498
0.304639 0.944150 0.178934
0.430212 0.944150 0.180369
0.550105 0.944150 0.181804
0.674563 0.944150 0.183239
0.805911 0.944150 0.184672
0.944150 0.944150 0.186105
1.000000 0.944150 0.186664
0.032820 1.000000 0.177948
0.172175 1.000000 0.179384
0.304639 1.000000 0.180819
0.430212 1.000000 0.182254
0.550105 1.000000 0.183688
0.674563 1.000000 0.185121
0.805911 1.000000 0.186554
0.944150 1.000000 0.187986
1.000000 1.000000 0.188545
0.032820 0.032820 0.303425
0.172175 0.032820 0.303425
0.304639 0.032820 0.303425
0.430212 0.032820 0.303425
0.550105 0.032820 0.303425
0.674563 0.032820 0.303425
0.805911 0.032820 0.303425
0.944150 0.032820 0.303425
1.000000 0.032820 0.303425
0.032820 0.172175 0.303425
0.172175 0.172175 0.303425
0.304639 0.172175 0.303425
0.430212 0.172175 0.303425
0.550105 0.172175 0.303425
0.674563 0.172175 0.303425
0.805911 0.172175 0.303425
0.944150 0.172175 0.303425
1.000000 0.172175 0.303425
0.032820 0.304639 0.303425
0.172175 0.304639 0.303425
0.304639 0.304639 0.303425
0.430212 0.304639 0.303425
0.550105 0.304639 0.303425
0.674563 0.304639 0.303425
0.805911 0.304639 0.303425
0.944150 0.304639 0.303425
1.000000 0.304639 0.303425
0.032820 0.430212 0.303425
0.172175 0.430212 0.303425
0.304639 0.430212 0.303425
0.430212 0.430212 0.303425
0.550105 0.430212 0.303425
0.674563 0.430212 0.303425
0.805911 0.430212 0.303425
0.944150 0.430212 0.303425
1.000000 0.430212 0.303425
0.032820 0.550105 0.303425
0.172175 0.550105 0.303425
0.304639 0.550105 0.303425
0.430212 0.550105 0.303425
0.550105 0.550105 0.303425
0.674563 0.550105 0.303425
0.805911 0.550105 0.303425
0.944150 0.550105 0.304398
1.000000 0.550105 0.304934
0.032820 0.674563 0.303425
0.172175 0.674563 0.303425
0.304639 0.674563 0.303425
0.430212 0.674563 0.303524
0.550105 0.674563 0.304897
0.674563 0.674563 0.306270
0.805911 0.674563 0.307642
0.944150 0.674563 0.309014
1.000000 0.674563 0.309549
0.032820 0.805911 0.304024
0.172175 0.805911 0.305397
0.304639 0.805911 0.306770
0.430212 0.805911 0.308142
0.550105 0.805911 0.309513
0.674563 0.805911 0.310883
0.805911 0.805911 0.312253
0.944150 0.805911 0.313622
1.000000 0.805911 0.314156
0.032820 0.944150 0.308641
0.172175 0.944150 0.310012
0.304639 0.944150 0.311382
0.430212 0.944150 0.312751
0.550105 0.944150 0.314120
0.674563 0.944150 0.315488
0.805911 0.944150 0.316855
0.944150 0.944150 0.318222
1.000000 0.944150 0.318755
0.032820 1.000000 0.310441
0.172175 1.000000 0.311811
0.304639 1.000000 0.313180
0.430212 1.000000 0.314549
0.550105 1.000000 0.315917
0.674563 1.000000 0.317284
0.805911 1.000000 0.318650
0.944150 1.000000 0.320016
1.000000 1.000000 0.320549
0.032820 0.032820 0.429566
0.172175 0.032820 0.429566
0.304639 0.032820 0.429566
0.430212 0.032820 0.429566
0.550105 0.032820 0.429566
0.674563 0.032820 0.429566
0.805911 0.032820 0.429566
0.944150 0.032820 0.429566
1.000000 0.032820 0.429566
0.032820 0.172175 0.429566
0.172175 0.172175 0.429566
0.304639 0.172175 0.429566
0.430212 0.172175 0.429566
0.550105 0.172175 0.429566
0.674563 0.172175 0.429566
0.805911 0.172175 0.429566
0.944150 0.172175 0.429566
1.000000 0.172175 0.429566
0.032820 0.304639 0.429566
0.172175 0.304639 0.429566
0.304639 0.304639 0.429566
0.430212 0.304639 0.429566
0.550105 0.304639 0.429566
0.674563 0.304639 0.429566
0.805911 0.304639 0.429566
0.944150 0.304639 0.429566
1.000000 0.304639 0.429566
0.032820 0.430212 0.429566
0.172175 0.430212 0.429566
0.304639 0.430212 0.429566
0.430212 0.430212 0.429566
0.550105 0.430212 0.429566
0.674563 0.430212 0.429566
0.805911 0.430212 0.429566
0.944150 0.430212 0.429566
1.000000 0.430212 0.429566
0.032820 0.550105 0.429566
0.172175 0.550105 0.429566
0.304639 0.550105 0.429566
0.430212 0.550105 0.429566
0.550105 0.550105 0.429566
0.674563 0.550105 0.429566
0.805911 0.550105 0.429628
0.944150 0.550105 0.430936
1.000000 0.550105 0.431446
0.032820 0.674563 0.429566
0.172175 0.674563 0.429566
0.304639 0.674563 0.429566
0.430212 0.674563 0.430104
0.550105 0.674563 0.431412
0.674563 0.674563 0.432718
0.805911 0.674563 0.434024
0.944150 0.674563 0.435329
1.000000 0.674563 0.435839
0.032820 0.805911 0.430580
0.172175 0.805911 0.431888
0.304639 0.805911 0.433194
0.430212 0.805911 0.434499
0.550105 0.805911 0.435804
0.674563 0.805911 0.437109
0.805911 0.805911 0.438412
0.944150 0.805911 0.439715
1.000000 0.805911 0.440223
0.032820 0.944150 0.434975
0.172175 0.944150 0.436279
0.304639 0.944150 0.437583
0.430212 0.944150 0.438887
0.550105 0.944150 0.440189
0.674563 0.944150 0.441491
0.805911 0.944150 0.442792
0.944150 0.944150 0.444093
1.000000 0.944150 0.444600
0.032820 1.000000 0.436688
0.172175 1.000000 0.437992
0.304639 1.000000 0.439295
0.430212 1.000000 0.440597
0.550105 1.000000 0.441899
0.674563 1.000000 0.443200
0.805911 1.000000 0.444500
0.944150 1.000000 0.445800
1.000000 1.000000 0.446307
0.032820 0.032820 0.550595
0.172175 0.032820 0.550595
0.304639 0.032820 0.550595
0.430212 0.032820 0.550595
0.550105 0.032820 0.550595
0.674563 0.032820 0.550595
0.805911 0.032820 0.550595
0.944150 0.032820 0.550595
1.000000 0.032820 0.550595
0.032820 0.172175 0.550595
0.172175 0.172175 0.550595
0.304639 0.172175 0.550595
0.430212 0.172175 0.550595
0.550105 0.172175 0.550595
0.674563 0.172175 0.550595
0.805911 0.172175 0.550595
0.944150 0.172175 0.550595
1.000000 0.172175 0.550595
0.032820 0.304639 0.550595
0.172175 0.304639 0.550595
0.304639 0.304639 0.550595
0.430212 0.304639 0.550595
0.550105 0.304639 0.550595
0.674563 0.304639 0.550595
0.805911 0.304639 0.550595
0.944150 0.304639 0.550595
1.000000 0.304639 0.550595
0.032820 0.430212 0.550595
0.172175 0.430212 0.550595
0.304639 0.430212 0.550595
0.430212 0.430212 0.550595
0.550105 0.430212 0.550595
0.674563 0.430212 0.550595
0.805911 0.430212 0.550595
0.944150 0.430212 0.550595
1.000000 0.430212 0.550595
0.032820 0.550105 0.550595
0.172175 0.550105 0.550595
0.304639 0.550105 0.550595
0.430212 0.550105 0.550595
0.550105 0.550105 0.550595
0.674563 0.550105 0.550595
0.805911 0.550105 0.551097
0.944150 0.550105 0.552395
1.000000 0.550105 0.552902
0.032820 0.674563 0.550595
0.172175 0.674563 0.550595
0.304639 0.674563 0.550595
0.430212 0.674563 0.551569
0.550105 0.674563 0.552868
0.674563 0.674563 0.554166
0.805911 0.674563 0.555466
0.944150 0.674563 0.556766
1.000000 0.674563 0.557274
0.032820 0.805911 0.552042
0.172175 0.805911 0.553340
0.304639 0.805911 0.554639
0.430212 0.805911 0.555939
0.550105 0.805911 0.557240
0.674563 0.805911 0.558541
0.805911 0.805911 0.559843
0.944150 0.805911 0.561145
1.000000 0.805911 0.561654
0.032820 0.944150 0.556413
0.172175 0.944150 0.557713
0.304639 0.944150 0.559015
0.430212 0.944150 0.560317
0.550105 0.944150 0.561620
0.674563 0.944150 0.562923
0.805911 0.944150 0.564227
0.944150 0.944150 0.565532
1.000000 0.944150 0.566042
0.032820 1.000000 0.558121
0.172175 1.000000 0.559423
0.304639 1.000000 0.560725
0.430212 1.000000 0.562028
0.550105 1.000000 0.563332
0.674563 1.000000 0.564637
0.805911 1.000000 0.565942
0.944150 1.000000 0.567248
1.000000 1.000000 0.567758
0.032820 0.032820 0.675732
0.172175 0.032820 0.675732
0.304639 0.032820 0.675732
0.430212 0.032820 0.675732
0.550105 0.032820 0.675732
0.674563 0.032820 0.675732
0.805911 0.032820 0.675732
0.944150 0.032820 0.675732
1.000000 0.032820 0.675732
0.032820 0.172175 0.675732
0.172175 0.172175 0.675732
0.304639 0.172175 0.675732
0.430212 0.172175 0.675732
0.550105 0.172175 0.675732
0.674563 0.172175 0.675732
0.805911 0.172175 0.675732
0.944150 0.172175 0.675732
1.000000 0.172175 0.675732
0.032820 0.304639 0.675732
0.172175 0.304639 0.675732
0.304639 0.304639 0.675732
0.430212 0.304639 0.675732
0.550105 0.304639 0.675732
0.674563 0.304639 0.675732
0.805911 0.304639 0.675732
0.944150 0.304639 0.675732
1.000000 0.304639 0.675732
0.032820 0.430212 0.675732
0.172175 0.430212 0.675732
0.304639 0.430212 0.675732
0.430212 0.430212 0.675732
0.550105 0.430212 0.675732
0.674563 0.430212 0.675732
0.805911 0.430212 0.675732
0.944150 0.430212 0.675732
1.000000 0.430212 0.675732
0.032820 0.550105 0.675732
0.172175 0.550105 0.675732
0.304639 0.550105 0.675732
0.430212 0.550105 0.675732
0.550105 0.550105 0.675732
0.674563 0.550105 0.675732
0.805911 0.550105 0.676723
0.944150 0.550105 0.678087
1.000000 0.550105 0.678619
0.032820 0.674563 0.675732
0.172175 0.674563 0.675732
0.304639 0.674563 0.675856
0.430212 0.674563 0.677219
0.550105 0.674563 0.678583
0.674563 0.674563 0.679948
0.805911 0.674563 0.681314
0.944150 0.674563 0.682680
1.000000 0.674563 0.683214
0.032820 0.805911 0.677716
0.172175 0.805911 0.679080
0.304639 0.805911 0.680446
0.430212 0.805911 0.681811
0.550105 0.805911 0.683178
0.674563 0.805911 0.684545
0.805911 0.805911 0.685913
0.944150 0.805911 0.687282
1.000000 0.805911 0.687817
0.032820 0.944150 0.682309
0.172175 0.944150 0.683676
0.304639 0.944150 0.685043
0.430212 0.944150 0.686412
0.550105 0.944150 0.687781
0.674563 0.944150 0.689150
0.805911 0.944150 0.690521
0.944150 0.944150 0.691892
1.000000 0.944150 0.692427
0.032820 1.000000 0.684105
0.172175 1.000000 0.685472
0.304639 1.000000 0.686841
0.430212 1.000000 0.688210
0.550105 1.000000 0.689580
0.674563 1.000000 0.690951
0.805911 1.000000 0.692322
0.944150 1.000000 0.693694
1.000000 1.000000 0.694230
0.032820 0.032820 0.807070
0.172175 0.032820 0.807070
0.304639 0.032820 0.807070
0.430212 0.032820 0.807070
0.550105 0.032820 0.807070
0.674563 0.032820 0.807070
0.805911 0.032820 0.807070
0.944150 0.032820 0.807070
1.000000 0.032820 0.807070
0.032820 0.172175 0.807070
0.172175 0.172175 0.807070
0.304639 0.172175 0.807070
0.430212 0.172175 0.807070
0.550105 0.172175 0.807070
0.674563 0.172175 0.807070
0.805911 0.172175 0.807070
0.944150 0.172175 0.807070
1.000000 0.172175 0.807070
0.032820 0.304639 0.807070
0.172175 0.304639 0.807070
0.304639 0.304639 0.807070
0.430212 0.304639 0.807070
0.550105 0.304639 0.807070
0.674563 0.304639 0.807070
0.805911 0.304639 0.807070
0.944150 0.304639 0.807070
1.000000 0.304639 0.807070
0.032820 0.430212 0.807070
0.172175 0.430212 0.807070
0.304639 0.430212 0.807070
0.430212 0.430212 0.807070
0.550105 0.430212 0.807070
0.674563 0.430212 0.807070
0.805911 0.430212 0.807070
0.944150 0.430212 0.807070
1.000000 0.430212 0.807070
0.032820 0.550105 0.807070
0.172175 0.550105 0.807070
0.304639 0.550105 0.807070
0.430212 0.550105 0.807070
0.550105 0.550105 0.807070
0.674563 0.550105 0.807165
0.805911 0.550105 0.808595
0.944150 0.550105 0.810025
1.000000 0.550105 0.810584
0.032820 0.674563 0.807070
0.172175 0.674563 0.807070
0.304639 0.674563 0.807686
0.430212 0.674563 0.809115
0.550105 0.674563 0.810546
0.674563 0.674563 0.811977
0.805911 0.674563 0.813409
0.944150 0.674563 0.814841
1.000000 0.674563 0.815401
0.032820 0.805911 0.809636
0.172175 0.805911 0.811067
0.304639 0.805911 0.812498
0.430212 0.805911 0.813930
0.550105 0.805911 0.815363
0.674563 0.805911 0.816796
0.805911 0.805911 0.818231
0.944150 0.805911 0.819666
1.000000 0.805911 0.820226
0.032820 0.944150 0.814452
0.172175 0.944150 0.815885
0.304639 0.944150 0.817319
0.430212 0.944150 0.818753
0.550105 0.944150 0.820188
0.674563 0.944150 0.821624
0.805911 0.944150 0.823061
0.944150 0.944150 0.824498
1.000000 0.944150 0.825059
0.032820 1.000000 0.816334
0.172175 1.000000 0.817768
0.304639 1.000000 0.819203
0.430212 1.000000 0.820638
0.550105 1.000000 0.822074
0.674563 1.000000 0.823511
0.805911 1.000000 0.824949
0.944150 1.000000 0.826387
1.000000 1.000000 0.826949
0.032820 0.032820 0.944610
0.172175 0.032820 0.944610
0.304639 0.032820 0.944610
0.430212 0.032820 0.944610
0.550105 0.032820 0.944610
0.674563 0.032820 0.944610
0.805911 0.032820 0.944610
0.944150 0.032820 0.944610
1.000000 0.032820 0.944610
0.032820 0.172175 0.944610
0.172175 0.172175 0.944610
0.304639 0.172175 0.944610
0.430212 0.172175 0.944610
0.550105 0.172175 0.944610
0.674563 0.172175 0.944610
0.805911 0.172175 0.944610
0.944150 0.172175 0.944610
1.000000 0.172175 0.944610
0.032820 0.304639 0.944610
0.172175 0.304639 0.944610
0.304639 0.304639 0.944610
0.430212 0.304639 0.944610
0.550105 0.304639 0.944610
0.674563 0.304639 0.944610
0.805911 0.304639 0.944610
0.944150 0.304639 0.944610
1.000000 0.304639 0.944610
0.032820 0.430212 0.944610
0.172175 0.430212 0.944610
0.304639 0.430212 0.944610
0.430212 0.430212 0.944610
0.550105 0.430212 0.944610
0.674563 0.430212 0.944610
0.805911 0.430212 0.944610
0.944150 0.430212 0.944610
1.000000 0.430212 0.944610
0.032820 0.550105 0.944610
0.172175 0.550105 0.944610
0.304639 0.550105 0.944610
0.430212 0.550105 0.944610
0.550105 0.550105 0.944610
0.674563 0.550105 0.945218
0.805911 0.550105 0.946713
0.944150 0.550105 0.948210
1.000000 0.550105 0.948794
0.032820 0.674563 0.944610
0.172175 0.674563 0.944610
0.304639 0.674563 0.945762
0.430212 0.674563 0.947258
0.550105 0.674563 0.948754
0.674563 0.674563 0.950252
0.805911 0.674563 0.951750
0.944150 0.674563 0.953248
1.000000 0.674563 0.953834
0.032820 0.805911 0.947803
0.172175 0.805911 0.949299
0.304639 0.805911 0.950797
0.430212 0.805911 0.952295
0.550105 0.805911 0.953794
0.674563 0.805911 0.955294
0.805911 0.805911 0.956794
0.944150 0.805911 0.958295
1.000000 0.805911 0.958882
0.032820 0.944150 0.952841
0.172175 0.944150 0.954340
0.304639 0.944150 0.955840
0.430212 0.944150 0.957341
0.550105 0.944150 0.958842
0.674563 0.944150 0.960344
0.805911 0.944150 0.961847
0.944150 0.944150 0.963350
1.000000 0.944150 0.963937
0.032820 1.000000 0.954810
0.172175 1.000000 0.956311
0.304639 1.000000 0.957811
0.430212 1.000000 0.959313
0.550105 1.000000 0.960815
0.674563 1.000000 0.962318
0.805911 1.000000 0.963822
0.944150 1.000000 0.965326
1.000000 1.000000 0.965914
0.032820 0.032820 1.000000
0.172175 0.032820 1.000000
0.304639 0.032820 1.000000
0.430212 0.032820 1.000000
0.550105 0.032820 1.000000
0.674563 0.032820 1.000000
0.805911 0.032820 1.000000
0.944150 0.032820 1.000000
1.000000 0.032820 1.000000
0.032820 0.172175 1.000000
0.172175 0.172175 1.000000
0.304639 0.172175 1.000000
0.430212 0.172175 1.000000
0.550105 0.172175 1.000000
0.674563 0.172175 1.000000
0.805911 0.172175 1.000000
0.944150 0.172175 1.000000
1.000000 0.172175 1.000000
0.032820 0.304639 1.000000
0.172175 0.304639 1.000000
0.304639 0.304639 1.000000
0.430212 0.304639 1.000000
0.550105 0.304639 1.000000
0.674563 0.304639 1.000000
0.805911 0.304639 1.000000
0.944150 0.304639 1.000000
1.000000 0.304639 1.000000
0.032820 0.430212 1.000000
0.172175 0.430212 1.000000
0.304639 0.430212 1.000000
0.430212 0.430212 1.000000
0.550105 0.430212 1.000000
0.674563 0.430212 1.000000
0.805911 0.430212 1.000000
0.944150 0.430212 1.000000
1.000000 0.430212 1.000000
0.032820 0.550105 1.000000
0.172175 0.550105 1.000000
0.304639 0.550105 1.000000
0.430212 0.550105 1.000000
0.550105 0.550105 1.000000
0.674563 0.550105 1.000000
0.805911 0.550105 1.000000
0.944150 0.550105 1.000000
1.000000 0.550105 1.000000
0.032820 0.674563 1.000000
0.172175 0.674563 1.000000
0.304639 0.674563 1.000000
0.430212 0.674563 1.000000
0.550105 0.674563 1.000000
0.674563 0.674563 1.000000
0.805911 0.674563 1.000000
0.944150 0.674563 1.000000
1.000000 0.674563 1.000000
0.032820 0.805911 1.000000
0.172175 0.805911 1.000000
0.304639 0.805911 1.000000
0.430212 0.805911 1.000000
0.550105 0.805911 1.000000
0.674563 0.805911 1.000000
0.805911 0.805911 1.000000
0.944150 0.805911 1.000000
1.000000 0.805911 1.000000
0.032820 0.944150 1.000000
0.172175 0.944150 1.000000
0.304639 0.944150 1.000000
0.430212 0.944150 1.000000
0.550105 0.944150 1.000000
0.674563 0.944150 1.000000
0.805911 0.944150 1.000000
0.944150 0.944150 1.000000
1.000000 0.944150 1.000000
0.032820 1.000000 1.000000
0.172175 1.000000 1.000000
0.304639 1.000000 1.000000
0.430212 1.000000 1.000000
0.550105 1.000000 1.000000
0.674563 1.000000 1.000000
0.805911 1.000000 1.000000
0.944150 1.000000 1.000000
1.000000 1.000000 1.000000
