PhotoStyler/Resources/LUTs/Airy.cube
# Generated by tools/generate_luts.py
# Placeholder starter look - replace with an exported Lightroom LUT.
TITLE "PhotoStyler Airy"
LUT_3D_SIZE 33
DOMAIN_MIN 0.0 0.0 0.0
DOMAIN_MAX 1.0 1.0 1.0
0.032820 0.032820 0.032538
0.068305 0.032820 0.032538
0.103359 0.032820 0.032538
0.137982 0.032820 0.032538
0.172175 0.032820 0.032538
0.205937 0.032820 0.032538
0.239268 0.032820 0.032538
0.272169 0.032820 0.032538
0.304639 0.032820 0.032538
0.336678 0.032820 0.032538
0.368287 0.032820 0.032538
0.399465 0.032820 0.032538
0.430212 0.032820 0.032538
0.460529 0.032820 0.032538
0.490415 0.032820 0.032538
0.520067 0.032820 0.032538
0.550105 0.032820 0.032538
0.580573 0.032820 0.032538
0.611473 0.032820 0.032538
0.642802 0.032820 0.032538
0.674563 0.032820 0.032538
0.706754 0.032820 0.032538
0.739376 0.032820 0.032538
0.772428 0.032820 0.032538
0.805911 0.032820 0.032538
0.839825 0.032820 0.032538
0.874169 0.032820 0.032538
0.908945 0.032820 0.032538
0.944150 0.032820 0.032538
0.979787 0.032820 0.032538
1.000000 0.032820 0.032538
1.000000 0.032820 0.032538
1.000000 0.032820 0.032538
0.032820 0.068305 0.032538
0.068305 0.068305 0.032538
0.103359 0.068305 0.032538
0.137982 0.068305 0.032538
0.172175 0.068305 0.032538
0.205937 0.068305 0.032538
0.239268 0.068305 0.032538
0.272169 0.068305 0.032538
0.304639 0.068305 0.032538
0.336678 0.068305 0.032538
0.368287 0.068305 0.032538
0.399465 0.068305 0.032538
0.430212 0.068305 0.032538
0.460529 0.068305 0.032538
0.490415 0.068305 0.032538
0.520067 0.068305 0.032538
0.550105 0.068305 0.032538
0.580573 0.068305 0.032538
0.611473 0.068305 0.032538
0.642802 0.068305 0.032538
0.674563 0.068305 0.032538
0.706754 0.068305 0.032538
0.739376 0.068305 0.032538
0.772428 0.068305 0.032538
0.805911 0.068305 0.032538
0.839825 0.068305 0.032538
0.874169 0.068305 0.032538
0.908945 0.068305 0.032538
0.944150 0.068305 0.032538
0.979787 0.068305 0.032538
1.000000 0.068305 0.032538
1.000000 0.068305 0.032538
1.000000 0.068305 0.032538
0.032820 0.103359 0.032538
0.068305 0.103359 0.032538
0.103359 0.103359 0.032538
0.137982 0.103359 0.032538
0.172175 0.103359 0.032538
0.205937 0.103359 0.032538
0.239268 0.103359 0.032538
0.272169 0.103359 0.032538
0.304639 0.103359 0.032538
0.336678 0.103359 0.032538
0.368287 0.103359 0.032538
0.399465 0.103359 0.032538
0.430212 0.103359 0.032538
0.460529 0.103359 0.032538
0.490415 0.103359 0.032538
0.520067 0.103359 0.032538
0.550105 0.103359 0.032538
0.580573 0.103359 0.032538
0.611473 0.103359 0.032538
0.642802 0.103359 0.032538
0.674563 0.103359 0.032538
0.706754 0.103359 0.032538
0.739376 0.103359 0.032538
0.772428 0.103359 0.032538
0.805911 0.103359 0.032538
0.839825 0.103359 0.032538
0.874169 0.103359 0.032538
0.908945 0.103359 0.032538
0.944150 0.103359 0.032538
0.979787 0.103359 0.032538
1.000000 0.103359 0.032538
1.000000 0.103359 0.032538
1.000000 0.103359 0.032538
0.032820 0.137982 0.032538
0.068305 0.137982 0.032538
0.103359 0.137982 0.032538
0.137982 0.137982 0.032538
0.172175 0.137982 0.032538
0.205937 0.137982 0.032538
0.239268 0.137982 0.032538
0.272169 0.137982 0.032538
0.304639 0.137982 0.032538
0.336678 0.137982 0.032538
0.368287 0.137982 0.032538
0.399465 0.137982 0.032538
0.430212 0.137982 0.032538
0.460529 0.137982 0.032538
0.490415 0.137982 0.032538
0.520067 0.137982 0.032538
0.550105 0.137982 0.032538
0.580573 0.137982 0.032538
0.611473 0.137982 0.032538
0.642802 0.137982 0.032538
0.674563 0.137982 0.032538
0.706754 0.137982 0.032538
0.739376 0.137982 0.032538
0.772428 0.137982 0.032538
0.805911 0.137982 0.032538
0.839825 0.137982 0.032538
0.874169 0.137982 0.032538
0.908945 0.137982 0.032538
0.944150 0.137982 0.032538
0.979787 0.137982 0.032538
1.000000 0.137982 0.032538
1.000000 0.137982 0.032538
1.000000 0.137982 0.032538
0.032820 0.172175 0.032538
0.068305 0.172175 0.032538
0.103359 0.172175 0.032538
0.137982 0.172175 0.032538
0.172175 0.172175 0.032538
0.205937 0.172175 0.032538
0.239268 0.172175 0.032538
0.272169 0.172175 0.032538
0.304639 0.172175 0.032538
0.336678 0.172175 0.032538
0.368287 0.172175 0.032538
0.399465 0.172175 0.032538
0.430212 0.172175 0.032538
0.460529 0.172175 0.032538
0.490415 0.172175 0.032538
0.520067 0.172175 0.032538
0.550105 0.172175 0.032538
0.580573 0.172175 0.032538
0.611473 0.172175 0.032538
0.642802 0.172175 0.032538
0.674563 0.172175 0.032538
0.706754 0.172175 0.032538
0.739376 0.172175 0.032538
0.772428 0.172175 0.032538
0.805911 0.172175 0.032538
0.839825 0.172175 0.032538
0.874169 0.172175 0.032538
0.908945 0.172175 0.032538
0.944150 0.172175 0.032538
0.979787 0.172175 0.032538
1.000000 0.172175 0.032538
1.000000 0.172175 0.032538
1.000000 0.172175 0.032538
0.032820 0.205937 0.032538
0.068305 0.205937 0.032538
0.103359 0.205937 0.032538
0.137982 0.205937 0.032538
0.172175 0.205937 0.032538
0.205937 0.205937 0.032538
0.239268 0.205937 0.032538
0.272169 0.205937 0.032538
0.304639 0.205937 0.032538
0.336678 0.205937 0.032538
0.368287 0.205937 0.032538
0.399465 0.205937 0.032538
0.430212 0.205937 0.032538
0.460529 0.205937 0.032538
0.490415 0.205937 0.032538
0.520067 0.205937 0.032538
0.550105 0.205937 0.032538
0.580573 0.205937 0.032538
0.611473 0.205937 0.032538
0.642802 0.205937 0.032538
0.674563 0.205937 0.032538
0.706754 0.205937 0.032538
0.739376 0.205937 0.032538
0.772428 0.205937 0.032538
0.805911 0.205937 0.032538
0.839825 0.205937 0.032538
0.874169 0.205937 0.032538
0.908945 0.205937 0.032538
0.944150 0.205937 0.032538
0.979787 0.205937 0.032538
1.000000 0.205937 0.032538
1.000000 0.205937 0.032538
1.000000 0.205937 0.032538
0.032820 0.239268 0.032538
0.068305 0.239268 0.032538
0.103359 0.239268 0.032538
0.137982 0.239268 0.032538
0.172175 0.239268 0.032538
0.205937 0.239268 0.032538
0.239268 0.239268 0.032538
0.272169 0.239268 0.032538
0.304639 0.239268 0.032538
0.336678 0.239268 0.032538
0.368287 0.239268 0.032538
0.399465 0.239268 0.032538
0.430212 0.239268 0.032538
0.460529 0.239268 0.032538
0.490415 0.239268 0.032538
0.520067 0.239268 0.032538
0.550105 0.239268 0.032538
0.580573 0.239268 0.032538
0.611473 0.239268 0.032538
0.642802 0.239268 0.032538
0.674563 0.239268 0.032538
0.706754 0.239268 0.032538
0.739376 0.239268 0.032538
0.772428 0.239268 0.032538
0.805911 0.239268 0.032538
0.839825 0.239268 0.032538
0.874169 0.239268 0.032538
0.908945 0.239268 0.032538
0.944150 0.239268 0.032538
0.979787 0.239268 0.032538
1.000000 0.239268 0.032538
1.000000 0.239268 0.032538
1.000000 0.239268 0.032538
0.032820 0.272169 0.032538
0.068305 0.272169 0.032538
0.103359 0.272169 0.032538
0.137982 0.272169 0.032538
0.172175 0.272169 0.032538
0.205937 0.272169 0.032538
0.239268 0.272169 0.032538
0.272169 0.272169 0.032538
0.304639 0.272169 0.032538
0.336678 0.272169 0.032538
0.368287 0.272169 0.032538
0.399465 0.272169 0.032538
0.430212 0.272169 0.032538
0.460529 0.272169 0.032538
0.490415 0.272169 0.032538
0.520067 0.272169 0.032538
0.550105 0.272169 0.032538
0.580573 0.272169 0.032538
0.611473 0.272169 0.032538
0.642802 0.272169 0.032538
0.674563 0.272169 0.032538
0.706754 0.272169 0.032538
0.739376 0.272169 0.032538
0.772428 0.272169 0.032538
0.805911 0.272169 0.032538
0.839825 0.272169 0.032538
0.874169 0.272169 0.032538
0.908945 0.272169 0.032538
0.944150 0.272169 0.032538
0.979787 0.272169 0.032538
1.000000 0.272169 0.032538
1.000000 0.272169 0.032538
1.000000 0.272169 0.032538
0.032820 0.304639 0.032538
0.068305 0.304639 0.032538
0.103359 0.304639 0.032538
0.137982 0.304639 0.032538
0.172175 0.304639 0.032538
0.205937 0.304639 0.032538
0.239268 0.304639 0.032538
0.272169 0.304639 0.032538
0.304639 0.304639 0.032538
0.336678 0.304639 0.032538
0.368287 0.304639 0.032538
0.399465 0.304639 0.032538
0.430212 0.304639 0.032538
0.460529 0.304639 0.032538
0.490415 0.304639 0.032538
0.520067 0.304639 0.032538
0.550105 0.304639 0.032538
0.580573 0.304639 0.032538
0.611473 0.304639 0.032538
0.642802 0.304639 0.032538
0.674563 0.304639 0.032538
0.706754 0.304639 0.032538
0.739376 0.304639 0.032538
0.772428 0.304639 0.032538
0.805911 0.304639 0.032538
0.839825 0.304639 0.032538
0.874169 0.304639 0.032538
0.908945 0.304639 0.032538
0.944150 0.304639 0.032538
0.979787 0.304639 0.032538
1.000000 0.304639 0.032538
1.000000 0.304639 0.032538
1.000000 0.304639 0.032538
0.032820 0.336678 0.032538
0.068305 0.336678 0.032538
0.103359 0.336678 0.032538
0.137982 0.336678 0.032538
0.172175 0.336678 0.032538
0.205937 0.336678 0.032538
0.239268 0.336678 0.032538
0.272169 0.336678 0.032538
0.304639 0.336678 0.032538
0.336678 0.336678 0.032538
0.368287 0.336678 0.032538
0.399465 0.336678 0.032538
0.430212 0.336678 0.032538
0.460529 0.336678 0.032538
0.490415 0.336678 0.032538
0.520067 0.336678 0.032538
0.550105 0.336678 0.032538
0.580573 0.336678 0.032538
0.611473 0.336678 0.032538
0.642802 0.336678 0.032538
0.674563 0.336678 0.032538
0.706754 0.336678 0.032538
0.739376 0.336678 0.032538
0.772428 0.336678 0.032538
0.805911 0.336678 0.032538
0.839825 0.336678 0.032538
0.874169 0.336678 0.032538
0.908945 0.336678 0.032538
0.944150 0.336678 0.032538
0.979787 0.336678 0.032538
1.000000 0.336678 0.032538
1.000000 0.336678 0.032538
1.000000 0.336678 0.032538
0.032820 0.368287 0.032538
0.068305 0.368287 0.032538
0.103359 0.368287 0.032538
0.137982 0.368287 0.032538
0.172175 0.368287 0.032538
0.205937 0.368287 0.032538
0.239268 0.368287 0.032538
0.272169 0.368287 0.032538
0.304639 0.368287 0.032538
0.336678 0.368287 0.032538
0.368287 0.368287 0.032538
0.399465 0.368287 0.032538
0.430212 0.368287 0.032538
0.460529 0.368287 0.032538
0.490415 0.368287 0.032538
0.520067 0.368287 0.032538
0.550105 0.368287 0.032538
0.580573 0.368287 0.032538
0.611473 0.368287 0.032538
0.642802 0.368287 0.032538
0.674563 0.368287 0.032538
0.706754 0.368287 0.032538
0.739376 0.368287 0.032538
0.772428 0.368287 0.032538
0.805911 0.368287 0.032538
0.839825 0.368287 0.032538
0.874169 0.368287 0.032538
0.908945 0.368287 0.032538
0.944150 0.368287 0.032538
0.979787 0.368287 0.032538
1.000000 0.368287 0.032538
1.000000 0.368287 0.032538
1.000000 0.368287 0.032538
0.032820 0.399465 0.032538
0.068305 0.399465 0.032538
0.103359 0.399465 0.032538
0.137982 0.399465 0.032538
0.172175 0.399465 0.032538
0.205937 0.399465 0.032538
0.239268 0.399465 0.032538
0.272169 0.399465 0.032538
0.304639 0.399465 0.032538
0.336678 0.399465 0.032538
0.368287 0.399465 0.032538
0.399465 0.399465 0.032538
0.430212 0.399465 0.032538
0.460529 0.399465 0.032538
0.490415 0.399465 0.032538
0.520067 0.399465 0.032538
0.550105 0.399465 0.032538
0.580573 0.399465 0.032538
0.611473 0.399465 0.032538
0.642802 0.399465 0.032538
0.674563 0.399465 0.032538
0.706754 0.399465 0.032538
0.739376 0.399465 0.032538
0.772428 0.399465 0.032538
0.805911 0.399465 0.032538
0.839825 0.399465 0.032538
0.874169 0.399465 0.032538
0.908945 0.399465 0.032538
0.944150 0.399465 0.032538
0.979787 0.399465 0.032538
1.000000 0.399465 0.032538
1.000000 0.399465 0.032538
1.000000 0.399465 0.032538
0.032820 0.430212 0.032538
0.068305 0.430212 0.032538
0.103359 0.430212 0.032538
0.137982 0.430212 0.032538
0.172175 0.430212 0.032538
0.205937 0.430212 0.032538
0.239268 0.430212 0.032538
0.272169 0.430212 0.032538
0.304639 0.430212 0.032538
0.336678 0.430212 0.032538
0.368287 0.430212 0.032538
0.399465 0.430212 0.032538
0.430212 0.430212 0.032538
0.460529 0.430212 0.032538
0.490415 0.430212 0.032538
0.520067 0.430212 0.032538
0.550105 0.430212 0.032538
0.580573 0.430212 0.032538
0.611473 0.430212 0.032538
0.642802 0.430212 0.032538
0.674563 0.430212 0.032538
0.706754 0.430212 0.032538
0.739376 0.430212 0.032538
0.772428 0.430212 0.032538
0.805911 0.430212 0.032538
0.839825 0.430212 0.032538
0.874169 0.430212 0.032538
0.908945 0.430212 0.032538
0.944150 0.430212 0.032538
0.979787 0.430212 0.032538
1.000000 0.430212 0.032538
1.000000 0.430212 0.032538
1.000000 0.430212 0.032538
0.032820 0.460529 0.032538
0.068305 0.460529 0.032538
0.103359 0.460529 0.032538
0.137982 0.460529 0.032538
0.172175 0.460529 0.032538
0.205937 0.460529 0.032538
0.239268 0.460529 0.032538
0.272169 0.460529 0.032538
0.304639 0.460529 0.032538
0.336678 0.460529 0.032538
0.368287 0.460529 0.032538
0.399465 0.460529 0.032538
0.430212 0.460529 0.032538
0.460529 0.460529 0.032538
0.490415 0.460529 0.032538
0.520067 0.460529 0.032538
0.550105 0.460529 0.032538
0.580573 0.460529 0.032538
0.611473 0.460529 0.032538
0.642802 0.460529 0.032538
0.674563 0.460529 0.032538
0.706754 0.460529 0.032538
0.739376 0.460529 0.032538
0.772428 0.460529 0.032538
0.805911 0.460529 0.032538
0.839825 0.460529 0.032538
0.874169 0.460529 0.032538
0.908945 0.460529 0.032538
0.944150 0.460529 0.032538
0.979787 0.460529 0.032538
1.000000 0.460529 0.032538
1.000000 0.460529 0.032538
1.000000 0.460529 0.032538
0.032820 0.490415 0.032538
0.068305 0.490415 0.032538
0.103359 0.490415 0.032538
0.137982 0.490415 0.032538
0.172175 0.490415 0.032538
0.205937 0.490415 0.032538
0.239268 0.490415 0.032538
0.272169 0.490415 0.032538
0.304639 0.490415 0.032538
0.336678 0.490415 0.032538
0.368287 0.490415 0.032538
0.399465 0.490415 0.032538
0.430212 0.490415 0.032538
0.460529 0.490415 0.032538
0.490415 0.490415 0.032538
0.520067 0.490415 0.032538
0.550105 0.490415 0.032538
0.580573 0.490415 0.032538
0.611473 0.490415 0.032538
0.642802 0.490415 0.032538
0.674563 0.490415 0.032538
0.706754 0.490415 0.032538
0.739376 0.490415 0.032538
0.772428 0.490415 0.032538
0.805911 0.490415 0.032538
0.839825 0.490415 0.032538
0.874169 0.490415 0.032538
0.908945 0.490415 0.032538
0.944150 0.490415 0.032538
0.979787 0.490415 0.032538
1.000000 0.490415 0.032538
1.000000 0.490415 0.032538
1.000000 0.490415 0.032538
0.032820 0.520067 0.032538
0.068305 0.520067 0.032538
0.103359 0.520067 0.032538
0.137982 0.520067 0.032538
0.172175 0.520067 0.032538
0.205937 0.520067 0.032538
0.239268 0.520067 0.032538
0.272169 0.520067 0.032538
0.304639 0.520067 0.032538
0.336678 0.520067 0.032538
0.368287 0.520067 0.032538
0.399465 0.520067 0.032538
0.430212 0.520067 0.032538
0.460529 0.520067 0.032538
0.490415 0.520067 0.032538
0.520067 0.520067 0.032538
0.550105 0.520067 0.032538
0.580573 0.520067 0.032538
0.611473 0.520067 0.032538
0.642802 0.520067 0.032538
0.674563 0.520067 0.032538
0.706754 0.520067 0.032538
0.739376 0.520067 0.032538
0.772428 0.520067 0.032538
0.805911 0.520067 0.032538
0.839825 0.520067 0.032538
0.874169 0.520067 0.032538
0.908945 0.520067 0.032538
0.944150 0.520067 0.032538
0.979787 0.520067 0.032538
1.000000 0.520067 0.032538
1.000000 0.520067 0.032538
1.000000 0.520067 0.032538
0.032820 0.550105 0.032538
0.068305 0.550105 0.032538
0.103359 0.550105 0.032538
0.137982 0.550105 0.032538
0.172175 0.550105 0.032538
0.205937 0.550105 0.032538
0.239268 0.550105 0.032538
0.272169 0.550105 0.032538
0.304639 0.550105 0.032538
0.336678 0.550105 0.032538
0.368287 0.550105 0.032538
0.399465 0.550105 0.032538
0.430212 0.550105 0.032538
0.460529 0.550105 0.032538
0.490415 0.550105 0.032538
0.520067 0.550105 0.032538
0.550105 0.550105 0.032538
0.580573 0.550105 0.032538
0.611473 0.550105 0.032538
0.642802 0.550105 0.032538
0.674563 0.550105 0.032538
0.706754 0.550105 0.032538
0.739376 0.550105 0.032538
0.772428 0.550105 0.032538
0.805911 0.550105 0.032538
0.839825 0.550105 0.032538
0.874169 0.550105 0.032538
0.908945 0.550105 0.032538
0.944150 0.550105 0.032582
0.979787 0.550105 0.032958
1.000000 0.550105 0.033169
1.000000 0.550105 0.033169
1.000000 0.550105 0.033169
0.032820 0.580573 0.032538
0.068305 0.580573 0.032538
0.103359 0.580573 0.032538
0.137982 0.580573 0.032538
0.172175 0.580573 0.032538
0.205937 0.580573 0.032538
0.239268 0.580573 0.032538
0.272169 0.580573 0.032538
0.304639 0.580573 0.032538
0.336678 0.580573 0.032538
0.368287 0.580573 0.032538
0.399465 0.580573 0.032538
0.430212 0.580573 0.032538
0.460529 0.580573 0.032538
0.490415 0.580573 0.032538
0.520067 0.580573 0.032538
0.550105 0.580573 0.032538
0.580573 0.580573 0.032538
0.611473 0.580573 0.032538
0.642802 0.580573 0.032538
0.674563 0.580573 0.032538
0.706754 0.580573 0.032538
0.739376 0.580573 0.032538
0.772428 0.580573 0.032538
0.805911 0.580573 0.032538
0.839825 0.580573 0.032719
0.874169 0.580573 0.033095
0.908945 0.580573 0.033471
0.944150 0.580573 0.033848
0.979787 0.580573 0.034224
1.000000 0.580573 0.034435
1.000000 0.580573 0.034435
1.000000 0.580573 0.034435
0.032820 0.611473 0.032538
0.068305 0.611473 0.032538
0.103359 0.611473 0.032538
0.137982 0.611473 0.032538
0.172175 0.611473 0.032538
0.205937 0.611473 0.032538
0.239268 0.611473 0.032538
0.272169 0.611473 0.032538
0.304639 0.611473 0.032538
0.336678 0.611473 0.032538
0.368287 0.611473 0.032538
0.399465 0.611473 0.032538
0.430212 0.611473 0.032538
0.460529 0.611473 0.032538
0.490415 0.611473 0.032538
0.520067 0.611473 0.032538
0.550105 0.611473 0.032538
0.580573 0.611473 0.032538
0.611473 0.611473 0.032538
0.642802 0.611473 0.032538
0.674563 0.611473 0.032538
0.706754 0.611473 0.032538
0.739376 0.611473 0.032856
0.772428 0.611473 0.033232
0.805911 0.611473 0.033608
0.839825 0.611473 0.033985
0.874169 0.611473 0.034361
0.908945 0.611473 0.034737
0.944150 0.611473 0.035113
0.979787 0.611473 0.035489
1.000000 0.611473 0.035701
1.000000 0.611473 0.035701
1.000000 0.611473 0.035701
0.032820 0.642802 0.032538
0.068305 0.642802 0.032538
0.103359 0.642802 0.032538
0.137982 0.642802 0.032538
0.172175 0.642802 0.032538
0.205937 0.642802 0.032538
0.239268 0.642802 0.032538
0.272169 0.642802 0.032538
0.304639 0.642802 0.032538
0.336678 0.642802 0.032538
0.368287 0.642802 0.032538
0.399465 0.642802 0.032538
0.430212 0.642802 0.032538
0.460529 0.642802 0.032538
0.490415 0.642802 0.032538
0.520067 0.642802 0.032538
0.550105 0.642802 0.032538
0.580573 0.642802 0.032538
0.611473 0.642802 0.032616
0.642802 0.642802 0.032993
0.674563 0.642802 0.033369
0.706754 0.642802 0.033745
0.739376 0.642802 0.034122
0.772428 0.642802 0.034498
0.805911 0.642802 0.034874
0.839825 0.642802 0.035250
0.874169 0.642802 0.035626
0.908945 0.642802 0.036002
0.944150 0.642802 0.036378
0.979787 0.642802 0.036754
1.000000 0.642802 0.036965
1.000000 0.642802 0.036965
1.000000 0.642802 0.036965
0.032820 0.674563 0.032538
0.068305 0.674563 0.032538
0.103359 0.674563 0.032538
0.137982 0.674563 0.032538
0.172175 0.674563 0.032538
0.205937 0.674563 0.032538
0.239268 0.674563 0.032538
0.272169 0.674563 0.032538
0.304639 0.674563 0.032538
0.336678 0.674563 0.032538
0.368287 0.674563 0.032538
0.399465 0.674563 0.032538
0.430212 0.674563 0.032538
0.460529 0.674563 0.032538
0.490415 0.674563 0.032538
0.520067 0.674563 0.032753
0.550105 0.674563 0.033130
0.580573 0.674563 0.033506
0.611473 0.674563 0.033882
0.642802 0.674563 0.034258
0.674563 0.674563 0.034635
0.706754 0.674563 0.035011
0.739376 0.674563 0.035387
0.772428 0.674563 0.035763
0.805911 0.674563 0.036139
0.839825 0.674563 0.036515
0.874169 0.674563 0.036891
0.908945 0.674563 0.037267
0.944150 0.674563 0.037643
0.979787 0.674563 0.038019
1.000000 0.674563 0.038230
1.000000 0.674563 0.038230
1.000000 0.674563 0.038230
0.032820 0.706754 0.032538
0.068305 0.706754 0.032538
0.103359 0.706754 0.032538
0.137982 0.706754 0.032538
0.172175 0.706754 0.032538
0.205937 0.706754 0.032538
0.239268 0.706754 0.032538
0.272169 0.706754 0.032538
0.304639 0.706754 0.032538
0.336678 0.706754 0.032538
0.368287 0.706754 0.032538
0.399465 0.706754 0.032538
0.430212 0.706754 0.032890
0.460529 0.706754 0.033267
0.490415 0.706754 0.033643
0.520067 0.706754 0.034019
0.550105 0.706754 0.034395
0.580573 0.706754 0.034772
0.611473 0.706754 0.035148
0.642802 0.706754 0.035524
0.674563 0.706754 0.035900
0.706754 0.706754 0.036276
0.739376 0.706754 0.036652
0.772428 0.706754 0.037028
0.805911 0.706754 0.037404
0.839825 0.706754 0.037780
0.874169 0.706754 0.038155
0.908945 0.706754 0.038531
0.944150 0.706754 0.038907
0.979787 0.706754 0.039282
1.000000 0.706754 0.039493
1.000000 0.706754 0.039493
1.000000 0.706754 0.039493
0.032820 0.739376 0.032538
0.068305 0.739376 0.032538
0.103359 0.739376 0.032538
0.137982 0.739376 0.032538
0.172175 0.739376 0.032538
0.205937 0.739376 0.032538
0.239268 0.739376 0.032538
0.272169 0.739376 0.032538
0.304639 0.739376 0.032651
0.336678 0.739376 0.033027
0.368287 0.739376 0.033404
0.399465 0.739376 0.033780
0.430212 0.739376 0.034156
0.460529 0.739376 0.034532
0.490415 0.739376 0.034909
0.520067 0.739376 0.035285
0.550105 0.739376 0.035661
0.580573 0.739376 0.036037
0.611473 0.739376 0.036413
0.642802 0.739376 0.036789
0.674563 0.739376 0.037165
0.706754 0.739376 0.037541
0.739376 0.739376 0.037916
0.772428 0.739376 0.038292
0.805911 0.739376 0.038668
0.839825 0.739376 0.039044
0.874169 0.739376 0.039419
0.908945 0.739376 0.039795
0.944150 0.739376 0.040170
0.979787 0.739376 0.040546
1.000000 0.739376 0.040757
1.000000 0.739376 0.040757
1.000000 0.739376 0.040757
0.032820 0.772428 0.032538
0.068305 0.772428 0.032538
0.103359 0.772428 0.032538
0.137982 0.772428 0.032538
0.172175 0.772428 0.032538
0.205937 0.772428 0.032788
0.239268 0.772428 0.033164
0.272169 0.772428 0.033541
0.304639 0.772428 0.033917
0.336678 0.772428 0.034293
0.368287 0.772428 0.034669
0.399465 0.772428 0.035046
0.430212 0.772428 0.035422
0.460529 0.772428 0.035798
0.490415 0.772428 0.036174
0.520067 0.772428 0.036550
0.550105 0.772428 0.036926
0.580573 0.772428 0.037301
0.611473 0.772428 0.037677
0.642802 0.772428 0.038053
0.674563 0.772428 0.038429
0.706754 0.772428 0.038805
0.739376 0.772428 0.039180
0.772428 0.772428 0.039556
0.805911 0.772428 0.039931
0.839825 0.772428 0.040307
0.874169 0.772428 0.040683
0.908945 0.772428 0.041058
0.944150 0.772428 0.041433
0.979787 0.772428 0.041809
1.000000 0.772428 0.042020
1.000000 0.772428 0.042020
1.000000 0.772428 0.042020
0.032820 0.805911 0.032538
0.068305 0.805911 0.032549
0.103359 0.805911 0.032925
0.137982 0.805911 0.033301
0.172175 0.805911 0.033678
0.205937 0.805911 0.034054
0.239268 0.805911 0.034430
0.272169 0.805911 0.034806
0.304639 0.805911 0.035182
0.336678 0.805911 0.035559
0.368287 0.805911 0.035935
0.399465 0.805911 0.036311
0.430212 0.805911 0.036687
0.460529 0.805911 0.037062
0.490415 0.805911 0.037438
0.520067 0.805911 0.037814
0.550105 0.805911 0.038190
0.580573 0.805911 0.038566
0.611473 0.805911 0.038941
0.642802 0.805911 0.039317
0.674563 0.805911 0.039693
0.706754 0.805911 0.040068
0.739376 0.805911 0.040444
0.772428 0.805911 0.040819
0.805911 0.805911 0.041195
0.839825 0.805911 0.041570
0.874169 0.805911 0.041945
0.908945 0.805911 0.042321
0.944150 0.805911 0.042696
0.979787 0.805911 0.043071
1.000000 0.805911 0.043282
1.000000 0.805911 0.043282
1.000000 0.805911 0.043282
0.032820 0.839825 0.033438
0.068305 0.839825 0.033815
0.103359 0.839825 0.034191
0.137982 0.839825 0.034567
0.172175 0.839825 0.034943
0.205937 0.839825 0.035319
0.239268 0.839825 0.035695
0.272169 0.839825 0.036071
0.304639 0.839825 0.036447
0.336678 0.839825 0.036823
0.368287 0.839825 0.037199
0.399465 0.839825 0.037575
0.430212 0.839825 0.037951
0.460529 0.839825 0.038327
0.490415 0.839825 0.038702
0.520067 0.839825 0.039078
0.550105 0.839825 0.039454
0.580573 0.839825 0.039829
0.611473 0.839825 0.040205
0.642802 0.839825 0.040580
0.674563 0.839825 0.040956
0.706754 0.839825 0.041331
0.739376 0.839825 0.041707
0.772428 0.839825 0.042082
0.805911 0.839825 0.042457
0.839825 0.839825 0.042833
0.874169 0.839825 0.043208
0.908945 0.839825 0.043583
0.944150 0.839825 0.043958
0.979787 0.839825 0.044333
1.000000 0.839825 0.044544
1.000000 0.839825 0.044544
1.000000 0.839825 0.044544
0.032820 0.874169 0.034704
0.068305 0.874169 0.035080
0.103359 0.874169 0.035456
0.137982 0.874169 0.035832
0.172175 0.874169 0.036208
0.205937 0.874169 0.036584
0.239268 0.874169 0.036960
0.272169 0.874169 0.037336
0.304639 0.874169 0.037712
0.336678 0.874169 0.038088
0.368287 0.874169 0.038464
0.399465 0.874169 0.038839
0.430212 0.874169 0.039215
0.460529 0.874169 0.039591
0.490415 0.874169 0.039966
0.520067 0.874169 0.040342
0.550105 0.874169 0.040717
0.580573 0.874169 0.041093
0.611473 0.874169 0.041468
0.642802 0.874169 0.041843
0.674563 0.874169 0.042219
0.706754 0.874169 0.042594
0.739376 0.874169 0.042969
