PhotoStyler/Resources/LUTs/Airy.cube
# Generated by tools/generate_luts.py
# Placeholder starter look - replace with an exported Lightroom LUT.
TITLE "PhotoStyler Airy"
LUT_3D_SIZE 5
DOMAIN_MIN 0.0 0.0 0.0
DOMAIN_MAX 1.0 1.0 1.0
0.032820 0.032820 0.032538
0.304639 0.032820 0.032538
0.550105 0.032820 0.032538
0.805911 0.032820 0.032538
1.000000 0.032820 0.032538
0.032820 0.304639 0.032538
0.304639 0.304639 0.032538
0.550105 0.304639 0.032538
0.805911 0.304639 0.032538
1.000000 0.304639 0.032538
0.032820 0.550105 0.032538
0.304639 0.550105 0.032538
0.550105 0.550105 0.032538
0.805911 0.550105 0.032538
1.000000 0.550105 0.033169
0.032820 0.805911 0.032538
0.304639 0.805911 0.035182
0.550105 0.805911 0.038190
0.805911 0.805911 0.041195
1.000000 0.805911 0.043282
0.032820 1.000000 0.039208
0.304639 1.000000 0.042212
0.550105 1.000000 0.045213
0.805911 1.000000 0.048211
1.000000 1.000000 0.050294
0.032820 0.032820 0.303425
0.304639 0.032820 0.303425
0.550105 0.032820 0.303425
0.805911 0.032820 0.303425
1.000000 0.032820 0.303425
0.032820 0.304639 0.303425
0.304639 0.304639 0.303425
0.550105 0.304639 0.303425
0.805911 0.304639 0.303425
1.000000 0.304639 0.303425
0.032820 0.550105 0.303425
0.304639 0.550105 0.303425
0.550105 0.550105 0.303425
0.805911 0.550105 0.303425
1.000000 0.550105 0.304934
0.032820 0.805911 0.304024
0.304639 0.805911 0.306770
0.550105 0.805911 0.309513
0.805911 0.805911 0.312253
1.000000 0.805911 0.314156
0.032820 1.000000 0.310441
0.304639 1.000000 0.313180
0.550105 1.000000 0.315917
0.805911 1.000000 0.318650
1.000000 1.000000 0.320549
0.032820 0.032820 0.550595
0.304639 0.032820 0.550595
0.550105 0.032820 0.550595
0.805911 0.032820 0.550595
1.000000 0.032820 0.550595
0.032820 0.304639 0.550595
0.304639 0.304639 0.550595
0.550105 0.304639 0.550595
0.805911 0.304639 0.550595
1.000000 0.304639 0.550595
0.032820 0.550105 0.550595
0.304639 0.550105 0.550595
0.550105 0.550105 0.550595
0.805911 0.550105 0.551097
1.000000 0.550105 0.552902
0.032820 0.805911 0.552042
0.304639 0.805911 0.554639
0.550105 0.805911 0.557240
0.805911 0.805911 0.559843
1.000000 0.805911 0.561654
0.032820 1.000000 0.558121
0.304639 1.000000 0.560725
0.550105 1.000000 0.563332
0.805911 1.000000 0.565942
1.000000 1.000000 0.567758
0.032820 0.032820 0.807070
0.304639 0.032820 0.807070
0.550105 0.032820 0.807070
0.805911 0.032820 0.807070
1.000000 0.032820 0.807070
0.032820 0.304639 0.807070
0.304639 0.304639 0.807070
0.550105 0.304639 0.807070
0.805911 0.304639 0.807070
1.000000 0.304639 0.807070
0.032820 0.550105 0.807070
0.304639 0.550105 0.807070
0.550105 0.550105 0.807070
0.805911 0.550105 0.808595
1.000000 0.550105 0.810584
0.032820 0.805911 0.809636
0.304639 0.805911 0.812498
0.550105 0.805911 0.815363
0.805911 0.805911 0.818231
1.000000 0.805911 0.820226
0.032820 1.000000 0.816334
0.304639 1.000000 0.819203
0.550105 1.000000 0.822074
0.805911 1.000000 0.824949
1.000000 1.000000 0.826949
0.032820 0.032820 1.000000
0.304639 0.032820 1.000000
0.550105 0.032820 1.000000
0.805911 0.032820 1.000000
1.000000 0.032820 1.000000
0.032820 0.304639 1.000000
0.304639 0.304639 1.000000
0.550105 0.304639 1.000000
0.805911 0.304639 1.000000
1.000000 0.304639 1.000000
0.032820 0.550105 1.000000
0.304639 0.550105 1.000000
0.550105 0.550105 1.000000
0.805911 0.550105 1.000000
1.000000 0.550105 1.000000
0.032820 0.805911 1.000000
0.304639 0.805911 1.000000
0.550105 0.805911 1.000000
0.805911 0.805911 1.000000
1.000000 0.805911 1.000000
0.032820 1.000000 1.000000
0.304639 1.000000 1.000000
0.550105 1.000000 1.000000
0.805911 1.000000 1.000000
1.000000 1.000000 1.000000
