PhotoStyler/Resources/LUTs/Cinematic.cube
# Generated by tools/generate_luts.py
# Placeholder starter look - replace with an exported Lightroom LUT.
TITLE "PhotoStyler Cinematic"
LUT_3D_SIZE 9
DOMAIN_MIN 0.0 0.0 0.0
DOMAIN_MAX 1.0 1.0 1.0
0.000000 0.014877 0.103584
0.079978 0.014483 0.100377
0.205047 0.014090 0.097179
0.342982 0.013697 0.093990
0.493785 0.013304 0.090810
0.645583 0.012911 0.087639
0.784534 0.012518 0.084477
0.910618 0.012126 0.081324
0.991308 0.011734 0.078180
0.000000 0.122004 0.092831
0.083510 0.121569 0.089654
0.208961 0.121134 0.086486
0.347279 0.120699 0.083328
0.498464 0.120265 0.080178
0.649898 0.119831 0.077038
0.788467 0.119396 0.073906
0.914169 0.118962 0.070783
0.994591 0.118528 0.067670
0.000000 0.239876 0.082180
0.087053 0.239399 0.079034
0.212887 0.238923 0.075896
0.351587 0.238447 0.072768
0.503149 0.237971 0.069649
0.654203 0.237495 0.066539
0.792389 0.237019 0.063438
0.917708 0.236543 0.060346
0.997862 0.236068 0.057262
0.000000 0.368493 0.071631
0.090607 0.367975 0.068516
0.216824 0.367457 0.065409
0.355907 0.366939 0.062311
0.507825 0.366421 0.059222
0.658495 0.365904 0.056142
0.796299 0.365387 0.053072
0.921070 0.364952 0.050496
1.000000 0.364952 0.050496
0.000000 0.507822 0.061185
0.094173 0.507267 0.058100
0.220772 0.506712 0.055023
0.360237 0.506156 0.051956
0.511764 0.505891 0.050496
0.660840 0.505891 0.050496
0.797275 0.505891 0.050496
0.921070 0.505891 0.050496
1.000000 0.506947 0.048754
0.000000 0.646015 0.050841
0.096806 0.645957 0.050496
0.222509 0.645957 0.050496
0.360852 0.645957 0.050496
0.512237 0.646117 0.050211
0.664769 0.647400 0.047920
0.804033 0.648683 0.045635
0.930029 0.649965 0.043354
1.000000 0.651245 0.041079
0.000000 0.774998 0.050496
0.098236 0.775573 0.049377
0.227334 0.776751 0.047088
0.369700 0.777928 0.044804
0.525006 0.779104 0.042525
0.676470 0.780279 0.040251
0.814666 0.781453 0.037983
0.939594 0.782626 0.035719
1.000000 0.783798 0.033461
0.007628 0.896071 0.043974
0.108136 0.897141 0.041697
0.238302 0.898210 0.039425
0.381736 0.899279 0.037158
0.537688 0.900346 0.034897
0.688084 0.901412 0.032640
0.825213 0.902478 0.030388
0.949073 0.903542 0.028142
1.000000 0.904605 0.025901
0.016703 1.000000 0.036334
0.118123 1.000000 0.034074
0.249357 1.000000 0.031820
0.393858 1.000000 0.029570
0.550285 1.000000 0.027325
0.699613 1.000000 0.025086
0.835673 1.000000 0.022852
0.958466 1.000000 0.020622
1.000000 1.000000 0.018398
0.000000 0.014743 0.210156
0.080334 0.014350 0.206662
0.205441 0.013956 0.203177
0.343416 0.013563 0.199701
0.494257 0.013170 0.196233
0.646019 0.012778 0.192775
0.784932 0.012385 0.189326
0.910977 0.011993 0.185886
0.991640 0.011600 0.182455
0.000000 0.121856 0.198437
0.083867 0.121421 0.194973
0.209357 0.120986 0.191519
0.347713 0.120552 0.188073
0.498937 0.120117 0.184636
0.650333 0.119683 0.181208
0.788864 0.119249 0.177790
0.914527 0.118815 0.174380
0.994921 0.118381 0.170979
0.000000 0.239714 0.186821
0.087411 0.239238 0.183387
0.213284 0.238761 0.179963
0.352023 0.238285 0.176547
0.503622 0.237809 0.173141
0.654636 0.237333 0.169744
0.792784 0.236858 0.166355
0.918065 0.236382 0.162976
0.998192 0.235907 0.159606
0.000000 0.368317 0.175306
0.090967 0.367799 0.171903
0.217222 0.367281 0.168509
0.356343 0.366763 0.165124
0.508296 0.366246 0.161748
0.658928 0.365728 0.158381
0.796693 0.365211 0.155023
0.921070 0.364952 0.153343
1.000000 0.364952 0.153343
0.000000 0.507634 0.163894
0.094534 0.507079 0.160521
0.221171 0.506523 0.157158
0.360675 0.505967 0.153803
0.511764 0.505891 0.153343
0.660840 0.505891 0.153343
0.797275 0.505891 0.153343
0.921357 0.506030 0.153093
1.000000 0.507418 0.150584
0.000000 0.645957 0.153343
0.096806 0.645957 0.153343
0.222509 0.645957 0.153343
0.360852 0.645957 0.153343
0.513530 0.646553 0.152179
0.665954 0.647836 0.149672
0.805110 0.649118 0.147170
0.930999 0.650400 0.144674
1.000000 0.651680 0.142182
0.000000 0.774998 0.153343
0.099232 0.775973 0.151266
0.228437 0.777151 0.148761
0.370911 0.778328 0.146261
0.526290 0.779503 0.143766
0.677646 0.780678 0.141277
0.815734 0.781852 0.138792
0.940555 0.783024 0.136313
1.000000 0.784196 0.133838
0.008540 0.896434 0.145352
0.109141 0.897504 0.142859
0.239414 0.898573 0.140372
0.382956 0.899641 0.137889
0.538964 0.900708 0.135411
0.689252 0.901774 0.132939
0.826273 0.902839 0.130471
0.950025 0.903903 0.128009
1.000000 0.904966 0.125552
0.017624 1.000000 0.136986
0.119136 1.000000 0.134511
0.250477 1.000000 0.132040
0.395087 1.000000 0.129574
0.551552 1.000000 0.127114
0.700772 1.000000 0.124659
0.836725 1.000000 0.122208
0.959409 1.000000 0.119763
1.000000 1.000000 0.117323
0.000000 0.014609 0.325849
0.080690 0.014216 0.322067
0.205836 0.013823 0.318295
0.343849 0.013430 0.314532
0.494729 0.013037 0.310777
0.646455 0.012644 0.307032
0.785329 0.012252 0.303296
0.911336 0.011859 0.299569
0.991972 0.011467 0.295851
0.000000 0.121708 0.313164
0.084224 0.121274 0.309413
0.209753 0.120839 0.305671
0.348148 0.120404 0.301938
0.499410 0.119970 0.298214
0.650768 0.119536 0.294499
0.789260 0.119102 0.290793
0.914885 0.118668 0.287097
0.995252 0.118234 0.283409
0.000000 0.239552 0.300581
0.087770 0.239076 0.296860
0.213681 0.238600 0.293149
0.352458 0.238123 0.289446
0.504094 0.237647 0.285753
0.655070 0.237172 0.282068
0.793179 0.236696 0.278393
0.918422 0.236221 0.274727
0.998521 0.235745 0.271069
0.000000 0.368141 0.288101
0.091327 0.367623 0.284411
0.217620 0.367105 0.280729
0.356780 0.366587 0.277057
0.508767 0.366070 0.273394
0.659361 0.365552 0.269740
0.797087 0.365035 0.266095
0.921070 0.364952 0.265506
1.000000 0.364952 0.265506
0.000000 0.507445 0.275723
0.094895 0.506890 0.272063
0.221570 0.506334 0.268412
0.360852 0.505891 0.265506
0.511764 0.505891 0.265506
0.660840 0.505891 0.265506
0.797275 0.505891 0.265506
0.922334 0.506501 0.264308
1.000000 0.507890 0.261583
0.000000 0.645957 0.265506
0.096806 0.645957 0.265506
0.222509 0.645957 0.265506
0.360852 0.645957 0.265506
0.514822 0.646989 0.263315
0.667138 0.648272 0.260593
0.806187 0.649554 0.257875
0.931968 0.650835 0.255163
1.000000 0.652114 0.252455
0.000446 0.775195 0.265049
0.100228 0.776373 0.262323
0.229541 0.777551 0.259603
0.372123 0.778727 0.256887
0.527573 0.779902 0.254176
0.678822 0.781077 0.251471
0.816802 0.782250 0.248770
0.941515 0.783422 0.246075
1.000000 0.784594 0.243385
0.009453 0.896798 0.255900
0.110146 0.897867 0.253191
0.240527 0.898936 0.250487
0.384177 0.900004 0.247789
0.540239 0.901070 0.245095
0.690419 0.902136 0.242407
0.827332 0.903201 0.239723
0.950976 0.904264 0.237045
1.000000 0.905327 0.234372
0.018546 1.000000 0.246807
0.120149 1.000000 0.244116
0.251599 1.000000 0.241429
0.396316 1.000000 0.238748
0.552818 1.000000 0.236071
0.701930 1.000000 0.233400
0.837775 1.000000 0.230734
0.960352 1.000000 0.228073
1.000000 1.000000 0.225417
0.000000 0.014476 0.450661
0.081046 0.014083 0.446593
0.206231 0.013689 0.442533
0.344282 0.013296 0.438483
0.495201 0.012904 0.434441
0.646891 0.012511 0.430409
0.785726 0.012119 0.426386
0.911695 0.011726 0.422371
0.992303 0.011334 0.418366
0.000000 0.121561 0.437010
0.084582 0.121126 0.432972
0.210149 0.120691 0.428943
0.348583 0.120257 0.424923
0.499883 0.119822 0.420912
0.651203 0.119388 0.416910
0.789656 0.118954 0.412917
0.915242 0.118520 0.408933
0.995583 0.118087 0.404958
0.000000 0.239390 0.423462
0.088128 0.238914 0.419454
0.214078 0.238438 0.415455
0.352894 0.237962 0.411466
0.504566 0.237486 0.407485
0.655504 0.237010 0.403513
0.793574 0.236535 0.399551
0.918778 0.236059 0.395597
0.998850 0.235584 0.391653
0.000000 0.367965 0.410015
0.091686 0.367447 0.406038
0.218018 0.366929 0.402070
0.357217 0.366412 0.398111
0.509238 0.365894 0.394160
0.659793 0.365377 0.390219
0.797275 0.364952 0.386986
0.921070 0.364952 0.386986
1.000000 0.364952 0.386986
0.000000 0.507257 0.396671
0.095256 0.506701 0.392724
0.221970 0.506146 0.388787
0.360852 0.505891 0.386986
0.511764 0.505891 0.386986
0.660840 0.505891 0.386986
0.797275 0.505891 0.386986
0.923311 0.506973 0.384692
1.000000 0.508361 0.381751
0.000000 0.645957 0.386986
0.096806 0.645957 0.386986
0.222509 0.645957 0.386986
0.361359 0.646141 0.386564
0.516113 0.647425 0.383621
0.668322 0.648707 0.380682
0.807262 0.649989 0.377749
0.932935 0.651269 0.374820
1.000000 0.652549 0.371897
0.001351 0.775595 0.385492
0.101225 0.776773 0.382550
0.230647 0.777950 0.379613
0.373336 0.779126 0.376682
0.528856 0.780301 0.373755
0.679996 0.781475 0.370834
0.817869 0.782648 0.367918
0.942474 0.783820 0.365006
1.000000 0.784991 0.362100
0.010367 0.897161 0.375616
0.111152 0.898230 0.372691
0.241641 0.899299 0.369772
0.385398 0.900366 0.366857
0.541512 0.901432 0.363948
0.691585 0.902498 0.361043
0.828390 0.903562 0.358144
0.951927 0.904625 0.355250
1.000000 0.905688 0.352361
0.019469 1.000000 0.365797
0.121164 1.000000 0.362890
0.252721 1.000000 0.359987
0.397546 1.000000 0.357090
0.554083 1.000000 0.354198
0.703088 1.000000 0.351310
0.838825 1.000000 0.348428
0.961294 1.000000 0.345551
1.000000 1.000000 0.342679
0.000000 0.014342 0.581047
0.081403 0.013949 0.577040
0.206626 0.013556 0.573025
0.344716 0.013163 0.569000
0.495673 0.012770 0.564966
0.647327 0.012378 0.560923
0.786124 0.011985 0.556872
0.912054 0.011593 0.552811
0.992635 0.011201 0.548741
0.000000 0.121413 0.567532
0.084939 0.120978 0.563495
0.210545 0.120544 0.559449
0.349017 0.120109 0.555394
0.500357 0.119675 0.551330
0.651638 0.119241 0.547257
0.790052 0.118807 0.543175
0.915600 0.118373 0.539084
0.995913 0.117939 0.534983
0.000000 0.239229 0.553916
0.088487 0.238752 0.549848
0.214475 0.238276 0.545772
0.353330 0.237800 0.541686
0.505039 0.237324 0.537592
0.655937 0.236849 0.533488
0.793969 0.236373 0.529376
0.919134 0.235898 0.525254
0.999180 0.235422 0.521123
0.000000 0.367789 0.540197
0.092046 0.367271 0.536099
0.218417 0.366753 0.531992
0.357654 0.366236 0.527876
0.509709 0.365718 0.523751
0.660226 0.365201 0.519617
0.797275 0.364952 0.517619
0.921070 0.364952 0.517619
1.000000 0.364952 0.517619
0.000000 0.507068 0.526376
0.095617 0.506513 0.522247
0.222370 0.505957 0.518110
0.360852 0.505891 0.517619
0.511764 0.505891 0.517619
0.660840 0.505891 0.517619
0.797653 0.506056 0.517251
0.924286 0.507445 0.514140
1.000000 0.508832 0.511025
0.000000 0.645957 0.517619
0.096806 0.645957 0.517619
0.222509 0.645957 0.517619
0.362565 0.646577 0.516119
0.517403 0.647860 0.513007
0.669504 0.649143 0.509890
0.808337 0.650424 0.506767
0.933902 0.651704 0.503640
1.000000 0.652983 0.500507
0.002258 0.775996 0.514986
0.102223 0.777173 0.511872
0.231753 0.778350 0.508753
0.374550 0.779525 0.505629
0.530137 0.780700 0.502500
0.681170 0.781874 0.499366
0.818935 0.783046 0.496234
0.943432 0.784218 0.493106
1.000000 0.785389 0.489984
0.011282 0.897524 0.504491
0.112159 0.898593 0.501359
0.242756 0.899661 0.498225
0.386621 0.900728 0.495094
0.542785 0.901794 0.491969
0.692750 0.902859 0.488849
0.829447 0.903923 0.485734
0.952876 0.904986 0.482624
1.000000 0.906048 0.479519
0.020393 1.000000 0.493956
0.122180 1.000000 0.490833
0.253845 1.000000 0.487714
0.398778 1.000000 0.484601
0.555347 1.000000 0.481493
0.704244 1.000000 0.478389
0.839873 1.000000 0.475291
0.962234 1.000000 0.472198
1.000000 1.000000 0.469111
0.000000 0.014209 0.703604
0.081759 0.013815 0.699885
0.207021 0.013422 0.696156
0.345150 0.013030 0.692419
0.496145 0.012637 0.688672
0.647763 0.012244 0.684917
0.786521 0.011852 0.681152
0.912412 0.011460 0.677378
0.992966 0.011068 0.673596
0.000000 0.121265 0.691056
0.085297 0.120831 0.687306
0.210941 0.120396 0.683547
0.349452 0.119962 0.679779
0.500830 0.119527 0.676002
0.652072 0.119093 0.672216
0.790448 0.118659 0.668421
0.915957 0.118226 0.664617
0.996243 0.117792 0.660804
0.000000 0.239067 0.678405
0.088846 0.238591 0.674625
0.214872 0.238114 0.670836
0.353766 0.237639 0.667037
0.505511 0.237163 0.663230
0.656371 0.236687 0.659413
0.794364 0.236212 0.655588
0.919490 0.235736 0.651753
0.999509 0.235261 0.647910
0.000000 0.367613 0.665652
0.092406 0.367095 0.661841
0.218815 0.366578 0.658022
0.358091 0.366060 0.654193
0.510180 0.365543 0.650355
0.660658 0.365026 0.646508
0.797275 0.364952 0.645957
0.921070 0.364952 0.645957
1.000000 0.364952 0.645957
0.000000 0.506879 0.652797
0.095978 0.506324 0.648956
0.222509 0.505891 0.645957
0.360852 0.505891 0.645957
0.511764 0.505891 0.645957
0.660840 0.505891 0.645957
0.798735 0.506527 0.644633
0.925261 0.507916 0.641739
1.000000 0.509303 0.638839
0.000000 0.645957 0.645957
0.096806 0.645957 0.645957
0.222509 0.645957 0.645957
0.363771 0.647013 0.643580
0.518693 0.648296 0.640684
0.670686 0.649578 0.637782
0.809411 0.650859 0.634876
0.934868 0.652139 0.631965
1.000000 0.653417 0.629048
0.003165 0.776396 0.642526
0.103223 0.777573 0.639628
0.232859 0.778749 0.636725
0.375764 0.779924 0.633817
0.531418 0.781099 0.630903
0.682343 0.782272 0.627985
0.820000 0.783444 0.625061
0.944389 0.784616 0.622133
1.000000 0.785786 0.619199
0.012198 0.897887 0.632757
0.113166 0.898956 0.629841
0.243871 0.900024 0.626921
0.387844 0.901090 0.623996
0.544057 0.902156 0.621065
0.693914 0.903221 0.618130
0.830503 0.904284 0.615189
0.953825 0.905347 0.612244
1.000000 0.906409 0.609293
0.021317 1.000000 0.622930
0.123196 1.000000 0.619997
0.254969 1.000000 0.617060
0.400010 1.000000 0.614117
0.556611 1.000000 0.611170
0.705400 1.000000 0.608217
0.840921 1.000000 0.605260
0.963174 1.000000 0.602297
1.000000 1.000000 0.599329
0.000000 0.014075 0.817042
0.082116 0.013682 0.813610
0.207416 0.013289 0.810168
0.345584 0.012896 0.806718
0.496618 0.012504 0.803258
0.648198 0.012111 0.799790
0.786918 0.011719 0.796312
0.912770 0.011327 0.792826
0.993298 0.010935 0.789330
0.000000 0.121118 0.805459
0.085655 0.120683 0.801997
0.211337 0.120249 0.798525
0.349887 0.119814 0.795044
0.501303 0.119380 0.791554
0.652507 0.118946 0.788055
0.790844 0.118512 0.784547
0.916314 0.118078 0.781030
0.996573 0.117645 0.777504
0.000000 0.238905 0.793775
0.089205 0.238429 0.790281
0.215270 0.237953 0.786779
0.354202 0.237477 0.783268
0.505982 0.237001 0.779748
0.656804 0.236526 0.776218
0.794759 0.236050 0.772680
0.919847 0.235575 0.769133
0.999838 0.235100 0.765576
0.000000 0.367437 0.781987
0.092766 0.366919 0.778464
0.219214 0.366402 0.774931
0.358528 0.365884 0.771390
0.510651 0.365367 0.767839
0.660840 0.364952 0.764980
0.797275 0.364952 0.764980
0.921070 0.364952 0.764980
1.000000 0.364952 0.764980
0.000000 0.506691 0.770098
0.096339 0.506135 0.766544
0.222509 0.505891 0.764980
0.360852 0.505891 0.764980
0.511764 0.505891 0.764980
0.660840 0.505891 0.764980
0.799817 0.506999 0.762847
0.926234 0.508387 0.760168
1.000000 0.509774 0.757485
0.000000 0.645957 0.764980
0.096806 0.645957 0.764980
0.223033 0.646165 0.764547
0.364977 0.647449 0.761872
0.519981 0.648731 0.759192
0.671866 0.650013 0.756506
0.810484 0.651293 0.753816
0.935833 0.652573 0.751120
1.000000 0.653851 0.748420
0.004073 0.776796 0.760897
0.104222 0.777973 0.758215
0.233967 0.779148 0.755528
0.376980 0.780323 0.752835
0.532698 0.781497 0.750138
0.683515 0.782670 0.747435
0.821064 0.783842 0.744728
0.945346 0.785013 0.742015
1.000000 0.786183 0.739297
0.013115 0.898250 0.751854
0.114175 0.899319 0.749155
0.244988 0.900386 0.746450
0.389068 0.901452 0.743741
0.545328 0.902518 0.741026
0.695078 0.903582 0.738307
0.831559 0.904645 0.735582
0.954773 0.905708 0.732852
1.000000 0.906769 0.730117
0.022242 1.000000 0.742753
0.124213 1.000000 0.740037
0.256094 1.000000 0.737315
0.401243 1.000000 0.734589
0.557873 1.000000 0.731857
0.706554 1.000000 0.729120
0.841968 1.000000 0.726379
0.964113 1.000000 0.723632
1.000000 1.000000 0.720880
0.000000 0.013942 0.921359
0.082473 0.013549 0.918214
0.207812 0.013156 0.915060
0.346017 0.012763 0.911897
0.497090 0.012370 0.908724
0.648634 0.011978 0.905543
0.787315 0.011586 0.902353
0.913129 0.011194 0.899153
0.993629 0.010802 0.895945
0.000000 0.120970 0.910743
0.086012 0.120535 0.907567
0.211734 0.120101 0.904382
0.350322 0.119667 0.901189
0.501776 0.119233 0.897986
0.652941 0.118799 0.894774
0.791240 0.118365 0.891553
0.916671 0.117931 0.888324
0.996903 0.117498 0.885085
0.000000 0.238743 0.900024
0.089564 0.238267 0.896818
0.215668 0.237791 0.893603
0.354638 0.237315 0.890379
0.506454 0.236840 0.887145
0.657237 0.236364 0.883903
0.795153 0.235889 0.880652
0.920203 0.235414 0.877392
1.000000 0.235020 0.874686
0.000000 0.367261 0.889203
0.093126 0.366744 0.885966
0.219613 0.366226 0.882721
0.358966 0.365709 0.879466
0.511121 0.365191 0.876203
0.660840 0.364952 0.874686
0.797275 0.364952 0.874686
0.921070 0.364952 0.874686
1.000000 0.364952 0.874686
0.000000 0.506502 0.878279
0.096700 0.505946 0.875012
0.222509 0.505891 0.874686
0.360852 0.505891 0.874686
0.511764 0.505891 0.874686
0.661320 0.506082 0.874349
0.800898 0.507471 0.871891
0.927207 0.508858 0.869429
1.000000 0.510245 0.866961
0.000000 0.645957 0.874686
0.096806 0.645957 0.874686
0.224133 0.646601 0.873455
0.366185 0.647884 0.870995
0.521269 0.649167 0.868531
0.673046 0.650448 0.866062
0.811556 0.651728 0.863587
0.936797 0.653007 0.861107
1.000000 0.654285 0.858623
0.004982 0.777195 0.870099
0.105223 0.778372 0.867633
0.235076 0.779548 0.865161
0.378196 0.780722 0.862685
0.533977 0.781896 0.860203
0.684686 0.783068 0.857717
0.822128 0.784240 0.855225
0.946301 0.785411 0.852728
1.000000 0.786580 0.850227
0.014032 0.898613 0.861782
0.115184 0.899681 0.859299
0.246105 0.900748 0.856810
0.390293 0.901814 0.854317
0.546599 0.902879 0.851818
0.696240 0.903943 0.849315
0.832614 0.905006 0.846806
0.955719 0.906068 0.844292
1.000000 0.907129 0.841773
0.023169 1.000000 0.853408
0.125231 1.000000 0.850907
0.257220 1.000000 0.848402
0.402476 1.000000 0.845891
0.559135 1.000000 0.843375
0.707708 1.000000 0.840855
0.843014 1.000000 0.838329
0.965052 1.000000 0.835798
1.000000 1.000000 0.833262
0.000000 0.013808 1.000000
0.082829 0.013415 1.000000
0.208207 0.013022 1.000000
0.346452 0.012630 1.000000
0.497563 0.012237 1.000000
0.649069 0.011845 1.000000
0.787711 0.011452 0.999273
0.913487 0.011060 0.996360
0.993960 0.010668 0.993439
0.000000 0.120822 1.000000
0.086370 0.120388 1.000000
0.212130 0.119954 1.000000
0.350757 0.119519 0.998213
0.502249 0.119085 0.995298
0.653375 0.118651 0.992373
0.791635 0.118218 0.989439
0.917028 0.117784 0.986497
0.997233 0.117350 0.983545
0.000000 0.238582 0.997153
0.089923 0.238106 0.994234
0.216065 0.237630 0.991306
0.355075 0.237154 0.988369
0.506926 0.236678 0.985423
0.657670 0.236203 0.982468
0.795548 0.235727 0.979504
0.920558 0.235252 0.976531
1.000000 0.235020 0.975076
0.000000 0.367086 0.987298
0.093486 0.366568 0.984348
0.220011 0.366050 0.981390
0.359403 0.365533 0.978423
0.511592 0.365016 0.975446
0.660840 0.364952 0.975076
0.797275 0.364952 0.975076
0.921070 0.364952 0.975076
1.000000 0.365098 0.974823
0.000000 0.506313 0.977340
0.096806 0.505891 0.975076
0.222509 0.505891 0.975076
0.360852 0.505891 0.975076
0.511764 0.505891 0.975076
0.662508 0.506554 0.974009
0.801978 0.507942 0.971767
0.928179 0.509330 0.969521
1.000000 0.510716 0.967269
0.000000 0.645957 0.975076
0.096806 0.645957 0.975076
0.225234 0.647037 0.973193
0.367394 0.648320 0.970950
0.522556 0.649602 0.968701
0.674225 0.650883 0.966448
0.812627 0.652163 0.964189
0.937761 0.653441 0.961926
1.000000 0.654719 0.959657
0.005891 0.777595 0.970132
0.106225 0.778771 0.967882
0.236185 0.779947 0.965626
0.379414 0.781121 0.963366
0.535255 0.782294 0.961100
0.685856 0.783466 0.958829
0.823190 0.784638 0.956554
0.947256 0.785808 0.954273
1.000000 0.786977 0.951987
0.014951 0.898976 0.962541
0.116195 0.900044 0.960274
0.247223 0.901111 0.958002
0.391519 0.902176 0.955724
0.547868 0.903241 0.953441
0.697402 0.904304 0.951154
0.833667 0.905367 0.948861
0.956665 0.906429 0.946563
1.000000 0.907489 0.944260
0.024096 1.000000 0.954894
0.126251 1.000000 0.952609
0.258347 1.000000 0.950319
0.403711 1.000000 0.948025
0.560395 1.000000 0.945725
0.708861 1.000000 0.943420
0.844059 1.000000 0.941110
0.965989 1.000000 0.938795
1.000000 1.000000 0.936475
