PhotoStyler/Resources/LUTs/Cinematic.cube
# Generated by tools/generate_luts.py
# Placeholder starter look - replace with an exported Lightroom LUT.
TITLE "PhotoStyler Cinematic"
LUT_3D_SIZE 33
DOMAIN_MIN 0.0 0.0 0.0
DOMAIN_MAX 1.0 1.0 1.0
0.000000 0.014877 0.103584
0.000000 0.014778 0.102781
0.022269 0.014680 0.101979
0.050721 0.014582 0.101178
0.079978 0.014483 0.100377
0.110039 0.014385 0.099576
0.140904 0.014287 0.098777
0.172573 0.014188 0.097977
0.205047 0.014090 0.097179
0.238324 0.013992 0.096381
0.272406 0.013893 0.095583
0.307292 0.013795 0.094786
0.342982 0.013697 0.093990
0.379477 0.013599 0.093194
0.416775 0.013500 0.092398
0.454878 0.013402 0.091604
0.493785 0.013304 0.090810
0.532926 0.013206 0.090016
0.571282 0.013107 0.089223
0.608835 0.013009 0.088431
0.645583 0.012911 0.087639
0.681527 0.012813 0.086847
0.716667 0.012715 0.086057
0.751003 0.012617 0.085266
0.784534 0.012518 0.084477
0.817261 0.012420 0.083688
0.849185 0.012322 0.082899
0.880304 0.012224 0.082111
0.910618 0.012126 0.081324
0.940129 0.012028 0.080537
0.968836 0.011930 0.079751
0.991064 0.011832 0.078965
0.991308 0.011734 0.078180
0.000000 0.040651 0.100886
0.000000 0.040550 0.100085
0.023103 0.040449 0.099285
0.051579 0.040348 0.098486
0.080860 0.040247 0.097687
0.110945 0.040146 0.096888
0.141834 0.040045 0.096090
0.173527 0.039945 0.095293
0.206024 0.039844 0.094496
0.239326 0.039743 0.093700
0.273431 0.039642 0.092904
0.308341 0.039541 0.092109
0.344055 0.039440 0.091315
0.380574 0.039339 0.090521
0.417896 0.039238 0.089727
0.456023 0.039138 0.088934
0.494954 0.039037 0.088142
0.534077 0.038936 0.087350
0.572410 0.038835 0.086559
0.609938 0.038734 0.085769
0.646663 0.038634 0.084979
0.682583 0.038533 0.084189
0.717699 0.038432 0.083400
0.752011 0.038331 0.082612
0.785518 0.038231 0.081824
0.818222 0.038130 0.081037
0.850121 0.038029 0.080251
0.881216 0.037928 0.079465
0.911507 0.037828 0.078679
0.940994 0.037727 0.077894
0.969676 0.037626 0.077110
0.991886 0.037526 0.076326
0.992130 0.037425 0.075543
0.000000 0.067097 0.098195
0.000000 0.066994 0.097396
0.023937 0.066890 0.096598
0.052438 0.066787 0.095800
0.081742 0.066683 0.095003
0.111851 0.066579 0.094206
0.142764 0.066476 0.093410
0.174481 0.066372 0.092615
0.207002 0.066269 0.091820
0.240328 0.066165 0.091025
0.274457 0.066062 0.090232
0.309391 0.065958 0.089439
0.345129 0.065855 0.088646
0.381671 0.065752 0.087854
0.419018 0.065648 0.087062
0.457168 0.065545 0.086271
0.496123 0.065441 0.085481
0.535228 0.065338 0.084691
0.573537 0.065234 0.083902
0.611042 0.065131 0.083113
0.647742 0.065028 0.082325
0.683638 0.064924 0.081538
0.718730 0.064821 0.080751
0.753018 0.064718 0.079964
0.786502 0.064614 0.079179
0.819182 0.064511 0.078393
0.851057 0.064408 0.077609
0.882128 0.064304 0.076824
0.912395 0.064201 0.076041
0.941858 0.064098 0.075258
0.970517 0.063994 0.074475
0.992707 0.063891 0.073693
0.992951 0.063788 0.072912
0.000000 0.094215 0.095510
0.000000 0.094109 0.094713
0.024773 0.094002 0.093916
0.053297 0.093896 0.093120
0.082626 0.093790 0.092325
0.112758 0.093684 0.091531
0.143695 0.093578 0.090736
0.175436 0.093472 0.089943
0.207981 0.093366 0.089150
0.241331 0.093260 0.088357
0.275484 0.093154 0.087566
0.310442 0.093048 0.086774
0.346204 0.092941 0.085984
0.382770 0.092835 0.085193
0.420140 0.092729 0.084404
0.458315 0.092623 0.083615
0.497293 0.092517 0.082826
0.536378 0.092411 0.082039
0.574663 0.092305 0.081251
0.612144 0.092199 0.080464
0.648821 0.092093 0.079678
0.684693 0.091987 0.078893
0.719761 0.091881 0.078107
0.754025 0.091775 0.077323
0.787485 0.091670 0.076539
0.820141 0.091564 0.075756
0.851992 0.091458 0.074973
0.883039 0.091352 0.074191
0.913282 0.091246 0.073409
0.942721 0.091140 0.072628
0.971356 0.091034 0.071847
0.993527 0.090928 0.071067
0.993771 0.090822 0.070288
0.000000 0.122004 0.092831
0.000000 0.121895 0.092036
0.025609 0.121786 0.091241
0.054157 0.121678 0.090447
0.083510 0.121569 0.089654
0.113666 0.121460 0.088861
0.144627 0.121352 0.088069
0.176392 0.121243 0.087277
0.208961 0.121134 0.086486
0.242334 0.121025 0.085696
0.276512 0.120917 0.084906
0.311493 0.120808 0.084117
0.347279 0.120699 0.083328
0.383869 0.120591 0.082539
0.421263 0.120482 0.081752
0.459461 0.120374 0.080965
0.498464 0.120265 0.080178
0.537528 0.120156 0.079392
0.575789 0.120048 0.078607
0.613246 0.119939 0.077822
0.649898 0.119831 0.077038
0.685747 0.119722 0.076254
0.720791 0.119613 0.075471
0.755031 0.119505 0.074688
0.788467 0.119396 0.073906
0.821099 0.119288 0.073125
0.852926 0.119179 0.072344
0.883950 0.119071 0.071563
0.914169 0.118962 0.070783
0.943584 0.118854 0.070004
0.972195 0.118745 0.069226
0.994347 0.118637 0.068448
0.994591 0.118528 0.067670
0.000000 0.150465 0.090159
0.000000 0.150353 0.089365
0.026446 0.150242 0.088573
0.055018 0.150131 0.087781
0.084394 0.150019 0.086989
0.114575 0.149908 0.086199
0.145560 0.149797 0.085408
0.177348 0.149685 0.084618
0.209941 0.149574 0.083829
0.243338 0.149463 0.083041
0.277540 0.149351 0.082253
0.312545 0.149240 0.081465
0.348355 0.149129 0.080678
0.384969 0.149018 0.079892
0.422387 0.148906 0.079106
0.460609 0.148795 0.078321
0.499636 0.148684 0.077536
0.538677 0.148573 0.076752
0.576914 0.148462 0.075969
0.614347 0.148350 0.075186
0.650975 0.148239 0.074403
0.686800 0.148128 0.073621
0.721820 0.148017 0.072840
0.756037 0.147906 0.072059
0.789449 0.147795 0.071279
0.822056 0.147684 0.070500
0.853860 0.147572 0.069721
0.884860 0.147461 0.068942
0.915055 0.147350 0.068164
0.944446 0.147239 0.067387
0.973033 0.147128 0.066610
0.995166 0.147017 0.065834
0.995410 0.146906 0.065059
0.000000 0.179597 0.087493
0.000000 0.179483 0.086701
0.027284 0.179369 0.085911
0.055880 0.179255 0.085121
0.085280 0.179141 0.084331
0.115484 0.179027 0.083542
0.146493 0.178913 0.082754
0.178305 0.178799 0.081966
0.210922 0.178685 0.081179
0.244343 0.178572 0.080392
0.278569 0.178458 0.079606
0.313598 0.178344 0.078820
0.349432 0.178230 0.078035
0.386069 0.178116 0.077251
0.423511 0.178002 0.076467
0.461758 0.177889 0.075683
0.500807 0.177775 0.074901
0.539825 0.177661 0.074119
0.578038 0.177547 0.073337
0.615447 0.177433 0.072556
0.652052 0.177320 0.071775
0.687853 0.177206 0.070995
0.722849 0.177092 0.070216
0.757041 0.176978 0.069437
0.790429 0.176865 0.068659
0.823013 0.176751 0.067881
0.854793 0.176637 0.067104
0.885769 0.176523 0.066328
0.915940 0.176410 0.065552
0.945307 0.176296 0.064776
0.973870 0.176182 0.064001
0.995985 0.176069 0.063227
0.996228 0.175955 0.062453
0.000000 0.209401 0.084833
0.000306 0.209284 0.084044
0.028122 0.209168 0.083255
0.056742 0.209051 0.082467
0.086166 0.208934 0.081679
0.116394 0.208818 0.080892
0.147427 0.208701 0.080106
0.179263 0.208585 0.079320
0.211904 0.208468 0.078534
0.245349 0.208352 0.077749
0.279598 0.208236 0.076965
0.314652 0.208119 0.076182
0.350509 0.208003 0.075398
0.387171 0.207886 0.074616
0.424637 0.207770 0.073834
0.462907 0.207653 0.073052
0.501979 0.207537 0.072272
0.540972 0.207421 0.071491
0.579162 0.207304 0.070712
0.616547 0.207188 0.069932
0.653128 0.207071 0.069154
0.688904 0.206955 0.068376
0.723877 0.206839 0.067598
0.758045 0.206722 0.066821
0.791409 0.206606 0.066045
0.823970 0.206490 0.065269
0.855725 0.206373 0.064494
0.886677 0.206257 0.063719
0.916825 0.206141 0.062945
0.946168 0.206025 0.062172
0.974707 0.205908 0.061399
0.996802 0.205792 0.060627
0.997045 0.205676 0.059855
0.000000 0.239876 0.082180
0.001122 0.239757 0.081393
0.028961 0.239638 0.080606
0.057605 0.239519 0.079819
0.087053 0.239399 0.079034
0.117305 0.239280 0.078249
0.148361 0.239161 0.077464
0.180222 0.239042 0.076680
0.212887 0.238923 0.075896
0.246355 0.238804 0.075113
0.280628 0.238685 0.074331
0.315706 0.238566 0.073549
0.351587 0.238447 0.072768
0.388273 0.238328 0.071987
0.425762 0.238209 0.071207
0.464056 0.238090 0.070428
0.503149 0.237971 0.069649
0.542119 0.237852 0.068871
0.580284 0.237733 0.068093
0.617645 0.237614 0.067315
0.654203 0.237495 0.066539
0.689955 0.237376 0.065763
0.724904 0.237257 0.064987
0.759049 0.237138 0.064212
0.792389 0.237019 0.063438
0.824925 0.236900 0.062664
0.856657 0.236781 0.061890
0.887585 0.236662 0.061118
0.917708 0.236543 0.060346
0.947028 0.236425 0.059574
0.975543 0.236306 0.058803
0.997619 0.236187 0.058032
0.997862 0.236068 0.057262
0.000000 0.271023 0.079533
0.001937 0.270901 0.078748
0.029801 0.270779 0.077963
0.058469 0.270658 0.077178
0.087941 0.270536 0.076395
0.118217 0.270414 0.075611
0.149297 0.270293 0.074829
0.181181 0.270171 0.074046
0.213870 0.270049 0.073265
0.247363 0.269927 0.072484
0.281659 0.269806 0.071703
0.316761 0.269684 0.070924
0.352666 0.269563 0.070144
0.389375 0.269441 0.069365
0.426889 0.269319 0.068587
0.465207 0.269198 0.067810
0.504319 0.269076 0.067033
0.543265 0.268954 0.066256
0.581406 0.268833 0.065480
0.618744 0.268711 0.064705
0.655277 0.268590 0.063930
0.691006 0.268468 0.063156
0.725931 0.268347 0.062382
0.760051 0.268225 0.061609
0.793368 0.268104 0.060836
0.825880 0.267982 0.060065
0.857588 0.267861 0.059293
0.888492 0.267739 0.058522
0.918591 0.267618 0.057752
0.947887 0.267496 0.056982
0.976378 0.267375 0.056213
0.998435 0.267253 0.055445
0.998678 0.267132 0.054677
0.000000 0.302841 0.076893
0.002754 0.302717 0.076109
0.030641 0.302593 0.075326
0.059333 0.302468 0.074544
0.088829 0.302344 0.073762
0.119129 0.302220 0.072980
0.150233 0.302095 0.072200
0.182141 0.301971 0.071419
0.214854 0.301847 0.070640
0.248370 0.301723 0.069861
0.282691 0.301598 0.069082
0.317816 0.301474 0.068304
0.353745 0.301350 0.067527
0.390479 0.301226 0.066750
0.428016 0.301101 0.065974
0.466358 0.300977 0.065198
0.505488 0.300853 0.064423
0.544410 0.300729 0.063648
0.582528 0.300605 0.062874
0.619841 0.300480 0.062101
0.656350 0.300356 0.061328
0.692055 0.300232 0.060555
0.726956 0.300108 0.059784
0.761053 0.299984 0.059012
0.794345 0.299860 0.058242
0.826834 0.299736 0.057472
0.858518 0.299611 0.056702
0.889398 0.299487 0.055933
0.919474 0.299363 0.055165
0.948745 0.299239 0.054397
0.977213 0.299115 0.053630
0.999251 0.298991 0.052863
0.999493 0.298867 0.052097
0.000000 0.335331 0.074259
0.003571 0.335204 0.073477
0.031483 0.335077 0.072696
0.060198 0.334950 0.071916
0.089718 0.334824 0.071136
0.120042 0.334697 0.070356
0.151170 0.334570 0.069577
0.183102 0.334443 0.068799
0.215838 0.334316 0.068021
0.249379 0.334189 0.067244
0.283724 0.334062 0.066467
0.318873 0.333935 0.065691
0.354826 0.333809 0.064916
0.391583 0.333682 0.064141
0.429144 0.333555 0.063366
0.467510 0.333428 0.062592
0.506657 0.333301 0.061819
0.545555 0.333175 0.061046
0.583648 0.333048 0.060274
0.620938 0.332921 0.059503
0.657423 0.332794 0.058732
0.693104 0.332667 0.057961
0.727981 0.332541 0.057191
0.762054 0.332414 0.056422
0.795323 0.332287 0.055653
0.827787 0.332161 0.054885
0.859447 0.332034 0.054118
0.890303 0.331907 0.053351
0.920355 0.331781 0.052584
0.949603 0.331654 0.051818
0.978047 0.331527 0.051053
1.000000 0.331435 0.050496
1.000000 0.331435 0.050496
0.000000 0.368493 0.071631
0.004389 0.368363 0.070852
0.032325 0.368234 0.070072
0.061064 0.368104 0.069294
0.090607 0.367975 0.068516
0.120955 0.367845 0.067738
0.152107 0.367716 0.066961
0.184063 0.367586 0.066185
0.216824 0.367457 0.065409
0.250388 0.367327 0.064633
0.284757 0.367198 0.063859
0.319930 0.367068 0.063084
0.355907 0.366939 0.062311
0.392688 0.366809 0.061538
0.430273 0.366680 0.060765
0.468663 0.366551 0.059993
0.507825 0.366421 0.059222
0.546699 0.366292 0.058451
0.584768 0.366163 0.057681
0.622034 0.366033 0.056911
0.658495 0.365904 0.056142
0.694153 0.365774 0.055374
0.729006 0.365645 0.054606
0.763054 0.365516 0.053838
0.796299 0.365387 0.053072
0.828740 0.365257 0.052305
0.860376 0.365128 0.051540
0.891208 0.364999 0.050774
0.921070 0.364952 0.050496
0.950043 0.364952 0.050496
0.978227 0.364952 0.050496
1.000000 0.364952 0.050496
1.000000 0.364952 0.050496
0.000000 0.402326 0.069010
0.005208 0.402194 0.068232
0.033167 0.402062 0.067455
0.061930 0.401929 0.066678
0.091498 0.401797 0.065902
0.121870 0.401665 0.065126
0.153045 0.401533 0.064351
0.185025 0.401401 0.063577
0.217810 0.401269 0.062803
0.251398 0.401137 0.062029
0.285791 0.401005 0.061256
0.320987 0.400873 0.060484
0.356988 0.400741 0.059712
0.393793 0.400609 0.058941
0.431403 0.400477 0.058171
0.469816 0.400345 0.057401
0.508992 0.400213 0.056631
0.547842 0.400081 0.055862
0.585888 0.399949 0.055094
0.623129 0.399817 0.054326
0.659567 0.399685 0.053559
0.695200 0.399553 0.052792
0.730029 0.399421 0.052026
0.764054 0.399289 0.051261
0.797275 0.399157 0.050496
0.829409 0.399157 0.050496
0.860752 0.399157 0.050496
0.891306 0.399157 0.050496
0.921070 0.399157 0.050496
0.950043 0.399157 0.050496
0.978227 0.399157 0.050496
1.000000 0.399157 0.050496
1.000000 0.399157 0.050496
0.000000 0.436830 0.066396
0.006027 0.436696 0.065620
0.034010 0.436561 0.064844
0.062798 0.436426 0.064069
0.092389 0.436292 0.063295
0.122785 0.436157 0.062521
0.153984 0.436022 0.061748
0.185988 0.435887 0.060975
0.218796 0.435753 0.060203
0.252409 0.435618 0.059432
0.286825 0.435483 0.058661
0.322046 0.435349 0.057890
0.358071 0.435214 0.057121
0.394899 0.435080 0.056351
0.432533 0.434945 0.055583
0.470970 0.434810 0.054814
0.510158 0.434676 0.054047
0.548984 0.434541 0.053280
0.587006 0.434407 0.052514
0.624224 0.434272 0.051748
0.660637 0.434138 0.050982
0.696134 0.434052 0.050496
0.730637 0.434052 0.050496
0.764351 0.434052 0.050496
0.797275 0.434052 0.050496
0.829409 0.434052 0.050496
0.860752 0.434052 0.050496
0.891306 0.434052 0.050496
0.921070 0.434052 0.050496
0.950043 0.434052 0.050496
0.978227 0.434052 0.050496
1.000000 0.434052 0.050496
1.000000 0.434052 0.050496
0.000000 0.472007 0.063787
0.006848 0.471869 0.063013
0.034854 0.471732 0.062240
0.063666 0.471595 0.061467
0.093281 0.471457 0.060694
0.123700 0.471320 0.059922
0.154924 0.471183 0.059151
0.186952 0.471045 0.058380
0.219784 0.470908 0.057610
0.253420 0.470771 0.056840
0.287860 0.470634 0.056071
0.323105 0.470496 0.055303
0.359154 0.470359 0.054535
0.396006 0.470222 0.053768
0.433664 0.470085 0.053001
0.472125 0.469948 0.052235
0.511323 0.469810 0.051469
0.550126 0.469673 0.050704
0.587882 0.469636 0.050496
0.624756 0.469636 0.050496
0.660840 0.469636 0.050496
0.696134 0.469636 0.050496
0.730637 0.469636 0.050496
0.764351 0.469636 0.050496
0.797275 0.469636 0.050496
0.829409 0.469636 0.050496
0.860752 0.469636 0.050496
0.891306 0.469636 0.050496
0.921070 0.469636 0.050496
0.950043 0.469636 0.050496
0.978227 0.469636 0.050496
1.000000 0.469636 0.050496
1.000000 0.469636 0.050496
0.000000 0.507822 0.061185
0.007668 0.507684 0.060413
0.035699 0.507545 0.059641
0.064534 0.507406 0.058870
0.094173 0.507267 0.058100
0.124617 0.507128 0.057330
0.155864 0.506989 0.056560
0.187916 0.506851 0.055792
0.220772 0.506712 0.055023
0.254432 0.506573 0.054256
0.288896 0.506434 0.053488
0.324165 0.506295 0.052722
0.360237 0.506156 0.051956
0.397114 0.506017 0.051190
0.434764 0.505891 0.050496
0.472905 0.505891 0.050496
0.511764 0.505891 0.050496
0.550218 0.505891 0.050496
0.587882 0.505891 0.050496
0.624756 0.505891 0.050496
0.660840 0.505891 0.050496
0.696134 0.505891 0.050496
0.730637 0.505891 0.050496
0.764351 0.505891 0.050496
0.797275 0.505891 0.050496
0.829409 0.505891 0.050496
0.860752 0.505891 0.050496
0.891306 0.505891 0.050496
0.921070 0.505891 0.050496
0.950072 0.505905 0.050473
0.978935 0.506252 0.049899
1.000000 0.506600 0.049326
1.000000 0.506947 0.048754
0.000000 0.543378 0.058590
0.008490 0.543242 0.057819
0.036545 0.543106 0.057050
0.065404 0.542969 0.056280
0.095067 0.542833 0.055512
0.125534 0.542697 0.054744
0.156805 0.542561 0.053976
0.188881 0.542424 0.053209
0.221761 0.542288 0.052443
0.255445 0.542152 0.051677
0.289933 0.542015 0.050912
0.325081 0.541941 0.050496
0.360852 0.541941 0.050496
0.397413 0.541941 0.050496
0.434764 0.541941 0.050496
0.472905 0.541941 0.050496
0.511764 0.541941 0.050496
0.550218 0.541941 0.050496
0.587882 0.541941 0.050496
0.624756 0.541941 0.050496
0.660840 0.541941 0.050496
0.696134 0.541941 0.050496
0.730637 0.541941 0.050496
0.764351 0.541941 0.050496
0.797275 0.541941 0.050496
0.829409 0.541941 0.050496
0.861059 0.542079 0.050264
0.892344 0.542420 0.049691
0.922799 0.542761 0.049118
0.952426 0.543101 0.048545
0.981223 0.543442 0.047973
1.000000 0.543782 0.047401
1.000000 0.544123 0.046830
0.000000 0.578262 0.056001
0.009312 0.578128 0.055232
0.037391 0.577995 0.054464
0.066274 0.577861 0.053697
0.095961 0.577728 0.052930
0.126452 0.577594 0.052164
0.157747 0.577460 0.051398
0.189847 0.577327 0.050633
0.222509 0.577302 0.050496
0.255910 0.577302 0.050496
0.290101 0.577302 0.050496
0.325081 0.577302 0.050496
0.360852 0.577302 0.050496
0.397413 0.577302 0.050496
0.434764 0.577302 0.050496
0.472905 0.577302 0.050496
0.511764 0.577302 0.050496
0.550218 0.577302 0.050496
0.587882 0.577302 0.050496
0.624756 0.577302 0.050496
0.660840 0.577302 0.050496
0.696134 0.577302 0.050496
0.730637 0.577302 0.050496
0.764979 0.577559 0.050055
0.798685 0.577893 0.049482
0.831561 0.578228 0.048909
0.863608 0.578562 0.048337
0.894826 0.578895 0.047765
0.925215 0.579229 0.047193
0.954774 0.579563 0.046622
0.983505 0.579897 0.046050
1.000000 0.580231 0.045480
1.000000 0.580564 0.044909
0.000000 0.612475 0.053418
0.010135 0.612343 0.052651
0.038238 0.612212 0.051885
0.067144 0.612081 0.051120
0.096806 0.611975 0.050496
0.127047 0.611975 0.050496
0.158078 0.611975 0.050496
0.189898 0.611975 0.050496
0.222509 0.611975 0.050496
0.255910 0.611975 0.050496
0.290101 0.611975 0.050496
0.325081 0.611975 0.050496
0.360852 0.611975 0.050496
0.397413 0.611975 0.050496
0.434764 0.611975 0.050496
0.472905 0.611975 0.050496
0.511764 0.611975 0.050496
0.550218 0.611975 0.050496
0.587882 0.611975 0.050496
0.624874 0.612018 0.050420
0.661830 0.612346 0.049847
0.697957 0.612673 0.049274
0.733254 0.613001 0.048701
0.767723 0.613328 0.048129
0.801362 0.613655 0.047557
0.834171 0.613983 0.046985
0.866152 0.614310 0.046414
0.897303 0.614637 0.045843
0.927625 0.614964 0.045272
0.957118 0.615291 0.044701
0.985781 0.615618 0.044131
1.000000 0.615945 0.043561
1.000000 0.616272 0.042992
0.000000 0.646015 0.050841
0.010825 0.645957 0.050496
0.038695 0.645957 0.050496
0.067356 0.645957 0.050496
0.096806 0.645957 0.050496
0.127047 0.645957 0.050496
0.158078 0.645957 0.050496
0.189898 0.645957 0.050496
0.222509 0.645957 0.050496
0.255910 0.645957 0.050496
0.290101 0.645957 0.050496
0.325081 0.645957 0.050496
0.360852 0.645957 0.050496
0.397413 0.645957 0.050496
0.434764 0.645957 0.050496
0.472905 0.645957 0.050496
0.512237 0.646117 0.050211
0.551614 0.646438 0.049638
0.590161 0.646759 0.049065
0.627880 0.647080 0.048493
0.664769 0.647400 0.047920
0.700829 0.647721 0.047349
0.736060 0.648042 0.046777
0.770461 0.648363 0.046206
0.804033 0.648683 0.045635
0.836776 0.649004 0.045064
0.868690 0.649324 0.044494
0.899774 0.649644 0.043924
0.930029 0.649965 0.043354
0.959455 0.650285 0.042785
0.988052 0.650605 0.042216
1.000000 0.650925 0.041647
1.000000 0.651245 0.041079
0.000000 0.679251 0.050496
0.010825 0.679251 0.050496
0.038695 0.679251 0.050496
0.067356 0.679251 0.050496
0.096806 0.679251 0.050496
0.127047 0.679251 0.050496
0.158078 0.679251 0.050496
0.189898 0.679251 0.050496
0.222509 0.679251 0.050496
0.255910 0.679251 0.050496
0.290101 0.679251 0.050496
0.325081 0.679251 0.050496
0.360852 0.679251 0.050496
0.398193 0.679522 0.050002
0.436487 0.679836 0.049429
0.475609 0.680151 0.048857
0.515437 0.680465 0.048284
0.554747 0.680779 0.047712
0.593228 0.681093 0.047140
0.630880 0.681407 0.046569
0.667702 0.681721 0.045998
0.703695 0.682035 0.045427
0.738859 0.682349 0.044856
0.773194 0.682663 0.044286
0.806699 0.682977 0.043716
0.839376 0.683290 0.043147
0.871223 0.683604 0.042578
0.902240 0.683918 0.042009
0.932429 0.684231 0.041440
0.961788 0.684545 0.040872
0.990318 0.684858 0.040304
1.000000 0.685171 0.039736
1.000000 0.685485 0.039169
0.000000 0.711856 0.050496
0.010825 0.711856 0.050496
0.038695 0.711856 0.050496
0.067356 0.711856 0.050496
0.096806 0.711856 0.050496
0.127047 0.711856 0.050496
0.158078 0.711856 0.050496
0.189898 0.711856 0.050496
0.222509 0.711856 0.050496
0.256096 0.711925 0.050367
0.291139 0.712233 0.049794
0.327012 0.712541 0.049221
0.363714 0.712848 0.048648
0.401245 0.713156 0.048076
0.439605 0.713464 0.047504
0.478795 0.713771 0.046932
0.518632 0.714079 0.046361
0.557875 0.714386 0.045790
0.596290 0.714694 0.045219
0.633874 0.715001 0.044649
0.670630 0.715308 0.044079
0.706556 0.715615 0.043509
0.741654 0.715922 0.042940
0.775922 0.716229 0.042370
0.809360 0.716536 0.041802
0.841970 0.716843 0.041233
0.873750 0.717150 0.040665
0.904701 0.717457 0.040097
0.934823 0.717764 0.039530
0.964115 0.718070 0.038962
0.992578 0.718377 0.038395
1.000000 0.718683 0.037829
1.000000 0.718990 0.037263
0.000000 0.743771 0.050496
0.010825 0.743771 0.050496
0.038695 0.743771 0.050496
0.067356 0.743771 0.050496
0.096806 0.743771 0.050496
0.127047 0.743771 0.050496
0.158531 0.743949 0.050158
0.191154 0.744250 0.049585
0.224605 0.744551 0.049012
0.258886 0.744852 0.048440
0.293996 0.745153 0.047868
0.329935 0.745454 0.047296
0.366704 0.745755 0.046724
0.404302 0.746056 0.046153
0.442729 0.746357 0.045582
0.481985 0.746658 0.045011
0.521822 0.746959 0.044441
0.560998 0.747259 0.043871
0.599345 0.747560 0.043302
0.636864 0.747860 0.042732
0.673553 0.748161 0.042163
0.709412 0.748461 0.041595
0.744443 0.748761 0.041026
0.778644 0.749062 0.040458
0.812016 0.749362 0.039890
0.844558 0.749662 0.039323
0.876272 0.749962 0.038756
0.907156 0.750262 0.038189
0.937211 0.750562 0.037623
0.966437 0.750862 0.037056
0.994833 0.751162 0.036491
1.000000 0.751461 0.035925
1.000000 0.751761 0.035360
0.000000 0.774998 0.050496
0.010825 0.774998 0.050496
0.038695 0.774998 0.050496
0.068035 0.775279 0.049950
0.098236 0.775573 0.049377
0.129267 0.775868 0.048804
0.161126 0.776162 0.048232
0.193816 0.776457 0.047659
0.227334 0.776751 0.047088
0.261681 0.777046 0.046516
0.296858 0.777340 0.045945
0.332864 0.777634 0.045374
0.369700 0.777928 0.044804
0.407364 0.778222 0.044234
0.445858 0.778516 0.043664
0.485181 0.778810 0.043094
0.525006 0.779104 0.042525
0.564115 0.779398 0.041956
0.602396 0.779692 0.041388
0.639847 0.779986 0.040819
0.676470 0.780279 0.040251
0.712263 0.780573 0.039684
0.747226 0.780866 0.039116
0.781361 0.781160 0.038549
0.814666 0.781453 0.037983
0.847142 0.781747 0.037416
0.878789 0.782040 0.036850
0.909606 0.782333 0.036285
0.939594 0.782626 0.035719
0.968753 0.782919 0.035154
0.997083 0.783212 0.034589
1.000000 0.783505 0.034025
1.000000 0.783798 0.033461
0.000877 0.805914 0.049741
0.012386 0.806203 0.049168
0.040996 0.806491 0.048595
0.070435 0.806778 0.048023
0.100703 0.807066 0.047451
0.131800 0.807354 0.046880
0.163727 0.807642 0.046308
0.196483 0.807930 0.045737
0.230068 0.808217 0.045167
0.264482 0.808505 0.044596
0.299726 0.808792 0.044026
0.335799 0.809080 0.043456
0.372701 0.809367 0.042887
0.410432 0.809654 0.042318
0.448992 0.809942 0.041749
0.488382 0.810229 0.041181
0.528184 0.810516 0.040613
0.567227 0.810803 0.040045
0.605441 0.811090 0.039477
0.642826 0.811377 0.038910
0.679381 0.811664 0.038343
0.715108 0.811950 0.037777
0.750004 0.812237 0.037210
0.784072 0.812524 0.036644
0.817311 0.812810 0.036079
0.849720 0.813097 0.035514
0.881300 0.813383 0.034949
0.912050 0.813670 0.034384
0.941972 0.813956 0.033820
0.971064 0.814243 0.033256
0.999327 0.814529 0.032692
1.000000 0.814815 0.032129
1.000000 0.815101 0.031565
0.003122 0.836701 0.047815
0.014659 0.836982 0.047243
0.043335 0.837263 0.046672
0.072841 0.837544 0.046100
0.103175 0.837825 0.045529
0.134340 0.838106 0.044959
0.166333 0.838387 0.044389
0.199155 0.838668 0.043819
0.232807 0.838949 0.043249
0.267288 0.839230 0.042680
0.302599 0.839510 0.042111
0.338738 0.839791 0.041542
0.375707 0.840072 0.040974
0.413505 0.840352 0.040406
0.452132 0.840633 0.039838
0.491589 0.840913 0.039271
0.531358 0.841193 0.038704
0.570334 0.841474 0.038137
0.608481 0.841754 0.037570
0.645799 0.842034 0.037004
0.682288 0.842314 0.036438
0.717947 0.842594 0.035873
0.752777 0.842874 0.035308
