PhotoStyler/Resources/LUTs/Cinematic.cube
# Generated by tools/generate_luts.py
# Placeholder starter look - replace with an exported Lightroom LUT.
TITLE "PhotoStyler Cinematic"
LUT_3D_SIZE 5
DOMAIN_MIN 0.0 0.0 0.0
DOMAIN_MAX 1.0 1.0 1.0
0.000000 0.014877 0.103584
0.205047 0.014090 0.097179
0.493785 0.013304 0.090810
0.784534 0.012518 0.084477
0.991308 0.011734 0.078180
0.000000 0.239876 0.082180
0.212887 0.238923 0.075896
0.503149 0.237971 0.069649
0.792389 0.237019 0.063438
0.997862 0.236068 0.057262
0.000000 0.507822 0.061185
0.220772 0.506712 0.055023
0.511764 0.505891 0.050496
0.797275 0.505891 0.050496
1.000000 0.506947 0.048754
0.000000 0.774998 0.050496
0.227334 0.776751 0.047088
0.525006 0.779104 0.042525
0.814666 0.781453 0.037983
1.000000 0.783798 0.033461
0.016703 1.000000 0.036334
0.249357 1.000000 0.031820
0.550285 1.000000 0.027325
0.835673 1.000000 0.022852
1.000000 1.000000 0.018398
0.000000 0.014609 0.325849
0.205836 0.013823 0.318295
0.494729 0.013037 0.310777
0.785329 0.012252 0.303296
0.991972 0.011467 0.295851
0.000000 0.239552 0.300581
0.213681 0.238600 0.293149
0.504094 0.237647 0.285753
0.793179 0.236696 0.278393
0.998521 0.235745 0.271069
0.000000 0.507445 0.275723
0.221570 0.506334 0.268412
0.511764 0.505891 0.265506
0.797275 0.505891 0.265506
1.000000 0.507890 0.261583
0.000446 0.775195 0.265049
0.229541 0.777551 0.259603
0.527573 0.779902 0.254176
0.816802 0.782250 0.248770
1.000000 0.784594 0.243385
0.018546 1.000000 0.246807
0.251599 1.000000 0.241429
0.552818 1.000000 0.236071
0.837775 1.000000 0.230734
1.000000 1.000000 0.225417
0.000000 0.014342 0.581047
0.206626 0.013556 0.573025
0.495673 0.012770 0.564966
0.786124 0.011985 0.556872
0.992635 0.011201 0.548741
0.000000 0.239229 0.553916
0.214475 0.238276 0.545772
0.505039 0.237324 0.537592
0.793969 0.236373 0.529376
0.999180 0.235422 0.521123
0.000000 0.507068 0.526376
0.222370 0.505957 0.518110
0.511764 0.505891 0.517619
0.797653 0.506056 0.517251
1.000000 0.508832 0.511025
0.002258 0.775996 0.514986
0.231753 0.778350 0.508753
0.530137 0.780700 0.502500
0.818935 0.783046 0.496234
1.000000 0.785389 0.489984
0.020393 1.000000 0.493956
0.253845 1.000000 0.487714
0.555347 1.000000 0.481493
0.839873 1.000000 0.475291
1.000000 1.000000 0.469111
0.000000 0.014075 0.817042
0.207416 0.013289 0.810168
0.496618 0.012504 0.803258
0.786918 0.011719 0.796312
0.993298 0.010935 0.789330
0.000000 0.238905 0.793775
0.215270 0.237953 0.786779
0.505982 0.237001 0.779748
0.794759 0.236050 0.772680
0.999838 0.235100 0.765576
0.000000 0.506691 0.770098
0.222509 0.505891 0.764980
0.511764 0.505891 0.764980
0.799817 0.506999 0.762847
1.000000 0.509774 0.757485
0.004073 0.776796 0.760897
0.233967 0.779148 0.755528
0.532698 0.781497 0.750138
0.821064 0.783842 0.744728
1.000000 0.786183 0.739297
0.022242 1.000000 0.742753
0.256094 1.000000 0.737315
0.557873 1.000000 0.731857
0.841968 1.000000 0.726379
1.000000 1.000000 0.720880
0.000000 0.013808 1.000000
0.208207 0.013022 1.000000
0.497563 0.012237 1.000000
0.787711 0.011452 0.999273
0.993960 0.010668 0.993439
0.000000 0.238582 0.997153
0.216065 0.237630 0.991306
0.506926 0.236678 0.985423
0.795548 0.235727 0.979504
1.000000 0.235020 0.975076
0.000000 0.506313 0.977340
0.222509 0.505891 0.975076
0.511764 0.505891 0.975076
0.801978 0.507942 0.971767
1.000000 0.510716 0.967269
0.005891 0.777595 0.970132
0.236185 0.779947 0.965626
0.535255 0.782294 0.961100
0.823190 0.784638 0.956554
1.000000 0.786977 0.951987
0.024096 1.000000 0.954894
0.258347 1.000000 0.950319
0.560395 1.000000 0.945725
0.844059 1.000000 0.941110
1.000000 1.000000 0.936475
