PhotoStyler/Resources/LUTs/Monochrome.cube
# Generated by tools/generate_luts.py
# Placeholder starter look - replace with an exported Lightroom LUT.
TITLE "PhotoStyler Monochrome"
LUT_3D_SIZE 9
DOMAIN_MIN 0.0 0.0 0.0
DOMAIN_MAX 1.0 1.0 1.0
0.012000 0.012000 0.012000
0.038552 0.038552 0.038552
0.066757 0.066757 0.066757
0.096617 0.096617 0.096617
0.128130 0.128130 0.128130
0.161297 0.161297 0.161297
0.196118 0.196118 0.196118
0.232592 0.232592 0.232592
0.270720 0.270720 0.270720
0.065791 0.065791 0.065791
0.095595 0.095595 0.095595
0.127053 0.127053 0.127053
0.160165 0.160165 0.160165
0.194930 0.194930 0.194930
0.231349 0.231349 0.231349
0.269422 0.269422 0.269422
0.309149 0.309149 0.309149
0.350530 0.350530 0.350530
0.125978 0.125978 0.125978
0.159034 0.159034 0.159034
0.193745 0.193745 0.193745
0.230109 0.230109 0.230109
0.268127 0.268127 0.268127
0.307798 0.307798 0.307798
0.349124 0.349124 0.349124
0.392103 0.392103 0.392103
0.436736 0.436736 0.436736
0.192561 0.192561 0.192561
0.228870 0.228870 0.228870
0.266833 0.266833 0.266833
0.306449 0.306449 0.306449
0.347720 0.347720 0.347720
0.390644 0.390644 0.390644
0.435221 0.435221 0.435221
0.481453 0.481453 0.481453
0.528807 0.528807 0.528807
0.265541 0.265541 0.265541
0.305102 0.305102 0.305102
0.346317 0.346317 0.346317
0.389186 0.389186 0.389186
0.433709 0.433709 0.433709
0.479885 0.479885 0.479885
0.527245 0.527245 0.527245
0.573311 0.573311 0.573311
0.617723 0.617723 0.617723
0.344917 0.344917 0.344917
0.387730 0.387730 0.387730
0.432198 0.432198 0.432198
0.478319 0.478319 0.478319
0.525681 0.525681 0.525681
0.571802 0.571802 0.571802
0.616270 0.616270 0.616270
0.659083 0.659083 0.659083
0.700243 0.700243 0.700243
0.430689 0.430689 0.430689
0.476755 0.476755 0.476755
0.524115 0.524115 0.524115
0.570291 0.570291 0.570291
0.614814 0.614814 0.614814
0.657683 0.657683 0.657683
0.698898 0.698898 0.698898
0.738459 0.738459 0.738459
0.776367 0.776367 0.776367
0.522547 0.522547 0.522547
0.568779 0.568779 0.568779
0.613356 0.613356 0.613356
0.656280 0.656280 0.656280
0.697551 0.697551 0.697551
0.737167 0.737167 0.737167
0.775130 0.775130 0.775130
0.811439 0.811439 0.811439
0.846094 0.846094 0.846094
0.611897 0.611897 0.611897
0.654876 0.654876 0.654876
0.696202 0.696202 0.696202
0.735873 0.735873 0.735873
0.773891 0.773891 0.773891
0.810255 0.810255 0.810255
0.844966 0.844966 0.844966
0.878022 0.878022 0.878022
0.909425 0.909425 0.909425
0.021544 0.021544 0.021544
0.048702 0.048702 0.048702
0.077514 0.077514 0.077514
0.107980 0.107980 0.107980
0.140099 0.140099 0.140099
0.173872 0.173872 0.173872
0.209299 0.209299 0.209299
0.246380 0.246380 0.246380
0.285115 0.285115 0.285115
0.076527 0.076527 0.076527
0.106937 0.106937 0.106937
0.139002 0.139002 0.139002
0.172720 0.172720 0.172720
0.208092 0.208092 0.208092
0.245117 0.245117 0.245117
0.283797 0.283797 0.283797
0.324130 0.324130 0.324130
0.366117 0.366117 0.366117
0.137906 0.137906 0.137906
0.171569 0.171569 0.171569
0.206886 0.206886 0.206886
0.243857 0.243857 0.243857
0.282481 0.282481 0.282481
0.322759 0.322759 0.322759
0.364691 0.364691 0.364691
0.408276 0.408276 0.408276
0.453515 0.453515 0.453515
0.205682 0.205682 0.205682
0.242598 0.242598 0.242598
0.281167 0.281167 0.281167
0.321390 0.321390 0.321390
0.363266 0.363266 0.363266
0.406797 0.406797 0.406797
0.451981 0.451981 0.451981
0.498819 0.498819 0.498819
0.545870 0.545870 0.545870
0.279855 0.279855 0.279855
0.320022 0.320022 0.320022
0.361844 0.361844 0.361844
0.405319 0.405319 0.405319
0.450448 0.450448 0.450448
0.497231 0.497231 0.497231
0.544328 0.544328 0.544328
0.589787 0.589787 0.589787
0.633593 0.633593 0.633593
0.360423 0.360423 0.360423
0.403843 0.403843 0.403843
0.448917 0.448917 0.448917
0.495645 0.495645 0.495645
0.542784 0.542784 0.542784
0.588299 0.588299 0.588299
0.632160 0.632160 0.632160
0.674367 0.674367 0.674367
0.714921 0.714921 0.714921
0.447388 0.447388 0.447388
0.494060 0.494060 0.494060
0.541238 0.541238 0.541238
0.586808 0.586808 0.586808
0.630725 0.630725 0.630725
0.672987 0.672987 0.672987
0.713596 0.713596 0.713596
0.752551 0.752551 0.752551
0.789852 0.789852 0.789852
0.539691 0.539691 0.539691
0.585316 0.585316 0.585316
0.629287 0.629287 0.629287
0.671605 0.671605 0.671605
0.712269 0.712269 0.712269
0.751279 0.751279 0.751279
0.788635 0.788635 0.788635
0.824338 0.824338 0.824338
0.858387 0.858387 0.858387
0.627848 0.627848 0.627848
0.670221 0.670221 0.670221
0.710940 0.710940 0.710940
0.750005 0.750005 0.750005
0.787417 0.787417 0.787417
0.823174 0.823174 0.823174
0.857278 0.857278 0.857278
0.889729 0.889729 0.889729
0.920525 0.920525 0.920525
0.031310 0.031310 0.031310
0.059074 0.059074 0.059074
0.088493 0.088493 0.088493
0.119565 0.119565 0.119565
0.152291 0.152291 0.152291
0.186670 0.186670 0.186670
0.222704 0.222704 0.222704
0.260391 0.260391 0.260391
0.299732 0.299732 0.299732
0.087485 0.087485 0.087485
0.118502 0.118502 0.118502
0.151173 0.151173 0.151173
0.185498 0.185498 0.185498
0.221476 0.221476 0.221476
0.259108 0.259108 0.259108
0.298394 0.298394 0.298394
0.339333 0.339333 0.339333
0.381926 0.381926 0.381926
0.150058 0.150058 0.150058
0.184327 0.184327 0.184327
0.220250 0.220250 0.220250
0.257827 0.257827 0.257827
0.297057 0.297057 0.297057
0.337942 0.337942 0.337942
0.380480 0.380480 0.380480
0.424672 0.424672 0.424672
0.470518 0.470518 0.470518
0.219026 0.219026 0.219026
0.256548 0.256548 0.256548
0.295723 0.295723 0.295723
0.336552 0.336552 0.336552
0.379035 0.379035 0.379035
0.423172 0.423172 0.423172
0.468963 0.468963 0.468963
0.516258 0.516258 0.516258
0.562710 0.562710 0.562710
0.294391 0.294391 0.294391
0.335165 0.335165 0.335165
0.377593 0.377593 0.377593
0.421674 0.421674 0.421674
0.467410 0.467410 0.467410
0.514681 0.514681 0.514681
0.561188 0.561188 0.561188
0.606042 0.606042 0.606042
0.649241 0.649241 0.649241
0.376152 0.376152 0.376152
0.420178 0.420178 0.420178
0.465859 0.465859 0.465859
0.513102 0.513102 0.513102
0.559665 0.559665 0.559665
0.604573 0.604573 0.604573
0.647828 0.647828 0.647828
0.689429 0.689429 0.689429
0.729376 0.729376 0.729376
0.464309 0.464309 0.464309
0.511522 0.511522 0.511522
0.558139 0.558139 0.558139
0.603103 0.603103 0.603103
0.646413 0.646413 0.646413
0.688069 0.688069 0.688069
0.728071 0.728071 0.728071
0.766420 0.766420 0.766420
0.803115 0.803115 0.803115
0.556612 0.556612 0.556612
0.601631 0.601631 0.601631
0.644996 0.644996 0.644996
0.686707 0.686707 0.686707
0.726765 0.726765 0.726765
0.765168 0.765168 0.765168
0.801918 0.801918 0.801918
0.837015 0.837015 0.837015
0.870457 0.870457 0.870457
0.643577 0.643577 0.643577
0.685343 0.685343 0.685343
0.725456 0.725456 0.725456
0.763915 0.763915 0.763915
0.800720 0.800720 0.800720
0.835871 0.835871 0.835871
0.869369 0.869369 0.869369
0.901213 0.901213 0.901213
0.931403 0.931403 0.931403
0.041298 0.041298 0.041298
0.069669 0.069669 0.069669
0.099694 0.099694 0.099694
0.131372 0.131372 0.131372
0.164705 0.164705 0.164705
0.199691 0.199691 0.199691
0.236330 0.236330 0.236330
0.274624 0.274624 0.274624
0.314571 0.314571 0.314571
0.098666 0.098666 0.098666
0.130290 0.130290 0.130290
0.163567 0.163567 0.163567
0.198498 0.198498 0.198498
0.235082 0.235082 0.235082
0.273321 0.273321 0.273321
0.313213 0.313213 0.313213
0.354759 0.354759 0.354759
0.397958 0.397958 0.397958
0.162431 0.162431 0.162431
0.197307 0.197307 0.197307
0.233836 0.233836 0.233836
0.272019 0.272019 0.272019
0.311856 0.311856 0.311856
0.353347 0.353347 0.353347
0.396492 0.396492 0.396492
0.441290 0.441290 0.441290
0.487742 0.487742 0.487742
0.232592 0.232592 0.232592
0.270720 0.270720 0.270720
0.310502 0.310502 0.310502
0.351938 0.351938 0.351938
0.395027 0.395027 0.395027
0.439770 0.439770 0.439770
0.486167 0.486167 0.486167
0.533483 0.533483 0.533483
0.579328 0.579328 0.579328
0.309149 0.309149 0.309149
0.350530 0.350530 0.350530
0.393564 0.393564 0.393564
0.438252 0.438252 0.438252
0.484594 0.484594 0.484594
0.531926 0.531926 0.531926
0.577827 0.577827 0.577827
0.622074 0.622074 0.622074
0.664667 0.664667 0.664667
0.392103 0.392103 0.392103
0.436736 0.436736 0.436736
0.483022 0.483022 0.483022
0.530367 0.530367 0.530367
0.576323 0.576323 0.576323
0.620625 0.620625 0.620625
0.663274 0.663274 0.663274
0.704268 0.704268 0.704268
0.743609 0.743609 0.743609
0.481453 0.481453 0.481453
0.528807 0.528807 0.528807
0.574818 0.574818 0.574818
0.619175 0.619175 0.619175
0.661879 0.661879 0.661879
0.702928 0.702928 0.702928
0.742324 0.742324 0.742324
0.780067 0.780067 0.780067
0.816155 0.816155 0.816155
0.573311 0.573311 0.573311
0.617723 0.617723 0.617723
0.660482 0.660482 0.660482
0.701587 0.701587 0.701587
0.741038 0.741038 0.741038
0.778835 0.778835 0.778835
0.814979 0.814979 0.814979
0.849469 0.849469 0.849469
0.882305 0.882305 0.882305
0.659083 0.659083 0.659083
0.700243 0.700243 0.700243
0.739750 0.739750 0.739750
0.777602 0.777602 0.777602
0.813801 0.813801 0.813801
0.848346 0.848346 0.848346
0.881237 0.881237 0.881237
0.912475 0.912475 0.912475
0.942058 0.942058 0.942058
0.051509 0.051509 0.051509
0.080486 0.080486 0.080486
0.111117 0.111117 0.111117
0.143402 0.143402 0.143402
0.177341 0.177341 0.177341
0.212933 0.212933 0.212933
0.250179 0.250179 0.250179
0.289079 0.289079 0.289079
0.329633 0.329633 0.329633
0.110070 0.110070 0.110070
0.142299 0.142299 0.142299
0.176183 0.176183 0.176183
0.211720 0.211720 0.211720
0.248911 0.248911 0.248911
0.287756 0.287756 0.287756
0.328254 0.328254 0.328254
0.370407 0.370407 0.370407
0.414213 0.414213 0.414213
0.175027 0.175027 0.175027
0.210509 0.210509 0.210509
0.247645 0.247645 0.247645
0.286434 0.286434 0.286434
0.326878 0.326878 0.326878
0.368975 0.368975 0.368975
0.412726 0.412726 0.412726
0.458130 0.458130 0.458130
0.505181 0.505181 0.505181
0.246380 0.246380 0.246380
0.285115 0.285115 0.285115
0.325503 0.325503 0.325503
0.367545 0.367545 0.367545
0.411241 0.411241 0.411241
0.456590 0.456590 0.456590
0.503592 0.503592 0.503592
0.550485 0.550485 0.550485
0.595724 0.595724 0.595724
0.324130 0.324130 0.324130
0.366117 0.366117 0.366117
0.409757 0.409757 0.409757
0.455052 0.455052 0.455052
0.502000 0.502000 0.502000
0.548948 0.548948 0.548948
0.594243 0.594243 0.594243
0.637883 0.637883 0.637883
0.679870 0.679870 0.679870
0.408276 0.408276 0.408276
0.453515 0.453515 0.453515
0.500408 0.500408 0.500408
0.547410 0.547410 0.547410
0.592759 0.592759 0.592759
0.636455 0.636455 0.636455
0.678497 0.678497 0.678497
0.718885 0.718885 0.718885
0.757620 0.757620 0.757620
0.498819 0.498819 0.498819
0.545870 0.545870 0.545870
0.591274 0.591274 0.591274
0.635025 0.635025 0.635025
0.677122 0.677122 0.677122
0.717566 0.717566 0.717566
0.756355 0.756355 0.756355
0.793491 0.793491 0.793491
0.828973 0.828973 0.828973
0.589787 0.589787 0.589787
0.633593 0.633593 0.633593
0.675746 0.675746 0.675746
0.716244 0.716244 0.716244
0.755089 0.755089 0.755089
0.792280 0.792280 0.792280
0.827817 0.827817 0.827817
0.861701 0.861701 0.861701
0.893930 0.893930 0.893930
0.674367 0.674367 0.674367
0.714921 0.714921 0.714921
0.753821 0.753821 0.753821
0.791067 0.791067 0.791067
0.826659 0.826659 0.826659
0.860598 0.860598 0.860598
0.892883 0.892883 0.892883
0.923514 0.923514 0.923514
0.952491 0.952491 0.952491
0.061942 0.061942 0.061942
0.091525 0.091525 0.091525
0.122763 0.122763 0.122763
0.155654 0.155654 0.155654
0.190199 0.190199 0.190199
0.226398 0.226398 0.226398
0.264250 0.264250 0.264250
0.303757 0.303757 0.303757
0.344917 0.344917 0.344917
0.121695 0.121695 0.121695
0.154531 0.154531 0.154531
0.189021 0.189021 0.189021
0.225165 0.225165 0.225165
0.262962 0.262962 0.262962
0.302413 0.302413 0.302413
0.343518 0.343518 0.343518
0.386277 0.386277 0.386277
0.430689 0.430689 0.430689
0.187845 0.187845 0.187845
0.223933 0.223933 0.223933
0.261676 0.261676 0.261676
0.301072 0.301072 0.301072
0.342121 0.342121 0.342121
0.384825 0.384825 0.384825
0.429182 0.429182 0.429182
0.475193 0.475193 0.475193
0.522547 0.522547 0.522547
0.260391 0.260391 0.260391
0.299732 0.299732 0.299732
0.340726 0.340726 0.340726
0.383375 0.383375 0.383375
0.427677 0.427677 0.427677
0.473633 0.473633 0.473633
0.520978 0.520978 0.520978
0.567264 0.567264 0.567264
0.611897 0.611897 0.611897
0.339333 0.339333 0.339333
0.381926 0.381926 0.381926
0.426173 0.426173 0.426173
0.472074 0.472074 0.472074
0.519406 0.519406 0.519406
0.565748 0.565748 0.565748
0.610436 0.610436 0.610436
0.653470 0.653470 0.653470
0.694851 0.694851 0.694851
0.424672 0.424672 0.424672
0.470517 0.470517 0.470517
0.517833 0.517833 0.517833
0.564230 0.564230 0.564230
0.608973 0.608973 0.608973
0.652062 0.652062 0.652062
0.693498 0.693498 0.693498
0.733280 0.733280 0.733280
0.771408 0.771408 0.771408
0.516258 0.516258 0.516258
0.562710 0.562710 0.562710
0.607508 0.607508 0.607508
0.650653 0.650653 0.650653
0.692144 0.692144 0.692144
0.731981 0.731981 0.731981
0.770164 0.770164 0.770164
0.806693 0.806693 0.806693
0.841569 0.841569 0.841569
0.606042 0.606042 0.606042
0.649241 0.649241 0.649241
0.690787 0.690787 0.690787
0.730679 0.730679 0.730679
0.768918 0.768918 0.768918
0.805502 0.805502 0.805502
0.840433 0.840433 0.840433
0.873710 0.873710 0.873710
0.905334 0.905334 0.905334
0.689429 0.689429 0.689429
0.729376 0.729376 0.729376
0.767670 0.767670 0.767670
0.804309 0.804309 0.804309
0.839295 0.839295 0.839295
0.872628 0.872628 0.872628
0.904306 0.904306 0.904306
0.934331 0.934331 0.934331
0.962702 0.962702 0.962702
0.072597 0.072597 0.072597
0.102787 0.102787 0.102787
0.134631 0.134631 0.134631
0.168129 0.168129 0.168129
0.203280 0.203280 0.203280
0.240085 0.240085 0.240085
0.278544 0.278544 0.278544
0.318657 0.318657 0.318657
0.360423 0.360423 0.360423
0.133543 0.133543 0.133543
0.166985 0.166985 0.166985
0.202082 0.202082 0.202082
0.238832 0.238832 0.238832
0.277235 0.277235 0.277235
0.317293 0.317293 0.317293
0.359004 0.359004 0.359004
0.402369 0.402369 0.402369
0.447388 0.447388 0.447388
0.200885 0.200885 0.200885
0.237580 0.237580 0.237580
0.275929 0.275929 0.275929
0.315931 0.315931 0.315931
0.357587 0.357587 0.357587
0.400897 0.400897 0.400897
0.445861 0.445861 0.445861
0.492478 0.492478 0.492478
0.539691 0.539691 0.539691
0.274624 0.274624 0.274624
0.314571 0.314571 0.314571
0.356172 0.356172 0.356172
0.399427 0.399427 0.399427
0.444335 0.444335 0.444335
0.490898 0.490898 0.490898
0.538141 0.538141 0.538141
0.583822 0.583822 0.583822
0.627848 0.627848 0.627848
0.354759 0.354759 0.354759
0.397958 0.397958 0.397958
0.442812 0.442812 0.442812
0.489319 0.489319 0.489319
0.536590 0.536590 0.536590
0.582326 0.582326 0.582326
0.626407 0.626407 0.626407
0.668835 0.668835 0.668835
0.709609 0.709609 0.709609
0.441290 0.441290 0.441290
0.487742 0.487742 0.487742
0.535037 0.535037 0.535037
0.580828 0.580828 0.580828
0.624965 0.624965 0.624965
0.667448 0.667448 0.667448
0.708277 0.708277 0.708277
0.747452 0.747452 0.747452
0.784974 0.784974 0.784974
0.533483 0.533483 0.533483
0.579328 0.579328 0.579328
0.623520 0.623520 0.623520
0.666058 0.666058 0.666058
0.706943 0.706943 0.706943
0.746173 0.746173 0.746173
0.783750 0.783750 0.783750
0.819673 0.819673 0.819673
0.853942 0.853942 0.853942
0.622074 0.622074 0.622074
0.664667 0.664667 0.664667
0.705606 0.705606 0.705606
0.744892 0.744892 0.744892
0.782524 0.782524 0.782524
0.818502 0.818502 0.818502
0.852827 0.852827 0.852827
0.885498 0.885498 0.885498
0.916515 0.916515 0.916515
0.704268 0.704268 0.704268
0.743609 0.743609 0.743609
0.781296 0.781296 0.781296
0.817330 0.817330 0.817330
0.851709 0.851709 0.851709
0.884435 0.884435 0.884435
0.915507 0.915507 0.915507
0.944926 0.944926 0.944926
0.972690 0.972690 0.972690
0.083475 0.083475 0.083475
0.114271 0.114271 0.114271
0.146722 0.146722 0.146722
0.180826 0.180826 0.180826
0.216583 0.216583 0.216583
0.253995 0.253995 0.253995
0.293060 0.293060 0.293060
0.333779 0.333779 0.333779
0.376152 0.376152 0.376152
0.145613 0.145613 0.145613
0.179662 0.179662 0.179662
0.215365 0.215365 0.215365
0.252721 0.252721 0.252721
0.291731 0.291731 0.291731
0.332395 0.332395 0.332395
0.374713 0.374713 0.374713
0.418684 0.418684 0.418684
0.464309 0.464309 0.464309
0.214148 0.214148 0.214148
0.251449 0.251449 0.251449
0.290404 0.290404 0.290404
0.331013 0.331013 0.331013
0.373275 0.373275 0.373275
0.417192 0.417192 0.417192
0.462762 0.462762 0.462762
0.509940 0.509940 0.509940
0.556612 0.556612 0.556612
0.289079 0.289079 0.289079
0.329633 0.329633 0.329633
0.371840 0.371840 0.371840
0.415701 0.415701 0.415701
0.461216 0.461216 0.461216
0.508355 0.508355 0.508355
0.555083 0.555083 0.555083
0.600157 0.600157 0.600157
0.643577 0.643577 0.643577
0.370407 0.370407 0.370407
0.414213 0.414213 0.414213
0.459672 0.459672 0.459672
0.506769 0.506769 0.506769
0.553552 0.553552 0.553552
0.598681 0.598681 0.598681
0.642156 0.642156 0.642156
0.683978 0.683978 0.683978
0.724145 0.724145 0.724145
0.458130 0.458130 0.458130
0.505181 0.505181 0.505181
0.552019 0.552019 0.552019
0.597203 0.597203 0.597203
0.640734 0.640734 0.640734
0.682610 0.682610 0.682610
0.722833 0.722833 0.722833
0.761402 0.761402 0.761402
0.798318 0.798318 0.798318
0.550485 0.550485 0.550485
0.595724 0.595724 0.595724
0.639309 0.639309 0.639309
0.681241 0.681241 0.681241
0.721519 0.721519 0.721519
0.760143 0.760143 0.760143
0.797114 0.797114 0.797114
0.832431 0.832431 0.832431
0.866094 0.866094 0.866094
0.637883 0.637883 0.637883
0.679870 0.679870 0.679870
0.720203 0.720203 0.720203
0.758882 0.758882 0.758882
0.795908 0.795908 0.795908
0.831280 0.831280 0.831280
0.864998 0.864998 0.864998
0.897062 0.897062 0.897062
0.927473 0.927473 0.927473
0.718885 0.718885 0.718885
0.757620 0.757620 0.757620
0.794701 0.794701 0.794701
0.830128 0.830128 0.830128
0.863901 0.863901 0.863901
0.896020 0.896020 0.896020
0.926486 0.926486 0.926486
0.955298 0.955298 0.955298
0.982456 0.982456 0.982456
0.094575 0.094575 0.094575
0.125978 0.125978 0.125978
0.159034 0.159034 0.159034
0.193745 0.193745 0.193745
0.230109 0.230109 0.230109
0.268127 0.268127 0.268127
0.307798 0.307798 0.307798
0.349124 0.349124 0.349124
0.392103 0.392103 0.392103
0.157906 0.157906 0.157906
0.192561 0.192561 0.192561
0.228870 0.228870 0.228870
0.266833 0.266833 0.266833
0.306449 0.306449 0.306449
0.347720 0.347720 0.347720
0.390644 0.390644 0.390644
0.435221 0.435221 0.435221
0.481453 0.481453 0.481453
0.227633 0.227633 0.227633
0.265541 0.265541 0.265541
0.305102 0.305102 0.305102
0.346317 0.346317 0.346317
0.389186 0.389186 0.389186
0.433709 0.433709 0.433709
0.479885 0.479885 0.479885
0.527245 0.527245 0.527245
0.573311 0.573311 0.573311
0.303757 0.303757 0.303757
0.344917 0.344917 0.344917
0.387730 0.387730 0.387730
0.432198 0.432198 0.432198
0.478319 0.478319 0.478319
0.525681 0.525681 0.525681
0.571802 0.571802 0.571802
0.616270 0.616270 0.616270
0.659083 0.659083 0.659083
0.386277 0.386277 0.386277
0.430689 0.430689 0.430689
0.476755 0.476755 0.476755
0.524115 0.524115 0.524115
0.570291 0.570291 0.570291
0.614814 0.614814 0.614814
0.657683 0.657683 0.657683
0.698898 0.698898 0.698898
0.738459 0.738459 0.738459
0.475193 0.475193 0.475193
0.522547 0.522547 0.522547
0.568779 0.568779 0.568779
0.613356 0.613356 0.613356
0.656280 0.656280 0.656280
0.697551 0.697551 0.697551
0.737167 0.737167 0.737167
0.775130 0.775130 0.775130
0.811439 0.811439 0.811439
0.567264 0.567264 0.567264
0.611897 0.611897 0.611897
0.654876 0.654876 0.654876
0.696202 0.696202 0.696202
0.735873 0.735873 0.735873
0.773891 0.773891 0.773891
0.810255 0.810255 0.810255
0.844966 0.844966 0.844966
0.878022 0.878022 0.878022
0.653470 0.653470 0.653470
0.694851 0.694851 0.694851
0.734578 0.734578 0.734578
0.772651 0.772651 0.772651
0.809070 0.809070 0.809070
0.843835 0.843835 0.843835
0.876947 0.876947 0.876947
0.908405 0.908405 0.908405
0.938209 0.938209 0.938209
0.733280 0.733280 0.733280
0.771408 0.771408 0.771408
0.807882 0.807882 0.807882
0.842703 0.842703 0.842703
0.875870 0.875870 0.875870
0.907383 0.907383 0.907383
0.937242 0.937242 0.937242
0.965448 0.965448 0.965448
0.992000 0.992000 0.992000
