PhotoStyler/Resources/LUTs/Monochrome.cube
# Generated by tools/generate_luts.py
# Placeholder starter look - replace with an exported Lightroom LUT.
TITLE "PhotoStyler Monochrome"
LUT_3D_SIZE 5
DOMAIN_MIN 0.0 0.0 0.0
DOMAIN_MAX 1.0 1.0 1.0
0.012000 0.012000 0.012000
0.066757 0.066757 0.066757
0.128130 0.128130 0.128130
0.196118 0.196118 0.196118
0.270720 0.270720 0.270720
0.125978 0.125978 0.125978
0.193745 0.193745 0.193745
0.268127 0.268127 0.268127
0.349124 0.349124 0.349124
0.436736 0.436736 0.436736
0.265541 0.265541 0.265541
0.346317 0.346317 0.346317
0.433709 0.433709 0.433709
0.527245 0.527245 0.527245
0.617723 0.617723 0.617723
0.430689 0.430689 0.430689
0.524115 0.524115 0.524115
0.614814 0.614814 0.614814
0.698898 0.698898 0.698898
0.776367 0.776367 0.776367
0.611897 0.611897 0.611897
0.696202 0.696202 0.696202
0.773891 0.773891 0.773891
0.844966 0.844966 0.844966
0.909425 0.909425 0.909425
0.031310 0.031310 0.031310
0.088493 0.088493 0.088493
0.152291 0.152291 0.152291
0.222704 0.222704 0.222704
0.299732 0.299732 0.299732
0.150058 0.150058 0.150058
0.220250 0.220250 0.220250
0.297057 0.297057 0.297057
0.380480 0.380480 0.380480
0.470518 0.470518 0.470518
0.294391 0.294391 0.294391
0.377593 0.377593 0.377593
0.467410 0.467410 0.467410
0.561188 0.561188 0.561188
0.649241 0.649241 0.649241
0.464309 0.464309 0.464309
0.558139 0.558139 0.558139
0.646413 0.646413 0.646413
0.728071 0.728071 0.728071
0.803115 0.803115 0.803115
0.643577 0.643577 0.643577
0.725456 0.725456 0.725456
0.800720 0.800720 0.800720
0.869369 0.869369 0.869369
0.931403 0.931403 0.931403
0.051509 0.051509 0.051509
0.111117 0.111117 0.111117
0.177341 0.177341 0.177341
0.250179 0.250179 0.250179
0.329633 0.329633 0.329633
0.175027 0.175027 0.175027
0.247645 0.247645 0.247645
0.326878 0.326878 0.326878
0.412726 0.412726 0.412726
0.505181 0.505181 0.505181
0.324130 0.324130 0.324130
0.409757 0.409757 0.409757
0.502000 0.502000 0.502000
0.594243 0.594243 0.594243
0.679870 0.679870 0.679870
0.498819 0.498819 0.498819
0.591274 0.591274 0.591274
0.677122 0.677122 0.677122
0.756355 0.756355 0.756355
0.828973 0.828973 0.828973
0.674367 0.674367 0.674367
0.753821 0.753821 0.753821
0.826659 0.826659 0.826659
0.892883 0.892883 0.892883
0.952491 0.952491 0.952491
0.072597 0.072597 0.072597
0.134631 0.134631 0.134631
0.203280 0.203280 0.203280
0.278544 0.278544 0.278544
0.360423 0.360423 0.360423
0.200885 0.200885 0.200885
0.275929 0.275929 0.275929
0.357587 0.357587 0.357587
0.445861 0.445861 0.445861
0.539691 0.539691 0.539691
0.354759 0.354759 0.354759
0.442812 0.442812 0.442812
0.536590 0.536590 0.536590
0.626407 0.626407 0.626407
0.709609 0.709609 0.709609
0.533483 0.533483 0.533483
0.623520 0.623520 0.623520
0.706943 0.706943 0.706943
0.783750 0.783750 0.783750
0.853942 0.853942 0.853942
0.704268 0.704268 0.704268
0.781296 0.781296 0.781296
0.851709 0.851709 0.851709
0.915507 0.915507 0.915507
0.972690 0.972690 0.972690
0.094575 0.094575 0.094575
0.159034 0.159034 0.159034
0.230109 0.230109 0.230109
0.307798 0.307798 0.307798
0.392103 0.392103 0.392103
0.227633 0.227633 0.227633
0.305102 0.305102 0.305102
0.389186 0.389186 0.389186
0.479885 0.479885 0.479885
0.573311 0.573311 0.573311
0.386277 0.386277 0.386277
0.476755 0.476755 0.476755
0.570291 0.570291 0.570291
0.657683 0.657683 0.657683
0.738459 0.738459 0.738459
0.567264 0.567264 0.567264
0.654876 0.654876 0.654876
0.735873 0.735873 0.735873
0.810255 0.810255 0.810255
0.878022 0.878022 0.878022
0.733280 0.733280 0.733280
0.807882 0.807882 0.807882
0.875870 0.875870 0.875870
0.937242 0.937242 0.937242
0.992000 0.992000 0.992000
