PhotoStyler/Resources/LUTs/Monochrome.cube
# Generated by tools/generate_luts.py
# Placeholder starter look - replace with an exported Lightroom LUT.
TITLE "PhotoStyler Monochrome"
LUT_3D_SIZE 33
DOMAIN_MIN 0.0 0.0 0.0
DOMAIN_MAX 1.0 1.0 1.0
0.012000 0.012000 0.012000
0.018483 0.018483 0.018483
0.025069 0.025069 0.025069
0.031759 0.031759 0.031759
0.038552 0.038552 0.038552
0.045448 0.045448 0.045448
0.052448 0.052448 0.052448
0.059551 0.059551 0.059551
0.066757 0.066757 0.066757
0.074067 0.074067 0.074067
0.081480 0.081480 0.081480
0.088997 0.088997 0.088997
0.096617 0.096617 0.096617
0.104340 0.104340 0.104340
0.112167 0.112167 0.112167
0.120097 0.120097 0.120097
0.128130 0.128130 0.128130
0.136267 0.136267 0.136267
0.144507 0.144507 0.144507
0.152850 0.152850 0.152850
0.161297 0.161297 0.161297
0.169847 0.169847 0.169847
0.178500 0.178500 0.178500
0.187257 0.187257 0.187257
0.196118 0.196118 0.196118
0.205081 0.205081 0.205081
0.214148 0.214148 0.214148
0.223318 0.223318 0.223318
0.232592 0.232592 0.232592
0.241969 0.241969 0.241969
0.251449 0.251449 0.251449
0.261033 0.261033 0.261033
0.270720 0.270720 0.270720
0.024848 0.024848 0.024848
0.031534 0.031534 0.031534
0.038324 0.038324 0.038324
0.045217 0.045217 0.045217
0.052213 0.052213 0.052213
0.059313 0.059313 0.059313
0.066516 0.066516 0.066516
0.073822 0.073822 0.073822
0.081232 0.081232 0.081232
0.088745 0.088745 0.088745
0.096361 0.096361 0.096361
0.104081 0.104081 0.104081
0.111904 0.111904 0.111904
0.119831 0.119831 0.119831
0.127861 0.127861 0.127861
0.135994 0.135994 0.135994
0.144230 0.144230 0.144230
0.152570 0.152570 0.152570
0.161014 0.161014 0.161014
0.169560 0.169560 0.169560
0.178210 0.178210 0.178210
0.186964 0.186964 0.186964
0.195820 0.195820 0.195820
0.204781 0.204781 0.204781
0.213844 0.213844 0.213844
0.223011 0.223011 0.223011
0.232281 0.232281 0.232281
0.241655 0.241655 0.241655
0.251132 0.251132 0.251132
0.260712 0.260712 0.260712
0.270395 0.270395 0.270395
0.280182 0.280182 0.280182
0.290073 0.290073 0.290073
0.038096 0.038096 0.038096
0.044985 0.044985 0.044985
0.051978 0.051978 0.051978
0.059074 0.059074 0.059074
0.066274 0.066274 0.066274
0.073577 0.073577 0.073577
0.080983 0.080983 0.080983
0.088493 0.088493 0.088493
0.096106 0.096106 0.096106
0.103822 0.103822 0.103822
0.111642 0.111642 0.111642
0.119565 0.119565 0.119565
0.127591 0.127591 0.127591
0.135721 0.135721 0.135721
0.143954 0.143954 0.143954
0.152291 0.152291 0.152291
0.160731 0.160731 0.160731
0.169274 0.169274 0.169274
0.177920 0.177920 0.177920
0.186670 0.186670 0.186670
0.195524 0.195524 0.195524
0.204480 0.204480 0.204480
0.213540 0.213540 0.213540
0.222704 0.222704 0.222704
0.231970 0.231970 0.231970
0.241341 0.241341 0.241341
0.250814 0.250814 0.250814
0.260391 0.260391 0.260391
0.270071 0.270071 0.270071
0.279855 0.279855 0.279855
0.289741 0.289741 0.289741
0.299732 0.299732 0.299732
0.309825 0.309825 0.309825
0.051743 0.051743 0.051743
0.058836 0.058836 0.058836
0.066032 0.066032 0.066032
0.073332 0.073332 0.073332
0.080735 0.080735 0.080735
0.088241 0.088241 0.088241
0.095850 0.095850 0.095850
0.103563 0.103563 0.103563
0.111379 0.111379 0.111379
0.119299 0.119299 0.119299
0.127322 0.127322 0.127322
0.135448 0.135448 0.135448
0.143678 0.143678 0.143678
0.152011 0.152011 0.152011
0.160448 0.160448 0.160448
0.168987 0.168987 0.168987
0.177630 0.177630 0.177630
0.186377 0.186377 0.186377
0.195227 0.195227 0.195227
0.204180 0.204180 0.204180
0.213237 0.213237 0.213237
0.222397 0.222397 0.222397
0.231660 0.231660 0.231660
0.241027 0.241027 0.241027
0.250497 0.250497 0.250497
0.260070 0.260070 0.260070
0.269747 0.269747 0.269747
0.279527 0.279527 0.279527
0.289410 0.289410 0.289410
0.299397 0.299397 0.299397
0.309487 0.309487 0.309487
0.319681 0.319681 0.319681
0.329978 0.329978 0.329978
0.065791 0.065791 0.065791
0.073087 0.073087 0.073087
0.080486 0.080486 0.080486
0.087989 0.087989 0.087989
0.095595 0.095595 0.095595
0.103304 0.103304 0.103304
0.111117 0.111117 0.111117
0.119033 0.119033 0.119033
0.127053 0.127053 0.127053
0.135176 0.135176 0.135176
0.143402 0.143402 0.143402
0.151732 0.151732 0.151732
0.160165 0.160165 0.160165
0.168701 0.168701 0.168701
0.177341 0.177341 0.177341
0.186084 0.186084 0.186084
0.194930 0.194930 0.194930
0.203880 0.203880 0.203880
0.212933 0.212933 0.212933
0.222090 0.222090 0.222090
0.231349 0.231349 0.231349
0.240713 0.240713 0.240713
0.250179 0.250179 0.250179
0.259749 0.259749 0.259749
0.269422 0.269422 0.269422
0.279199 0.279199 0.279199
0.289079 0.289079 0.289079
0.299062 0.299062 0.299062
0.309149 0.309149 0.309149
0.319339 0.319339 0.319339
0.329633 0.329633 0.329633
0.340030 0.340030 0.340030
0.350530 0.350530 0.350530
0.080238 0.080238 0.080238
0.087737 0.087737 0.087737
0.095340 0.095340 0.095340
0.103046 0.103046 0.103046
0.110855 0.110855 0.110855
0.118768 0.118768 0.118768
0.126784 0.126784 0.126784
0.134903 0.134903 0.134903
0.143126 0.143126 0.143126
0.151452 0.151452 0.151452
0.159882 0.159882 0.159882
0.168415 0.168415 0.168415
0.177051 0.177051 0.177051
0.185791 0.185791 0.185791
0.194634 0.194634 0.194634
0.203580 0.203580 0.203580
0.212630 0.212630 0.212630
0.221783 0.221783 0.221783
0.231039 0.231039 0.231039
0.240399 0.240399 0.240399
0.249862 0.249862 0.249862
0.259428 0.259428 0.259428
0.269098 0.269098 0.269098
0.278872 0.278872 0.278872
0.288748 0.288748 0.288748
0.298728 0.298728 0.298728
0.308811 0.308811 0.308811
0.318998 0.318998 0.318998
0.329288 0.329288 0.329288
0.339681 0.339681 0.339681
0.350178 0.350178 0.350178
0.360778 0.360778 0.360778
0.371482 0.371482 0.371482
0.095085 0.095085 0.095085
0.102787 0.102787 0.102787
0.110593 0.110593 0.110593
0.118502 0.118502 0.118502
0.126515 0.126515 0.126515
0.134631 0.134631 0.134631
0.142850 0.142850 0.142850
0.151173 0.151173 0.151173
0.159599 0.159599 0.159599
0.168129 0.168129 0.168129
0.176762 0.176762 0.176762
0.185498 0.185498 0.185498
0.194337 0.194337 0.194337
0.203280 0.203280 0.203280
0.212326 0.212326 0.212326
0.221476 0.221476 0.221476
0.230729 0.230729 0.230729
0.240085 0.240085 0.240085
0.249545 0.249545 0.249545
0.259108 0.259108 0.259108
0.268774 0.268774 0.268774
0.278544 0.278544 0.278544
0.288417 0.288417 0.288417
0.298394 0.298394 0.298394
0.308474 0.308474 0.308474
0.318657 0.318657 0.318657
0.328943 0.328943 0.328943
0.339333 0.339333 0.339333
0.349826 0.349826 0.349826
0.360423 0.360423 0.360423
0.371123 0.371123 0.371123
0.381926 0.381926 0.381926
0.392833 0.392833 0.392833
0.110331 0.110331 0.110331
0.118237 0.118237 0.118237
0.126246 0.126246 0.126246
0.134359 0.134359 0.134359
0.142575 0.142575 0.142575
0.150894 0.150894 0.150894
0.159317 0.159317 0.159317
0.167843 0.167843 0.167843
0.176472 0.176472 0.176472
0.185205 0.185205 0.185205
0.194041 0.194041 0.194041
0.202980 0.202980 0.202980
0.212023 0.212023 0.212023
0.221169 0.221169 0.221169
0.230419 0.230419 0.230419
0.239772 0.239772 0.239772
0.249228 0.249228 0.249228
0.258787 0.258787 0.258787
0.268450 0.268450 0.268450
0.278217 0.278217 0.278217
0.288086 0.288086 0.288086
0.298059 0.298059 0.298059
0.308136 0.308136 0.308136
0.318316 0.318316 0.318316
0.328599 0.328599 0.328599
0.338985 0.338985 0.338985
0.349475 0.349475 0.349475
0.360068 0.360068 0.360068
0.370765 0.370765 0.370765
0.381565 0.381565 0.381565
0.392468 0.392468 0.392468
0.403475 0.403475 0.403475
0.414585 0.414585 0.414585
0.125978 0.125978 0.125978
0.134087 0.134087 0.134087
0.142299 0.142299 0.142299
0.150615 0.150615 0.150615
0.159034 0.159034 0.159034
0.167557 0.167557 0.167557
0.176183 0.176183 0.176183
0.184912 0.184912 0.184912
0.193745 0.193745 0.193745
0.202681 0.202681 0.202681
0.211720 0.211720 0.211720
0.220863 0.220863 0.220863
0.230109 0.230109 0.230109
0.239458 0.239458 0.239458
0.248911 0.248911 0.248911
0.258467 0.258467 0.258467
0.268127 0.268127 0.268127
0.277890 0.277890 0.277890
0.287756 0.287756 0.287756
0.297725 0.297725 0.297725
0.307798 0.307798 0.307798
0.317975 0.317975 0.317975
0.328254 0.328254 0.328254
0.338637 0.338637 0.338637
0.349124 0.349124 0.349124
0.359713 0.359713 0.359713
0.370407 0.370407 0.370407
0.381203 0.381203 0.381203
0.392103 0.392103 0.392103
0.403106 0.403106 0.403106
0.414213 0.414213 0.414213
0.425422 0.425422 0.425422
0.436736 0.436736 0.436736
0.142024 0.142024 0.142024
0.150336 0.150336 0.150336
0.158752 0.158752 0.158752
0.167271 0.167271 0.167271
0.175894 0.175894 0.175894
0.184619 0.184619 0.184619
0.193449 0.193449 0.193449
0.202381 0.202381 0.202381
0.211417 0.211417 0.211417
0.220556 0.220556 0.220556
0.229799 0.229799 0.229799
0.239145 0.239145 0.239145
0.248594 0.248594 0.248594
0.258147 0.258147 0.258147
0.267803 0.267803 0.267803
0.277562 0.277562 0.277562
0.287425 0.287425 0.287425
0.297391 0.297391 0.297391
0.307461 0.307461 0.307461
0.317634 0.317634 0.317634
0.327910 0.327910 0.327910
0.338290 0.338290 0.338290
0.348772 0.348772 0.348772
0.359359 0.359359 0.359359
0.370048 0.370048 0.370048
0.380841 0.380841 0.380841
0.391738 0.391738 0.391738
0.402738 0.402738 0.402738
0.413841 0.413841 0.413841
0.425047 0.425047 0.425047
0.436357 0.436357 0.436357
0.447770 0.447770 0.447770
0.459287 0.459287 0.459287
0.158470 0.158470 0.158470
0.166985 0.166985 0.166985
0.175604 0.175604 0.175604
0.184327 0.184327 0.184327
0.193153 0.193153 0.193153
0.202082 0.202082 0.202082
0.211114 0.211114 0.211114
0.220250 0.220250 0.220250
0.229489 0.229489 0.229489
0.238832 0.238832 0.238832
0.248278 0.248278 0.248278
0.257827 0.257827 0.257827
0.267479 0.267479 0.267479
0.277235 0.277235 0.277235
0.287095 0.287095 0.287095
0.297057 0.297057 0.297057
0.307124 0.307124 0.307124
0.317293 0.317293 0.317293
0.327566 0.327566 0.327566
0.337942 0.337942 0.337942
0.348421 0.348421 0.348421
0.359004 0.359004 0.359004
0.369690 0.369690 0.369690
0.380480 0.380480 0.380480
0.391373 0.391373 0.391373
0.402369 0.402369 0.402369
0.413469 0.413469 0.413469
0.424672 0.424672 0.424672
0.435978 0.435978 0.435978
0.447388 0.447388 0.447388
0.458901 0.458901 0.458901
0.470517 0.470517 0.470517
0.482237 0.482237 0.482237
0.175316 0.175316 0.175316
0.184034 0.184034 0.184034
0.192857 0.192857 0.192857
0.201782 0.201782 0.201782
0.210811 0.210811 0.210811
0.219944 0.219944 0.219944
0.229180 0.229180 0.229180
0.238519 0.238519 0.238519
0.247961 0.247961 0.247961
0.257507 0.257507 0.257507
0.267156 0.267156 0.267156
0.276909 0.276909 0.276909
0.286764 0.286764 0.286764
0.296724 0.296724 0.296724
0.306786 0.306786 0.306786
0.316952 0.316952 0.316952
0.327222 0.327222 0.327222
0.337594 0.337594 0.337594
0.348070 0.348070 0.348070
0.358650 0.358650 0.358650
0.369333 0.369333 0.369333
0.380119 0.380119 0.380119
0.391008 0.391008 0.391008
0.402001 0.402001 0.402001
0.413097 0.413097 0.413097
0.424297 0.424297 0.424297
0.435600 0.435600 0.435600
0.447006 0.447006 0.447006
0.458516 0.458516 0.458516
0.470129 0.470129 0.470129
0.481845 0.481845 0.481845
0.493665 0.493665 0.493665
0.505578 0.505578 0.505578
0.192561 0.192561 0.192561
0.201483 0.201483 0.201483
0.210509 0.210509 0.210509
0.219638 0.219638 0.219638
0.228870 0.228870 0.228870
0.238206 0.238206 0.238206
0.247645 0.247645 0.247645
0.257187 0.257187 0.257187
0.266833 0.266833 0.266833
0.276582 0.276582 0.276582
0.286434 0.286434 0.286434
0.296390 0.296390 0.296390
0.306449 0.306449 0.306449
0.316612 0.316612 0.316612
0.326878 0.326878 0.326878
0.337247 0.337247 0.337247
0.347720 0.347720 0.347720
0.358295 0.358295 0.358295
0.368975 0.368975 0.368975
0.379757 0.379757 0.379757
0.390644 0.390644 0.390644
0.401633 0.401633 0.401633
0.412726 0.412726 0.412726
0.423922 0.423922 0.423922
0.435221 0.435221 0.435221
0.446624 0.446624 0.446624
0.458130 0.458130 0.458130
0.469740 0.469740 0.469740
0.481453 0.481453 0.481453
0.493269 0.493269 0.493269
0.505181 0.505181 0.505181
0.517046 0.517046 0.517046
0.528807 0.528807 0.528807
0.210206 0.210206 0.210206
0.219332 0.219332 0.219332
0.228561 0.228561 0.228561
0.237893 0.237893 0.237893
0.247328 0.247328 0.247328
0.256867 0.256867 0.256867
0.266510 0.266510 0.266510
0.276255 0.276255 0.276255
0.286104 0.286104 0.286104
0.296057 0.296057 0.296057
0.306112 0.306112 0.306112
0.316271 0.316271 0.316271
0.326534 0.326534 0.326534
0.336900 0.336900 0.336900
0.347369 0.347369 0.347369
0.357941 0.357941 0.357941
0.368617 0.368617 0.368617
0.379396 0.379396 0.379396
0.390279 0.390279 0.390279
0.401265 0.401265 0.401265
0.412354 0.412354 0.412354
0.423547 0.423547 0.423547
0.434843 0.434843 0.434843
0.446242 0.446242 0.446242
0.457745 0.457745 0.457745
0.469351 0.469351 0.469351
0.481061 0.481061 0.481061
0.492874 0.492874 0.492874
0.504784 0.504784 0.504784
0.516652 0.516652 0.516652
0.528417 0.528417 0.528417
0.540078 0.540078 0.540078
0.551636 0.551636 0.551636
0.228251 0.228251 0.228251
0.237580 0.237580 0.237580
0.247012 0.247012 0.247012
0.256548 0.256548 0.256548
0.266187 0.266187 0.266187
0.275929 0.275929 0.275929
0.285774 0.285774 0.285774
0.295723 0.295723 0.295723
0.305775 0.305775 0.305775
0.315931 0.315931 0.315931
0.326190 0.326190 0.326190
0.336552 0.336552 0.336552
0.347018 0.347018 0.347018
0.357587 0.357587 0.357587
0.368260 0.368260 0.368260
0.379035 0.379035 0.379035
0.389915 0.389915 0.389915
0.400897 0.400897 0.400897
0.411983 0.411983 0.411983
0.423172 0.423172 0.423172
0.434465 0.434465 0.434465
0.445861 0.445861 0.445861
0.457360 0.457360 0.457360
0.468963 0.468963 0.468963
0.480669 0.480669 0.480669
0.492478 0.492478 0.492478
0.504387 0.504387 0.504387
0.516258 0.516258 0.516258
0.528026 0.528026 0.528026
0.539691 0.539691 0.539691
0.551252 0.551252 0.551252
0.562710 0.562710 0.562710
0.574065 0.574065 0.574065
0.246696 0.246696 0.246696
0.256228 0.256228 0.256228
0.265864 0.265864 0.265864
0.275602 0.275602 0.275602
0.285444 0.285444 0.285444
0.295390 0.295390 0.295390
0.305439 0.305439 0.305439
0.315591 0.315591 0.315591
0.325846 0.325846 0.325846
0.336205 0.336205 0.336205
0.346668 0.346668 0.346668
0.357233 0.357233 0.357233
0.367902 0.367902 0.367902
0.378675 0.378675 0.378675
0.389550 0.389550 0.389550
0.400529 0.400529 0.400529
0.411612 0.411612 0.411612
0.422798 0.422798 0.422798
0.434087 0.434087 0.434087
0.445479 0.445479 0.445479
0.456975 0.456975 0.456975
0.468574 0.468574 0.468574
0.480277 0.480277 0.480277
0.492083 0.492083 0.492083
0.503989 0.503989 0.503989
0.515864 0.515864 0.515864
0.527636 0.527636 0.527636
0.539304 0.539304 0.539304
0.550868 0.550868 0.550868
0.562330 0.562330 0.562330
0.573688 0.573688 0.573688
0.584943 0.584943 0.584943
0.596094 0.596094 0.596094
0.265541 0.265541 0.265541
0.275276 0.275276 0.275276
0.285115 0.285115 0.285115
0.295057 0.295057 0.295057
0.305102 0.305102 0.305102
0.315251 0.315251 0.315251
0.325503 0.325503 0.325503
0.335858 0.335858 0.335858
0.346317 0.346317 0.346317
0.356879 0.356879 0.356879
0.367545 0.367545 0.367545
0.378314 0.378314 0.378314
0.389186 0.389186 0.389186
0.400162 0.400162 0.400162
0.411241 0.411241 0.411241
0.422423 0.422423 0.422423
0.433709 0.433709 0.433709
0.445098 0.445098 0.445098
0.456590 0.456590 0.456590
0.468186 0.468186 0.468186
0.479885 0.479885 0.479885
0.491688 0.491688 0.491688
0.503592 0.503592 0.503592
0.515470 0.515470 0.515470
0.527245 0.527245 0.527245
0.538916 0.538916 0.538916
0.550485 0.550485 0.550485
0.561949 0.561949 0.561949
0.573311 0.573311 0.573311
0.584569 0.584569 0.584569
0.595724 0.595724 0.595724
0.606775 0.606775 0.606775
0.617723 0.617723 0.617723
0.284785 0.284785 0.284785
0.294724 0.294724 0.294724
0.304766 0.304766 0.304766
0.314911 0.314911 0.314911
0.325160 0.325160 0.325160
0.335512 0.335512 0.335512
0.345967 0.345967 0.345967
0.356526 0.356526 0.356526
0.367188 0.367188 0.367188
0.377953 0.377953 0.377953
0.388822 0.388822 0.388822
0.399794 0.399794 0.399794
0.410870 0.410870 0.410870
0.422049 0.422049 0.422049
0.433331 0.433331 0.433331
0.444716 0.444716 0.444716
0.456205 0.456205 0.456205
0.467798 0.467798 0.467798
0.479493 0.479493 0.479493
0.491292 0.491292 0.491292
0.503194 0.503194 0.503194
0.515076 0.515076 0.515076
0.526854 0.526854 0.526854
0.538529 0.538529 0.538529
0.550101 0.550101 0.550101
0.561569 0.561569 0.561569
0.572934 0.572934 0.572934
0.584195 0.584195 0.584195
0.595354 0.595354 0.595354
0.606409 0.606409 0.606409
0.617360 0.617360 0.617360
0.628208 0.628208 0.628208
0.638953 0.638953 0.638953
0.304429 0.304429 0.304429
0.314571 0.314571 0.314571
0.324816 0.324816 0.324816
0.335165 0.335165 0.335165
0.345617 0.345617 0.345617
0.356172 0.356172 0.356172
0.366831 0.366831 0.366831
0.377593 0.377593 0.377593
0.388458 0.388458 0.388458
0.399427 0.399427 0.399427
0.410499 0.410499 0.410499
0.421674 0.421674 0.421674
0.432953 0.432953 0.432953
0.444335 0.444335 0.444335
0.455821 0.455821 0.455821
0.467410 0.467410 0.467410
0.479102 0.479102 0.479102
0.490898 0.490898 0.490898
0.502796 0.502796 0.502796
0.514681 0.514681 0.514681
0.526463 0.526463 0.526463
0.538141 0.538141 0.538141
0.549717 0.549717 0.549717
0.561188 0.561188 0.561188
0.572557 0.572557 0.572557
0.583822 0.583822 0.583822
0.594983 0.594983 0.594983
0.606042 0.606042 0.606042
0.616997 0.616997 0.616997
0.627848 0.627848 0.627848
0.638596 0.638596 0.638596
0.649241 0.649241 0.649241
0.659783 0.659783 0.659783
0.324473 0.324473 0.324473
0.334818 0.334818 0.334818
0.345267 0.345267 0.345267
0.355819 0.355819 0.355819
0.366474 0.366474 0.366474
0.377232 0.377232 0.377232
0.388094 0.388094 0.388094
0.399059 0.399059 0.399059
0.410128 0.410128 0.410128
0.421300 0.421300 0.421300
0.432575 0.432575 0.432575
0.443954 0.443954 0.443954
0.455436 0.455436 0.455436
0.467022 0.467022 0.467022
0.478711 0.478711 0.478711
0.490503 0.490503 0.490503
0.502398 0.502398 0.502398
0.514287 0.514287 0.514287
0.526072 0.526072 0.526072
0.537754 0.537754 0.537754
0.549332 0.549332 0.549332
0.560808 0.560808 0.560808
0.572179 0.572179 0.572179
0.583448 0.583448 0.583448
0.594613 0.594613 0.594613
0.605675 0.605675 0.605675
0.616633 0.616633 0.616633
0.627488 0.627488 0.627488
0.638240 0.638240 0.638240
0.648888 0.648888 0.648888
0.659433 0.659433 0.659433
0.669875 0.669875 0.669875
0.680213 0.680213 0.680213
0.344917 0.344917 0.344917
0.355465 0.355465 0.355465
0.366117 0.366117 0.366117
0.376872 0.376872 0.376872
0.387730 0.387730 0.387730
0.398692 0.398692 0.398692
0.409757 0.409757 0.409757
0.420926 0.420926 0.420926
0.432198 0.432198 0.432198
0.443573 0.443573 0.443573
0.455052 0.455052 0.455052
0.466634 0.466634 0.466634
0.478319 0.478319 0.478319
0.490108 0.490108 0.490108
0.502000 0.502000 0.502000
0.513892 0.513892 0.513892
0.525681 0.525681 0.525681
0.537366 0.537366 0.537366
0.548948 0.548948 0.548948
0.560427 0.560427 0.560427
0.571802 0.571802 0.571802
0.583074 0.583074 0.583074
0.594242 0.594242 0.594242
0.605308 0.605308 0.605308
0.616270 0.616270 0.616270
0.627128 0.627128 0.627128
0.637883 0.637883 0.637883
0.648535 0.648535 0.648535
0.659083 0.659083 0.659083
0.669528 0.669528 0.669528
0.679870 0.679870 0.679870
0.690108 0.690108 0.690108
0.700243 0.700243 0.700243
0.365760 0.365760 0.365760
0.376512 0.376512 0.376512
0.387367 0.387367 0.387367
0.398325 0.398325 0.398325
0.409387 0.409387 0.409387
0.420552 0.420552 0.420552
0.431821 0.431821 0.431821
0.443192 0.443192 0.443192
0.454668 0.454668 0.454668
0.466246 0.466246 0.466246
0.477928 0.477928 0.477928
0.489713 0.489713 0.489713
0.501602 0.501602 0.501602
0.513497 0.513497 0.513497
0.525289 0.525289 0.525289
0.536978 0.536978 0.536978
0.548564 0.548564 0.548564
0.560046 0.560046 0.560046
0.571425 0.571425 0.571425
0.582700 0.582700 0.582700
0.593872 0.593872 0.593872
0.604941 0.604941 0.604941
0.615906 0.615906 0.615906
0.626768 0.626768 0.626768
0.637526 0.637526 0.637526
0.648181 0.648181 0.648181
0.658733 0.658733 0.658733
0.669182 0.669182 0.669182
0.679527 0.679527 0.679527
0.689769 0.689769 0.689769
0.699907 0.699907 0.699907
0.709942 0.709942 0.709942
0.719874 0.719874 0.719874
0.387003 0.387003 0.387003
0.397958 0.397958 0.397958
0.409017 0.409017 0.409017
0.420178 0.420178 0.420178
0.431443 0.431443 0.431443
0.442812 0.442812 0.442812
0.454283 0.454283 0.454283
0.465859 0.465859 0.465859
0.477537 0.477537 0.477537
0.489319 0.489319 0.489319
0.501204 0.501204 0.501204
0.513102 0.513102 0.513102
0.524898 0.524898 0.524898
0.536590 0.536590 0.536590
0.548179 0.548179 0.548179
0.559665 0.559665 0.559665
0.571047 0.571047 0.571047
0.582326 0.582326 0.582326
0.593501 0.593501 0.593501
0.604573 0.604573 0.604573
0.615542 0.615542 0.615542
0.626407 0.626407 0.626407
0.637169 0.637169 0.637169
0.647828 0.647828 0.647828
0.658383 0.658383 0.658383
0.668835 0.668835 0.668835
0.679184 0.679184 0.679184
0.689429 0.689429 0.689429
0.699571 0.699571 0.699571
0.709609 0.709609 0.709609
0.719544 0.719544 0.719544
0.729376 0.729376 0.729376
0.739105 0.739105 0.739105
0.408646 0.408646 0.408646
0.419805 0.419805 0.419805
0.431066 0.431066 0.431066
0.442431 0.442431 0.442431
0.453899 0.453899 0.453899
0.465471 0.465471 0.465471
0.477146 0.477146 0.477146
0.488924 0.488924 0.488924
0.500806 0.500806 0.500806
0.512708 0.512708 0.512708
0.524507 0.524507 0.524507
0.536202 0.536202 0.536202
0.547795 0.547795 0.547795
0.559284 0.559284 0.559284
0.570669 0.570669 0.570669
0.581951 0.581951 0.581951
0.593130 0.593130 0.593130
0.604206 0.604206 0.604206
0.615178 0.615178 0.615178
0.626047 0.626047 0.626047
0.636812 0.636812 0.636812
0.647474 0.647474 0.647474
0.658033 0.658033 0.658033
0.668488 0.668488 0.668488
0.678840 0.678840 0.678840
0.689089 0.689089 0.689089
0.699234 0.699234 0.699234
0.709276 0.709276 0.709276
0.719215 0.719215 0.719215
0.729050 0.729050 0.729050
0.738782 0.738782 0.738782
0.748411 0.748411 0.748411
0.757936 0.757936 0.757936
0.430689 0.430689 0.430689
0.442051 0.442051 0.442051
0.453515 0.453515 0.453515
0.465084 0.465084 0.465084
0.476755 0.476755 0.476755
0.488530 0.488530 0.488530
0.500408 0.500408 0.500408
0.512312 0.512312 0.512312
0.524115 0.524115 0.524115
0.535814 0.535814 0.535814
0.547410 0.547410 0.547410
0.558902 0.558902 0.558902
0.570291 0.570291 0.570291
0.581577 0.581577 0.581577
0.592759 0.592759 0.592759
0.603838 0.603838 0.603838
0.614814 0.614814 0.614814
0.625686 0.625686 0.625686
0.636455 0.636455 0.636455
0.647121 0.647121 0.647121
0.657683 0.657683 0.657683
0.668142 0.668142 0.668142
0.678497 0.678497 0.678497
0.688749 0.688749 0.688749
0.698898 0.698898 0.698898
0.708943 0.708943 0.708943
0.718885 0.718885 0.718885
0.728724 0.728724 0.728724
0.738459 0.738459 0.738459
0.748091 0.748091 0.748091
0.757620 0.757620 0.757620
0.767045 0.767045 0.767045
0.776367 0.776367 0.776367
0.453132 0.453132 0.453132
0.464696 0.464696 0.464696
0.476364 0.476364 0.476364
0.488136 0.488136 0.488136
0.500011 0.500011 0.500011
0.511917 0.511917 0.511917
0.523723 0.523723 0.523723
0.535426 0.535426 0.535426
0.547025 0.547025 0.547025
0.558521 0.558521 0.558521
0.569913 0.569913 0.569913
0.581202 0.581202 0.581202
0.592388 0.592388 0.592388
0.603471 0.603471 0.603471
0.614450 0.614450 0.614450
0.625325 0.625325 0.625325
0.636098 0.636098 0.636098
0.646767 0.646767 0.646767
0.657332 0.657332 0.657332
0.667795 0.667795 0.667795
0.678154 0.678154 0.678154
0.688409 0.688409 0.688409
0.698561 0.698561 0.698561
0.708610 0.708610 0.708610
0.718556 0.718556 0.718556
0.728398 0.728398 0.728398
0.738136 0.738136 0.738136
0.747772 0.747772 0.747772
0.757304 0.757304 0.757304
0.766733 0.766733 0.766733
0.776058 0.776058 0.776058
0.785280 0.785280 0.785280
0.794398 0.794398 0.794398
0.475974 0.475974 0.475974
0.487742 0.487742 0.487742
0.499613 0.499613 0.499613
0.511522 0.511522 0.511522
0.523331 0.523331 0.523331
0.535037 0.535037 0.535037
0.546640 0.546640 0.546640
0.558139 0.558139 0.558139
0.569535 0.569535 0.569535
0.580828 0.580828 0.580828
0.592017 0.592017 0.592017
0.603103 0.603103 0.603103
0.614085 0.614085 0.614085
0.624965 0.624965 0.624965
0.635740 0.635740 0.635740
0.646413 0.646413 0.646413
0.656982 0.656982 0.656982
0.667448 0.667448 0.667448
0.677810 0.677810 0.677810
0.688069 0.688069 0.688069
0.698225 0.698225 0.698225
0.708277 0.708277 0.708277
0.718226 0.718226 0.718226
