PhotoStyler/Resources/LUTs/WarmFilm.cube
# Generated by tools/generate_luts.py
# Placeholder starter look - replace with an exported Lightroom LUT.
TITLE "PhotoStyler Warm Film"
LUT_3D_SIZE 5
DOMAIN_MIN 0.0 0.0 0.0
DOMAIN_MAX 1.0 1.0 1.0
0.045535 0.049389 0.044636
0.292937 0.050588 0.044636
0.564885 0.051787 0.044636
0.826100 0.052987 0.044636
1.000000 0.053861 0.044636
0.045535 0.289193 0.044636
0.292937 0.290520 0.044636
0.564885 0.291848 0.044636
0.826100 0.293176 0.044636
1.000000 0.294144 0.044636
0.045535 0.552464 0.044636
0.292937 0.553869 0.044636
0.564885 0.555273 0.044636
0.826100 0.554439 0.044636
1.000000 0.553416 0.044636
0.045535 0.804594 0.044636
0.292937 0.803316 0.044636
0.564885 0.802037 0.044636
0.826100 0.800757 0.044636
1.000000 0.799825 0.044636
0.045535 1.000000 0.044636
0.292937 1.000000 0.044636
0.564885 1.000000 0.044636
0.826100 1.000000 0.044636
1.000000 1.000000 0.044636
0.045535 0.049750 0.264160
0.292937 0.050949 0.264160
0.564885 0.052148 0.264160
0.826100 0.053349 0.264160
1.000000 0.054223 0.264160
0.045535 0.289593 0.264160
0.292937 0.290920 0.264160
0.564885 0.292248 0.264160
0.826100 0.293577 0.264160
1.000000 0.294545 0.264160
0.045535 0.552887 0.264160
0.292937 0.554292 0.264160
0.564885 0.555420 0.264160
0.826100 0.554016 0.264160
1.000000 0.552993 0.264160
0.045535 0.804210 0.264160
0.292937 0.802931 0.264160
0.564885 0.801652 0.264160
0.826100 0.800372 0.264160
1.000000 0.799439 0.264160
0.045535 1.000000 0.264160
0.292937 1.000000 0.264160
0.564885 1.000000 0.264160
0.826100 1.000000 0.264160
1.000000 1.000000 0.264160
0.045535 0.050111 0.500022
0.292937 0.051310 0.500022
0.564885 0.052510 0.500022
0.826100 0.053710 0.500022
1.000000 0.054585 0.500022
0.045535 0.289992 0.500022
0.292937 0.291320 0.500022
0.564885 0.292648 0.500022
0.826100 0.293977 0.500022
1.000000 0.294945 0.500022
0.045535 0.553310 0.500022
0.292937 0.554715 0.500022
0.564885 0.554997 0.500022
0.826100 0.553593 0.500022
1.000000 0.552570 0.500022
0.045535 0.803825 0.500022
0.292937 0.802546 0.500022
0.564885 0.801266 0.500022
0.826100 0.799986 0.500022
1.000000 0.799054 0.500022
0.045535 1.000000 0.500022
0.292937 1.000000 0.500022
0.564885 1.000000 0.500022
0.826100 1.000000 0.500022
1.000000 1.000000 0.500022
0.045535 0.050472 0.735880
0.292937 0.051671 0.735880
0.564885 0.052871 0.735880
0.826100 0.054072 0.735880
1.000000 0.054947 0.735880
0.045535 0.290392 0.735880
0.292937 0.291720 0.735880
0.564885 0.293048 0.735880
0.826100 0.294377 0.735880
1.000000 0.295345 0.735880
0.045535 0.553733 0.735880
0.292937 0.555137 0.735880
0.564885 0.554574 0.735880
0.826100 0.553170 0.735880
1.000000 0.552147 0.735880
0.045535 0.803440 0.735880
0.292937 0.802161 0.735880
0.564885 0.800881 0.735880
0.826100 0.799601 0.735880
1.000000 0.798668 0.735880
0.045535 1.000000 0.735880
0.292937 1.000000 0.735880
0.564885 1.000000 0.735880
0.826100 1.000000 0.735880
1.000000 1.000000 0.735880
0.045535 0.050833 0.955401
0.292937 0.052033 0.955401
0.564885 0.053233 0.955401
0.826100 0.054434 0.955401
1.000000 0.055308 0.955401
0.045535 0.290792 0.955401
0.292937 0.292120 0.955401
0.564885 0.293448 0.955401
0.826100 0.294777 0.955401
1.000000 0.295746 0.955401
0.045535 0.554156 0.955401
0.292937 0.555555 0.955401
0.564885 0.554151 0.955401
0.826100 0.552747 0.955401
1.000000 0.551723 0.955401
0.045535 0.803054 0.955401
0.292937 0.801775 0.955401
0.564885 0.800495 0.955401
0.826100 0.799215 0.955401
1.000000 0.798282 0.955401
0.045535 1.000000 0.955401
0.292937 1.000000 0.955401
0.564885 1.000000 0.955401
0.826100 1.000000 0.955401
1.000000 1.000000 0.955401
