PhotoStyler/Resources/LUTs/WarmFilm.cube
# Generated by tools/generate_luts.py
# Placeholder starter look - replace with an exported Lightroom LUT.
TITLE "PhotoStyler Warm Film"
LUT_3D_SIZE 33
DOMAIN_MIN 0.0 0.0 0.0
DOMAIN_MAX 1.0 1.0 1.0
0.045535 0.049389 0.044636
0.075040 0.049539 0.044636
0.104951 0.049689 0.044636
0.135267 0.049839 0.044636
0.165990 0.049988 0.044636
0.197118 0.050138 0.044636
0.228652 0.050288 0.044636
0.260591 0.050438 0.044636
0.292937 0.050588 0.044636
0.325688 0.050738 0.044636
0.358845 0.050888 0.044636
0.392408 0.051038 0.044636
0.426376 0.051187 0.044636
0.460750 0.051337 0.044636
0.495530 0.051487 0.044636
0.530407 0.051637 0.044636
0.564885 0.051787 0.044636
0.598957 0.051937 0.044636
0.632623 0.052087 0.044636
0.665884 0.052237 0.044636
0.698739 0.052387 0.044636
0.731188 0.052537 0.044636
0.763231 0.052687 0.044636
0.794869 0.052837 0.044636
0.826100 0.052987 0.044636
0.856926 0.053137 0.044636
0.887346 0.053287 0.044636
0.917361 0.053437 0.044636
0.946970 0.053587 0.044636
0.976172 0.053737 0.044636
1.000000 0.053861 0.044636
1.000000 0.053861 0.044636
1.000000 0.053861 0.044636
0.045535 0.078031 0.044636
0.075040 0.078183 0.044636
0.104951 0.078334 0.044636
0.135267 0.078486 0.044636
0.165990 0.078638 0.044636
0.197118 0.078790 0.044636
0.228652 0.078942 0.044636
0.260591 0.079094 0.044636
0.292937 0.079245 0.044636
0.325688 0.079397 0.044636
0.358845 0.079549 0.044636
0.392408 0.079701 0.044636
0.426376 0.079853 0.044636
0.460750 0.080005 0.044636
0.495530 0.080157 0.044636
0.530407 0.080309 0.044636
0.564885 0.080461 0.044636
0.598957 0.080613 0.044636
0.632623 0.080765 0.044636
0.665884 0.080917 0.044636
0.698739 0.081069 0.044636
0.731188 0.081221 0.044636
0.763231 0.081373 0.044636
0.794869 0.081525 0.044636
0.826100 0.081677 0.044636
0.856926 0.081829 0.044636
0.887346 0.081981 0.044636
0.917361 0.082133 0.044636
0.946970 0.082285 0.044636
0.976172 0.082437 0.044636
1.000000 0.082563 0.044636
1.000000 0.082563 0.044636
1.000000 0.082563 0.044636
0.045535 0.107053 0.044636
0.075040 0.107207 0.044636
0.104951 0.107361 0.044636
0.135267 0.107515 0.044636
0.165990 0.107669 0.044636
0.197118 0.107823 0.044636
0.228652 0.107976 0.044636
0.260591 0.108130 0.044636
0.292937 0.108284 0.044636
0.325688 0.108438 0.044636
0.358845 0.108592 0.044636
0.392408 0.108746 0.044636
0.426376 0.108900 0.044636
0.460750 0.109054 0.044636
0.495530 0.109208 0.044636
0.530407 0.109362 0.044636
0.564885 0.109516 0.044636
0.598957 0.109670 0.044636
0.632623 0.109823 0.044636
0.665884 0.109977 0.044636
0.698739 0.110131 0.044636
0.731188 0.110285 0.044636
0.763231 0.110440 0.044636
0.794869 0.110594 0.044636
0.826100 0.110748 0.044636
0.856926 0.110902 0.044636
0.887346 0.111056 0.044636
0.917361 0.111210 0.044636
0.946970 0.111364 0.044636
0.976172 0.111518 0.044636
1.000000 0.111645 0.044636
1.000000 0.111645 0.044636
1.000000 0.111645 0.044636
0.045535 0.136457 0.044636
0.075040 0.136613 0.044636
0.104951 0.136769 0.044636
0.135267 0.136925 0.044636
0.165990 0.137081 0.044636
0.197118 0.137236 0.044636
0.228652 0.137392 0.044636
0.260591 0.137548 0.044636
0.292937 0.137704 0.044636
0.325688 0.137860 0.044636
0.358845 0.138016 0.044636
0.392408 0.138172 0.044636
0.426376 0.138328 0.044636
0.460750 0.138484 0.044636
0.495530 0.138640 0.044636
0.530407 0.138795 0.044636
0.564885 0.138951 0.044636
0.598957 0.139107 0.044636
0.632623 0.139263 0.044636
0.665884 0.139419 0.044636
0.698739 0.139575 0.044636
0.731188 0.139731 0.044636
0.763231 0.139887 0.044636
0.794869 0.140043 0.044636
0.826100 0.140200 0.044636
0.856926 0.140356 0.044636
0.887346 0.140512 0.044636
0.917361 0.140668 0.044636
0.946970 0.140824 0.044636
0.976172 0.140980 0.044636
1.000000 0.141109 0.044636
1.000000 0.141109 0.044636
1.000000 0.141109 0.044636
0.045535 0.166242 0.044636
0.075040 0.166400 0.044636
0.104951 0.166558 0.044636
0.135267 0.166716 0.044636
0.165990 0.166873 0.044636
0.197118 0.167031 0.044636
0.228652 0.167189 0.044636
0.260591 0.167347 0.044636
0.292937 0.167505 0.044636
0.325688 0.167663 0.044636
0.358845 0.167821 0.044636
0.392408 0.167979 0.044636
0.426376 0.168137 0.044636
0.460750 0.168295 0.044636
0.495530 0.168453 0.044636
0.530407 0.168610 0.044636
0.564885 0.168768 0.044636
0.598957 0.168926 0.044636
0.632623 0.169084 0.044636
0.665884 0.169242 0.044636
0.698739 0.169400 0.044636
0.731188 0.169558 0.044636
0.763231 0.169717 0.044636
0.794869 0.169875 0.044636
0.826100 0.170033 0.044636
0.856926 0.170191 0.044636
0.887346 0.170349 0.044636
0.917361 0.170507 0.044636
0.946970 0.170665 0.044636
0.976172 0.170823 0.044636
1.000000 0.170954 0.044636
1.000000 0.170954 0.044636
1.000000 0.170954 0.044636
0.045535 0.196408 0.044636
0.075040 0.196568 0.044636
0.104951 0.196728 0.044636
0.135267 0.196888 0.044636
0.165990 0.197048 0.044636
0.197118 0.197207 0.044636
0.228652 0.197367 0.044636
0.260591 0.197527 0.044636
0.292937 0.197687 0.044636
0.325688 0.197847 0.044636
0.358845 0.198007 0.044636
0.392408 0.198167 0.044636
0.426376 0.198327 0.044636
0.460750 0.198487 0.044636
0.495530 0.198647 0.044636
0.530407 0.198807 0.044636
0.564885 0.198967 0.044636
0.598957 0.199127 0.044636
0.632623 0.199287 0.044636
0.665884 0.199447 0.044636
0.698739 0.199607 0.044636
0.731188 0.199767 0.044636
0.763231 0.199927 0.044636
0.794869 0.200087 0.044636
0.826100 0.200247 0.044636
0.856926 0.200407 0.044636
0.887346 0.200567 0.044636
0.917361 0.200727 0.044636
0.946970 0.200887 0.044636
0.976172 0.201047 0.044636
1.000000 0.201180 0.044636
1.000000 0.201180 0.044636
1.000000 0.201180 0.044636
0.045535 0.226955 0.044636
0.075040 0.227117 0.044636
0.104951 0.227279 0.044636
0.135267 0.227441 0.044636
0.165990 0.227603 0.044636
0.197118 0.227765 0.044636
0.228652 0.227927 0.044636
0.260591 0.228088 0.044636
0.292937 0.228250 0.044636
0.325688 0.228412 0.044636
0.358845 0.228574 0.044636
0.392408 0.228736 0.044636
0.426376 0.228898 0.044636
0.460750 0.229060 0.044636
0.495530 0.229222 0.044636
0.530407 0.229384 0.044636
0.564885 0.229546 0.044636
0.598957 0.229708 0.044636
0.632623 0.229870 0.044636
0.665884 0.230032 0.044636
0.698739 0.230194 0.044636
0.731188 0.230356 0.044636
0.763231 0.230518 0.044636
0.794869 0.230680 0.044636
0.826100 0.230842 0.044636
0.856926 0.231004 0.044636
0.887346 0.231166 0.044636
0.917361 0.231328 0.044636
0.946970 0.231491 0.044636
0.976172 0.231653 0.044636
1.000000 0.231787 0.044636
1.000000 0.231787 0.044636
1.000000 0.231787 0.044636
0.045535 0.257884 0.044636
0.075040 0.258048 0.044636
0.104951 0.258211 0.044636
0.135267 0.258375 0.044636
0.165990 0.258539 0.044636
0.197118 0.258703 0.044636
0.228652 0.258867 0.044636
0.260591 0.259031 0.044636
0.292937 0.259195 0.044636
0.325688 0.259359 0.044636
0.358845 0.259523 0.044636
0.392408 0.259687 0.044636
0.426376 0.259850 0.044636
0.460750 0.260014 0.044636
0.495530 0.260178 0.044636
0.530407 0.260342 0.044636
0.564885 0.260506 0.044636
0.598957 0.260670 0.044636
0.632623 0.260834 0.044636
0.665884 0.260998 0.044636
0.698739 0.261162 0.044636
0.731188 0.261327 0.044636
0.763231 0.261491 0.044636
0.794869 0.261655 0.044636
0.826100 0.261819 0.044636
0.856926 0.261983 0.044636
0.887346 0.262147 0.044636
0.917361 0.262311 0.044636
0.946970 0.262475 0.044636
0.976172 0.262639 0.044636
1.000000 0.262775 0.044636
1.000000 0.262775 0.044636
1.000000 0.262775 0.044636
0.045535 0.289193 0.044636
0.075040 0.289359 0.044636
0.104951 0.289525 0.044636
0.135267 0.289691 0.044636
0.165990 0.289857 0.044636
0.197118 0.290023 0.044636
0.228652 0.290188 0.044636
0.260591 0.290354 0.044636
0.292937 0.290520 0.044636
0.325688 0.290686 0.044636
0.358845 0.290852 0.044636
0.392408 0.291018 0.044636
0.426376 0.291184 0.044636
0.460750 0.291350 0.044636
0.495530 0.291516 0.044636
0.530407 0.291682 0.044636
0.564885 0.291848 0.044636
0.598957 0.292014 0.044636
0.632623 0.292180 0.044636
0.665884 0.292346 0.044636
0.698739 0.292512 0.044636
0.731188 0.292678 0.044636
0.763231 0.292844 0.044636
0.794869 0.293010 0.044636
0.826100 0.293176 0.044636
0.856926 0.293342 0.044636
0.887346 0.293509 0.044636
0.917361 0.293675 0.044636
0.946970 0.293841 0.044636
0.976172 0.294007 0.044636
1.000000 0.294144 0.044636
1.000000 0.294144 0.044636
1.000000 0.294144 0.044636
0.045535 0.320884 0.044636
0.075040 0.321052 0.044636
0.104951 0.321220 0.044636
0.135267 0.321387 0.044636
0.165990 0.321555 0.044636
0.197118 0.321723 0.044636
0.228652 0.321891 0.044636
0.260591 0.322059 0.044636
0.292937 0.322227 0.044636
0.325688 0.322395 0.044636
0.358845 0.322563 0.044636
0.392408 0.322731 0.044636
0.426376 0.322899 0.044636
0.460750 0.323067 0.044636
0.495530 0.323235 0.044636
0.530407 0.323403 0.044636
0.564885 0.323571 0.044636
0.598957 0.323739 0.044636
0.632623 0.323907 0.044636
0.665884 0.324075 0.044636
0.698739 0.324243 0.044636
0.731188 0.324411 0.044636
0.763231 0.324579 0.044636
0.794869 0.324747 0.044636
0.826100 0.324915 0.044636
0.856926 0.325083 0.044636
0.887346 0.325251 0.044636
0.917361 0.325419 0.044636
0.946970 0.325588 0.044636
0.976172 0.325756 0.044636
1.000000 0.325895 0.044636
1.000000 0.325895 0.044636
1.000000 0.325895 0.044636
0.045535 0.352956 0.044636
0.075040 0.353126 0.044636
0.104951 0.353295 0.044636
0.135267 0.353465 0.044636
0.165990 0.353635 0.044636
0.197118 0.353805 0.044636
0.228652 0.353975 0.044636
0.260591 0.354145 0.044636
0.292937 0.354315 0.044636
0.325688 0.354485 0.044636
0.358845 0.354655 0.044636
0.392408 0.354825 0.044636
0.426376 0.354995 0.044636
0.460750 0.355165 0.044636
0.495530 0.355335 0.044636
0.530407 0.355505 0.044636
0.564885 0.355675 0.044636
0.598957 0.355845 0.044636
0.632623 0.356015 0.044636
0.665884 0.356185 0.044636
0.698739 0.356355 0.044636
0.731188 0.356525 0.044636
0.763231 0.356695 0.044636
0.794869 0.356865 0.044636
0.826100 0.357035 0.044636
0.856926 0.357205 0.044636
0.887346 0.357375 0.044636
0.917361 0.357545 0.044636
0.946970 0.357716 0.044636
0.976172 0.357886 0.044636
1.000000 0.358026 0.044636
1.000000 0.358026 0.044636
1.000000 0.358026 0.044636
0.045535 0.385409 0.044636
0.075040 0.385580 0.044636
0.104951 0.385752 0.044636
0.135267 0.385924 0.044636
0.165990 0.386096 0.044636
0.197118 0.386268 0.044636
0.228652 0.386440 0.044636
0.260591 0.386612 0.044636
0.292937 0.386784 0.044636
0.325688 0.386956 0.044636
0.358845 0.387128 0.044636
0.392408 0.387300 0.044636
0.426376 0.387472 0.044636
0.460750 0.387644 0.044636
0.495530 0.387816 0.044636
0.530407 0.387988 0.044636
0.564885 0.388160 0.044636
0.598957 0.388332 0.044636
0.632623 0.388504 0.044636
0.665884 0.388676 0.044636
0.698739 0.388848 0.044636
0.731188 0.389020 0.044636
0.763231 0.389192 0.044636
0.794869 0.389364 0.044636
0.826100 0.389536 0.044636
0.856926 0.389708 0.044636
0.887346 0.389880 0.044636
0.917361 0.390053 0.044636
0.946970 0.390225 0.044636
0.976172 0.390397 0.044636
1.000000 0.390539 0.044636
1.000000 0.390539 0.044636
1.000000 0.390539 0.044636
0.045535 0.418243 0.044636
0.075040 0.418416 0.044636
0.104951 0.418590 0.044636
0.135267 0.418764 0.044636
0.165990 0.418938 0.044636
0.197118 0.419112 0.044636
0.228652 0.419286 0.044636
0.260591 0.419460 0.044636
0.292937 0.419634 0.044636
0.325688 0.419808 0.044636
0.358845 0.419982 0.044636
0.392408 0.420156 0.044636
0.426376 0.420330 0.044636
0.460750 0.420504 0.044636
0.495530 0.420678 0.044636
0.530407 0.420852 0.044636
0.564885 0.421026 0.044636
0.598957 0.421200 0.044636
0.632623 0.421374 0.044636
0.665884 0.421548 0.044636
0.698739 0.421722 0.044636
0.731188 0.421896 0.044636
0.763231 0.422070 0.044636
0.794869 0.422244 0.044636
0.826100 0.422418 0.044636
0.856926 0.422592 0.044636
0.887346 0.422767 0.044636
0.917361 0.422941 0.044636
0.946970 0.423115 0.044636
0.976172 0.423289 0.044636
1.000000 0.423433 0.044636
1.000000 0.423433 0.044636
1.000000 0.423433 0.044636
0.045535 0.451458 0.044636
0.075040 0.451634 0.044636
0.104951 0.451810 0.044636
0.135267 0.451985 0.044636
0.165990 0.452161 0.044636
0.197118 0.452337 0.044636
0.228652 0.452513 0.044636
0.260591 0.452689 0.044636
0.292937 0.452865 0.044636
0.325688 0.453041 0.044636
0.358845 0.453217 0.044636
0.392408 0.453393 0.044636
0.426376 0.453569 0.044636
0.460750 0.453745 0.044636
0.495530 0.453921 0.044636
0.530407 0.454097 0.044636
0.564885 0.454273 0.044636
0.598957 0.454449 0.044636
0.632623 0.454625 0.044636
0.665884 0.454801 0.044636
0.698739 0.454977 0.044636
0.731188 0.455153 0.044636
0.763231 0.455329 0.044636
0.794869 0.455506 0.044636
0.826100 0.455682 0.044636
0.856926 0.455858 0.044636
0.887346 0.456034 0.044636
0.917361 0.456210 0.044636
0.946970 0.456118 0.044636
0.976172 0.455942 0.044636
1.000000 0.455796 0.044636
1.000000 0.455796 0.044636
1.000000 0.455796 0.044636
0.045535 0.485054 0.044636
0.075040 0.485232 0.044636
0.104951 0.485410 0.044636
0.135267 0.485588 0.044636
0.165990 0.485766 0.044636
0.197118 0.485944 0.044636
0.228652 0.486122 0.044636
0.260591 0.486299 0.044636
0.292937 0.486477 0.044636
0.325688 0.486655 0.044636
0.358845 0.486833 0.044636
0.392408 0.487011 0.044636
0.426376 0.487189 0.044636
0.460750 0.487367 0.044636
0.495530 0.487545 0.044636
0.530407 0.487723 0.044636
0.564885 0.487901 0.044636
0.598957 0.488080 0.044636
0.632623 0.488258 0.044636
0.665884 0.488436 0.044636
0.698739 0.488614 0.044636
0.731188 0.488792 0.044636
0.763231 0.488970 0.044636
0.794869 0.489148 0.044636
0.826100 0.489326 0.044636
0.856926 0.489160 0.044636
0.887346 0.488982 0.044636
0.917361 0.488804 0.044636
0.946970 0.488626 0.044636
0.976172 0.488448 0.044636
1.000000 0.488301 0.044636
1.000000 0.488301 0.044636
1.000000 0.488301 0.044636
0.045535 0.518913 0.044636
0.075040 0.519090 0.044636
0.104951 0.519268 0.044636
0.135267 0.519445 0.044636
0.165990 0.519623 0.044636
0.197118 0.519801 0.044636
0.228652 0.519978 0.044636
0.260591 0.520156 0.044636
0.292937 0.520333 0.044636
0.325688 0.520511 0.044636
0.358845 0.520688 0.044636
0.392408 0.520866 0.044636
0.426376 0.521043 0.044636
0.460750 0.521221 0.044636
0.495530 0.521399 0.044636
0.530407 0.521576 0.044636
0.564885 0.521753 0.044636
0.598957 0.521931 0.044636
0.632623 0.522108 0.044636
0.665884 0.522286 0.044636
0.698739 0.522463 0.044636
0.731188 0.522580 0.044636
0.763231 0.522402 0.044636
0.794869 0.522225 0.044636
0.826100 0.522047 0.044636
0.856926 0.521870 0.044636
0.887346 0.521693 0.044636
0.917361 0.521515 0.044636
0.946970 0.521338 0.044636
0.976172 0.521160 0.044636
1.000000 0.521013 0.044636
1.000000 0.521013 0.044636
1.000000 0.521013 0.044636
0.045535 0.552464 0.044636
0.075040 0.552640 0.044636
0.104951 0.552815 0.044636
0.135267 0.552991 0.044636
0.165990 0.553167 0.044636
0.197118 0.553342 0.044636
0.228652 0.553518 0.044636
0.260591 0.553693 0.044636
0.292937 0.553869 0.044636
0.325688 0.554044 0.044636
0.358845 0.554220 0.044636
0.392408 0.554395 0.044636
0.426376 0.554571 0.044636
0.460750 0.554746 0.044636
0.495530 0.554922 0.044636
0.530407 0.555097 0.044636
0.564885 0.555273 0.044636
0.598957 0.555448 0.044636
0.632623 0.555492 0.044636
0.665884 0.555316 0.044636
0.698739 0.555141 0.044636
0.731188 0.554965 0.044636
0.763231 0.554790 0.044636
0.794869 0.554614 0.044636
0.826100 0.554439 0.044636
0.856926 0.554263 0.044636
0.887346 0.554088 0.044636
0.917361 0.553912 0.044636
0.946970 0.553736 0.044636
0.976172 0.553561 0.044636
1.000000 0.553416 0.044636
1.000000 0.553416 0.044636
1.000000 0.553416 0.044636
0.045535 0.585635 0.044636
0.075040 0.585808 0.044636
0.104951 0.585982 0.044636
0.135267 0.586155 0.044636
0.165990 0.586329 0.044636
0.197118 0.586503 0.044636
0.228652 0.586676 0.044636
0.260591 0.586850 0.044636
0.292937 0.587023 0.044636
0.325688 0.587197 0.044636
0.358845 0.587370 0.044636
0.392408 0.587544 0.044636
0.426376 0.587717 0.044636
0.460750 0.587891 0.044636
0.495530 0.588064 0.044636
0.530407 0.588036 0.044636
0.564885 0.587862 0.044636
0.598957 0.587689 0.044636
0.632623 0.587515 0.044636
0.665884 0.587342 0.044636
0.698739 0.587168 0.044636
0.731188 0.586995 0.044636
0.763231 0.586821 0.044636
0.794869 0.586648 0.044636
0.826100 0.586474 0.044636
0.856926 0.586300 0.044636
0.887346 0.586127 0.044636
0.917361 0.585953 0.044636
0.946970 0.585780 0.044636
0.976172 0.585606 0.044636
1.000000 0.585462 0.044636
1.000000 0.585462 0.044636
1.000000 0.585462 0.044636
0.045535 0.618424 0.044636
0.075040 0.618595 0.044636
0.104951 0.618767 0.044636
0.135267 0.618939 0.044636
0.165990 0.619110 0.044636
0.197118 0.619282 0.044636
0.228652 0.619453 0.044636
0.260591 0.619625 0.044636
0.292937 0.619796 0.044636
0.325688 0.619968 0.044636
0.358845 0.620139 0.044636
0.392408 0.620311 0.044636
0.426376 0.620212 0.044636
0.460750 0.620041 0.044636
0.495530 0.619869 0.044636
0.530407 0.619698 0.044636
0.564885 0.619526 0.044636
0.598957 0.619355 0.044636
0.632623 0.619183 0.044636
0.665884 0.619011 0.044636
0.698739 0.618840 0.044636
0.731188 0.618668 0.044636
0.763231 0.618497 0.044636
0.794869 0.618325 0.044636
0.826100 0.618153 0.044636
0.856926 0.617982 0.044636
0.887346 0.617810 0.044636
0.917361 0.617638 0.044636
0.946970 0.617467 0.044636
0.976172 0.617295 0.044636
1.000000 0.617153 0.044636
1.000000 0.617153 0.044636
1.000000 0.617153 0.044636
0.045535 0.650832 0.044636
0.075040 0.651002 0.044636
0.104951 0.651171 0.044636
0.135267 0.651341 0.044636
0.165990 0.651510 0.044636
0.197118 0.651680 0.044636
0.228652 0.651849 0.044636
0.260591 0.652019 0.044636
0.292937 0.652189 0.044636
0.325688 0.652021 0.044636
0.358845 0.651852 0.044636
0.392408 0.651682 0.044636
0.426376 0.651513 0.044636
0.460750 0.651343 0.044636
0.495530 0.651173 0.044636
0.530407 0.651004 0.044636
0.564885 0.650834 0.044636
0.598957 0.650665 0.044636
0.632623 0.650495 0.044636
0.665884 0.650325 0.044636
0.698739 0.650156 0.044636
0.731188 0.649986 0.044636
0.763231 0.649816 0.044636
0.794869 0.649647 0.044636
0.826100 0.649477 0.044636
0.856926 0.649307 0.044636
0.887346 0.649138 0.044636
0.917361 0.648968 0.044636
0.946970 0.648798 0.044636
0.976172 0.648628 0.044636
1.000000 0.648488 0.044636
1.000000 0.648488 0.044636
1.000000 0.648488 0.044636
0.045535 0.682859 0.044636
0.075040 0.683027 0.044636
0.104951 0.683194 0.044636
0.135267 0.683362 0.044636
0.165990 0.683529 0.044636
0.197118 0.683630 0.044636
0.228652 0.683463 0.044636
0.260591 0.683295 0.044636
0.292937 0.683128 0.044636
0.325688 0.682960 0.044636
0.358845 0.682792 0.044636
0.392408 0.682625 0.044636
0.426376 0.682457 0.044636
0.460750 0.682289 0.044636
0.495530 0.682122 0.044636
0.530407 0.681954 0.044636
0.564885 0.681787 0.044636
0.598957 0.681619 0.044636
0.632623 0.681451 0.044636
0.665884 0.681283 0.044636
0.698739 0.681116 0.044636
0.731188 0.680948 0.044636
0.763231 0.680780 0.044636
0.794869 0.680613 0.044636
0.826100 0.680445 0.044636
0.856926 0.680277 0.044636
0.887346 0.680109 0.044636
0.917361 0.679941 0.044636
0.946970 0.679774 0.044636
0.976172 0.679606 0.044636
1.000000 0.679467 0.044636
1.000000 0.679467 0.044636
1.000000 0.679467 0.044636
0.045535 0.714505 0.044636
0.075040 0.714670 0.044636
0.104951 0.714702 0.044636
0.135267 0.714537 0.044636
0.165990 0.714371 0.044636
0.197118 0.714205 0.044636
0.228652 0.714040 0.044636
0.260591 0.713874 0.044636
0.292937 0.713708 0.044636
0.325688 0.713543 0.044636
0.358845 0.713377 0.044636
0.392408 0.713211 0.044636
0.426376 0.713046 0.044636
0.460750 0.712880 0.044636
0.495530 0.712714 0.044636
0.530407 0.712549 0.044636
0.564885 0.712383 0.044636
0.598957 0.712217 0.044636
0.632623 0.712051 0.044636
0.665884 0.711886 0.044636
0.698739 0.711720 0.044636
0.731188 0.711554 0.044636
0.763231 0.711388 0.044636
0.794869 0.711223 0.044636
0.826100 0.711057 0.044636
0.856926 0.710891 0.044636
0.887346 0.710725 0.044636
0.917361 0.710559 0.044636
0.946970 0.710393 0.044636
0.976172 0.710227 0.044636
1.000000 0.710090 0.044636
1.000000 0.710090 0.044636
1.000000 0.710090 0.044636
0.045535 0.745243 0.044636
0.075040 0.745079 0.044636
0.104951 0.744916 0.044636
0.135267 0.744752 0.044636
0.165990 0.744588 0.044636
0.197118 0.744425 0.044636
0.228652 0.744261 0.044636
0.260591 0.744097 0.044636
0.292937 0.743934 0.044636
0.325688 0.743770 0.044636
0.358845 0.743606 0.044636
0.392408 0.743442 0.044636
0.426376 0.743279 0.044636
0.460750 0.743115 0.044636
0.495530 0.742951 0.044636
0.530407 0.742787 0.044636
0.564885 0.742623 0.044636
0.598957 0.742460 0.044636
0.632623 0.742296 0.044636
0.665884 0.742132 0.044636
0.698739 0.741968 0.044636
0.731188 0.741804 0.044636
0.763231 0.741641 0.044636
0.794869 0.741477 0.044636
0.826100 0.741313 0.044636
0.856926 0.741149 0.044636
0.887346 0.740985 0.044636
0.917361 0.740821 0.044636
0.946970 0.740657 0.044636
0.976172 0.740493 0.044636
1.000000 0.740358 0.044636
1.000000 0.740358 0.044636
1.000000 0.740358 0.044636
0.045535 0.775097 0.044636
0.075040 0.774935 0.044636
0.104951 0.774773 0.044636
0.135267 0.774611 0.044636
0.165990 0.774450 0.044636
0.197118 0.774288 0.044636
0.228652 0.774126 0.044636
0.260591 0.773964 0.044636
0.292937 0.773803 0.044636
0.325688 0.773641 0.044636
0.358845 0.773479 0.044636
0.392408 0.773317 0.044636
0.426376 0.773156 0.044636
0.460750 0.772994 0.044636
0.495530 0.772832 0.044636
0.530407 0.772670 0.044636
0.564885 0.772508 0.044636
0.598957 0.772346 0.044636
0.632623 0.772184 0.044636
0.665884 0.772023 0.044636
0.698739 0.771861 0.044636
0.731188 0.771699 0.044636
0.763231 0.771537 0.044636
0.794869 0.771375 0.044636
0.826100 0.771213 0.044636
0.856926 0.771051 0.044636
0.887346 0.770889 0.044636
0.917361 0.770727 0.044636
0.946970 0.770565 0.044636
0.976172 0.770403 0.044636
1.000000 0.770269 0.044636
1.000000 0.770269 0.044636
1.000000 0.770269 0.044636
0.045535 0.804594 0.044636
0.075040 0.804435 0.044636
0.104951 0.804275 0.044636
0.135267 0.804115 0.044636
0.165990 0.803955 0.044636
0.197118 0.803796 0.044636
0.228652 0.803636 0.044636
0.260591 0.803476 0.044636
0.292937 0.803316 0.044636
0.325688 0.803156 0.044636
0.358845 0.802996 0.044636
0.392408 0.802837 0.044636
0.426376 0.802677 0.044636
0.460750 0.802517 0.044636
0.495530 0.802357 0.044636
0.530407 0.802197 0.044636
0.564885 0.802037 0.044636
0.598957 0.801877 0.044636
0.632623 0.801717 0.044636
0.665884 0.801557 0.044636
0.698739 0.801397 0.044636
0.731188 0.801237 0.044636
0.763231 0.801077 0.044636
0.794869 0.800917 0.044636
0.826100 0.800757 0.044636
0.856926 0.800597 0.044636
0.887346 0.800437 0.044636
0.917361 0.800277 0.044636
0.946970 0.800117 0.044636
0.976172 0.799957 0.044636
1.000000 0.799825 0.044636
1.000000 0.799825 0.044636
1.000000 0.799825 0.044636
0.045535 0.833736 0.044636
0.075040 0.833579 0.044636
0.104951 0.833421 0.044636
0.135267 0.833263 0.044636
0.165990 0.833105 0.044636
0.197118 0.832947 0.044636
0.228652 0.832789 0.044636
0.260591 0.832631 0.044636
0.292937 0.832474 0.044636
0.325688 0.832316 0.044636
0.358845 0.832158 0.044636
0.392408 0.832000 0.044636
0.426376 0.831842 0.044636
0.460750 0.831684 0.044636
0.495530 0.831526 0.044636
0.530407 0.831368 0.044636
0.564885 0.831210 0.044636
0.598957 0.831052 0.044636
0.632623 0.830894 0.044636
0.665884 0.830736 0.044636
0.698739 0.830578 0.044636
0.731188 0.830420 0.044636
0.763231 0.830262 0.044636
0.794869 0.830104 0.044636
0.826100 0.829946 0.044636
0.856926 0.829788 0.044636
0.887346 0.829630 0.044636
0.917361 0.829472 0.044636
0.946970 0.829314 0.044636
0.976172 0.829155 0.044636
1.000000 0.829025 0.044636
1.000000 0.829025 0.044636
1.000000 0.829025 0.044636
0.045535 0.862523 0.044636
0.075040 0.862367 0.044636
0.104951 0.862211 0.044636
0.135267 0.862055 0.044636
0.165990 0.861899 0.044636
0.197118 0.861743 0.044636
0.228652 0.861587 0.044636
0.260591 0.861431 0.044636
0.292937 0.861275 0.044636
0.325688 0.861119 0.044636
0.358845 0.860963 0.044636
0.392408 0.860807 0.044636
0.426376 0.860651 0.044636
0.460750 0.860495 0.044636
0.495530 0.860339 0.044636
0.530407 0.860183 0.044636
0.564885 0.860027 0.044636
0.598957 0.859871 0.044636
0.632623 0.859715 0.044636
0.665884 0.859559 0.044636
0.698739 0.859403 0.044636
0.731188 0.859247 0.044636
0.763231 0.859091 0.044636
