PhotoStyler/Resources/LUTs/WarmFilm.cube
# Generated by tools/generate_luts.py
# Placeholder starter look - replace with an exported Lightroom LUT.
TITLE "PhotoStyler Warm Film"
LUT_3D_SIZE 9
DOMAIN_MIN 0.0 0.0 0.0
DOMAIN_MAX 1.0 1.0 1.0
0.045535 0.049389 0.044636
0.165990 0.049988 0.044636
0.292937 0.050588 0.044636
0.426376 0.051187 0.044636
0.564885 0.051787 0.044636
0.698739 0.052387 0.044636
0.826100 0.052987 0.044636
0.946970 0.053587 0.044636
1.000000 0.053861 0.044636
0.045535 0.166242 0.044636
0.165990 0.166873 0.044636
0.292937 0.167505 0.044636
0.426376 0.168137 0.044636
0.564885 0.168768 0.044636
0.698739 0.169400 0.044636
0.826100 0.170033 0.044636
0.946970 0.170665 0.044636
1.000000 0.170954 0.044636
0.045535 0.289193 0.044636
0.165990 0.289857 0.044636
0.292937 0.290520 0.044636
0.426376 0.291184 0.044636
0.564885 0.291848 0.044636
0.698739 0.292512 0.044636
0.826100 0.293176 0.044636
0.946970 0.293841 0.044636
1.000000 0.294144 0.044636
0.045535 0.418243 0.044636
0.165990 0.418938 0.044636
0.292937 0.419634 0.044636
0.426376 0.420330 0.044636
0.564885 0.421026 0.044636
0.698739 0.421722 0.044636
0.826100 0.422418 0.044636
0.946970 0.423115 0.044636
1.000000 0.423433 0.044636
0.045535 0.552464 0.044636
0.165990 0.553167 0.044636
0.292937 0.553869 0.044636
0.426376 0.554571 0.044636
0.564885 0.555273 0.044636
0.698739 0.555141 0.044636
0.826100 0.554439 0.044636
0.946970 0.553736 0.044636
1.000000 0.553416 0.044636
0.045535 0.682859 0.044636
0.165990 0.683529 0.044636
0.292937 0.683128 0.044636
0.426376 0.682457 0.044636
0.564885 0.681787 0.044636
0.698739 0.681116 0.044636
0.826100 0.680445 0.044636
0.946970 0.679774 0.044636
1.000000 0.679467 0.044636
0.045535 0.804594 0.044636
0.165990 0.803955 0.044636
0.292937 0.803316 0.044636
0.426376 0.802677 0.044636
0.564885 0.802037 0.044636
0.698739 0.801397 0.044636
0.826100 0.800757 0.044636
0.946970 0.800117 0.044636
1.000000 0.799825 0.044636
0.045535 0.919027 0.044636
0.165990 0.918419 0.044636
0.292937 0.917811 0.044636
0.426376 0.917203 0.044636
0.564885 0.916594 0.044636
0.698739 0.915985 0.044636
0.826100 0.915376 0.044636
0.946970 0.914767 0.044636
1.000000 0.914489 0.044636
0.045535 1.000000 0.044636
0.165990 1.000000 0.044636
0.292937 1.000000 0.044636
0.426376 1.000000 0.044636
0.564885 1.000000 0.044636
0.698739 1.000000 0.044636
0.826100 1.000000 0.044636
0.946970 1.000000 0.044636
1.000000 1.000000 0.044636
0.045535 0.049570 0.152356
0.165990 0.050169 0.152356
0.292937 0.050768 0.152356
0.426376 0.051368 0.152356
0.564885 0.051968 0.152356
0.698739 0.052568 0.152356
0.826100 0.053168 0.152356
0.946970 0.053768 0.152356
1.000000 0.054042 0.152356
0.045535 0.166432 0.152356
0.165990 0.167064 0.152356
0.292937 0.167695 0.152356
0.426376 0.168327 0.152356
0.564885 0.168959 0.152356
0.698739 0.169591 0.152356
0.826100 0.170223 0.152356
0.946970 0.170855 0.152356
1.000000 0.171144 0.152356
0.045535 0.289393 0.152356
0.165990 0.290057 0.152356
0.292937 0.290720 0.152356
0.426376 0.291384 0.152356
0.564885 0.292048 0.152356
0.698739 0.292712 0.152356
0.826100 0.293376 0.152356
0.946970 0.294041 0.152356
1.000000 0.294344 0.152356
0.045535 0.418452 0.152356
0.165990 0.419148 0.152356
0.292937 0.419843 0.152356
0.426376 0.420539 0.152356
0.564885 0.421235 0.152356
0.698739 0.421932 0.152356
0.826100 0.422628 0.152356
0.946970 0.423325 0.152356
1.000000 0.423438 0.152356
0.045535 0.552676 0.152356
0.165990 0.553378 0.152356
0.292937 0.554080 0.152356
0.426376 0.554782 0.152356
0.564885 0.555484 0.152356
0.698739 0.554929 0.152356
0.826100 0.554227 0.152356
0.946970 0.553525 0.152356
1.000000 0.553204 0.152356
0.045535 0.683061 0.152356
0.165990 0.683596 0.152356
0.292937 0.682926 0.152356
0.426376 0.682255 0.152356
0.564885 0.681585 0.152356
0.698739 0.680914 0.152356
0.826100 0.680243 0.152356
0.946970 0.679572 0.152356
1.000000 0.679265 0.152356
0.045535 0.804402 0.152356
0.165990 0.803763 0.152356
0.292937 0.803124 0.152356
0.426376 0.802484 0.152356
0.564885 0.801844 0.152356
0.698739 0.801205 0.152356
0.826100 0.800565 0.152356
0.946970 0.799924 0.152356
1.000000 0.799632 0.152356
0.045535 0.918844 0.152356
0.165990 0.918236 0.152356
0.292937 0.917628 0.152356
0.426376 0.917019 0.152356
0.564885 0.916411 0.152356
0.698739 0.915802 0.152356
0.826100 0.915193 0.152356
0.946970 0.914584 0.152356
1.000000 0.914306 0.152356
0.045535 1.000000 0.152356
0.165990 1.000000 0.152356
0.292937 1.000000 0.152356
0.426376 1.000000 0.152356
0.564885 1.000000 0.152356
0.698739 1.000000 0.152356
0.826100 1.000000 0.152356
0.946970 1.000000 0.152356
1.000000 1.000000 0.152356
0.045535 0.049750 0.264160
0.165990 0.050349 0.264160
0.292937 0.050949 0.264160
0.426376 0.051549 0.264160
0.564885 0.052148 0.264160
0.698739 0.052748 0.264160
0.826100 0.053349 0.264160
0.946970 0.053949 0.264160
1.000000 0.054223 0.264160
0.045535 0.166622 0.264160
0.165990 0.167254 0.264160
0.292937 0.167885 0.264160
0.426376 0.168517 0.264160
0.564885 0.169149 0.264160
0.698739 0.169781 0.264160
0.826100 0.170413 0.264160
0.946970 0.171046 0.264160
1.000000 0.171335 0.264160
0.045535 0.289593 0.264160
0.165990 0.290256 0.264160
0.292937 0.290920 0.264160
0.426376 0.291584 0.264160
0.564885 0.292248 0.264160
0.698739 0.292912 0.264160
0.826100 0.293577 0.264160
0.946970 0.294241 0.264160
1.000000 0.294545 0.264160
0.045535 0.418662 0.264160
0.165990 0.419357 0.264160
0.292937 0.420053 0.264160
0.426376 0.420749 0.264160
0.564885 0.421445 0.264160
0.698739 0.422141 0.264160
0.826100 0.422838 0.264160
0.946970 0.423535 0.264160
1.000000 0.423229 0.264160
0.045535 0.552887 0.264160
0.165990 0.553590 0.264160
0.292937 0.554292 0.264160
0.426376 0.554994 0.264160
0.564885 0.555420 0.264160
0.698739 0.554718 0.264160
0.826100 0.554016 0.264160
0.946970 0.553313 0.264160
1.000000 0.552993 0.264160
0.045535 0.683263 0.264160
0.165990 0.683394 0.264160
0.292937 0.682724 0.264160
0.426376 0.682053 0.264160
0.564885 0.681383 0.264160
0.698739 0.680712 0.264160
0.826100 0.680041 0.264160
0.946970 0.679369 0.264160
1.000000 0.679063 0.264160
0.045535 0.804210 0.264160
0.165990 0.803570 0.264160
0.292937 0.802931 0.264160
0.426376 0.802291 0.264160
0.564885 0.801652 0.264160
0.698739 0.801012 0.264160
0.826100 0.800372 0.264160
0.946970 0.799732 0.264160
1.000000 0.799439 0.264160
0.045535 0.918661 0.264160
0.165990 0.918053 0.264160
0.292937 0.917445 0.264160
0.426376 0.916836 0.264160
0.564885 0.916227 0.264160
0.698739 0.915619 0.264160
0.826100 0.915010 0.264160
0.946970 0.914400 0.264160
1.000000 0.914122 0.264160
0.045535 1.000000 0.264160
0.165990 1.000000 0.264160
0.292937 1.000000 0.264160
0.426376 1.000000 0.264160
0.564885 1.000000 0.264160
0.698739 1.000000 0.264160
0.826100 1.000000 0.264160
0.946970 1.000000 0.264160
1.000000 1.000000 0.264160
0.045535 0.049931 0.380049
0.165990 0.050530 0.380049
0.292937 0.051130 0.380049
0.426376 0.051729 0.380049
0.564885 0.052329 0.380049
0.698739 0.052929 0.380049
0.826100 0.053529 0.380049
0.946970 0.054130 0.380049
1.000000 0.054404 0.380049
0.045535 0.166813 0.380049
0.165990 0.167444 0.380049
0.292937 0.168076 0.380049
0.426376 0.168707 0.380049
0.564885 0.169339 0.380049
0.698739 0.169972 0.380049
0.826100 0.170604 0.380049
0.946970 0.171236 0.380049
1.000000 0.171525 0.380049
0.045535 0.289793 0.380049
0.165990 0.290456 0.380049
0.292937 0.291120 0.380049
0.426376 0.291784 0.380049
0.564885 0.292448 0.380049
0.698739 0.293112 0.380049
0.826100 0.293777 0.380049
0.946970 0.294441 0.380049
1.000000 0.294745 0.380049
0.045535 0.418871 0.380049
0.165990 0.419567 0.380049
0.292937 0.420263 0.380049
0.426376 0.420959 0.380049
0.564885 0.421655 0.380049
0.698739 0.422351 0.380049
0.826100 0.423048 0.380049
0.946970 0.423337 0.380049
1.000000 0.423019 0.380049
0.045535 0.553099 0.380049
0.165990 0.553801 0.380049
0.292937 0.554503 0.380049
0.426376 0.555205 0.380049
0.564885 0.555208 0.380049
0.698739 0.554506 0.380049
0.826100 0.553804 0.380049
0.946970 0.553102 0.380049
1.000000 0.552781 0.380049
0.045535 0.683465 0.380049
0.165990 0.683192 0.380049
0.292937 0.682522 0.380049
0.426376 0.681851 0.380049
0.564885 0.681180 0.380049
0.698739 0.680510 0.380049
0.826100 0.679838 0.380049
0.946970 0.679167 0.380049
1.000000 0.678861 0.380049
0.045535 0.804017 0.380049
0.165990 0.803378 0.380049
0.292937 0.802738 0.380049
0.426376 0.802099 0.380049
0.564885 0.801459 0.380049
0.698739 0.800819 0.380049
0.826100 0.800179 0.380049
0.946970 0.799539 0.380049
1.000000 0.799246 0.380049
0.045535 0.918478 0.380049
0.165990 0.917870 0.380049
0.292937 0.917261 0.380049
0.426376 0.916653 0.380049
0.564885 0.916044 0.380049
0.698739 0.915435 0.380049
0.826100 0.914826 0.380049
0.946970 0.914217 0.380049
1.000000 0.913939 0.380049
0.045535 1.000000 0.380049
0.165990 1.000000 0.380049
0.292937 1.000000 0.380049
0.426376 1.000000 0.380049
0.564885 1.000000 0.380049
0.698739 1.000000 0.380049
0.826100 1.000000 0.380049
0.946970 1.000000 0.380049
1.000000 1.000000 0.380049
0.045535 0.050111 0.500022
0.165990 0.050711 0.500022
0.292937 0.051310 0.500022
0.426376 0.051910 0.500022
0.564885 0.052510 0.500022
0.698739 0.053110 0.500022
0.826100 0.053710 0.500022
0.946970 0.054311 0.500022
1.000000 0.054585 0.500022
0.045535 0.167003 0.500022
0.165990 0.167634 0.500022
0.292937 0.168266 0.500022
0.426376 0.168898 0.500022
0.564885 0.169530 0.500022
0.698739 0.170162 0.500022
0.826100 0.170794 0.500022
0.946970 0.171427 0.500022
1.000000 0.171716 0.500022
0.045535 0.289992 0.500022
0.165990 0.290656 0.500022
0.292937 0.291320 0.500022
0.426376 0.291984 0.500022
0.564885 0.292648 0.500022
0.698739 0.293312 0.500022
0.826100 0.293977 0.500022
0.946970 0.294641 0.500022
1.000000 0.294945 0.500022
0.045535 0.419080 0.500022
0.165990 0.419776 0.500022
0.292937 0.420472 0.500022
0.426376 0.421168 0.500022
0.564885 0.421864 0.500022
0.698739 0.422561 0.500022
0.826100 0.423257 0.500022
0.946970 0.423127 0.500022
1.000000 0.422809 0.500022
0.045535 0.553310 0.500022
0.165990 0.554013 0.500022
0.292937 0.554715 0.500022
0.426376 0.555417 0.500022
0.564885 0.554997 0.500022
0.698739 0.554295 0.500022
0.826100 0.553593 0.500022
0.946970 0.552890 0.500022
1.000000 0.552570 0.500022
0.045535 0.683661 0.500022
0.165990 0.682990 0.500022
0.292937 0.682320 0.500022
0.426376 0.681649 0.500022
0.564885 0.680978 0.500022
0.698739 0.680307 0.500022
0.826100 0.679636 0.500022
0.946970 0.678965 0.500022
1.000000 0.678658 0.500022
0.045535 0.803825 0.500022
0.165990 0.803185 0.500022
0.292937 0.802546 0.500022
0.426376 0.801906 0.500022
0.564885 0.801266 0.500022
0.698739 0.800626 0.500022
0.826100 0.799986 0.500022
0.946970 0.799346 0.500022
1.000000 0.799054 0.500022
0.045535 0.918295 0.500022
0.165990 0.917687 0.500022
0.292937 0.917078 0.500022
0.426376 0.916470 0.500022
0.564885 0.915861 0.500022
0.698739 0.915252 0.500022
0.826100 0.914643 0.500022
0.946970 0.914033 0.500022
1.000000 0.913755 0.500022
0.045535 1.000000 0.500022
0.165990 1.000000 0.500022
0.292937 1.000000 0.500022
0.426376 1.000000 0.500022
0.564885 1.000000 0.500022
0.698739 1.000000 0.500022
0.826100 1.000000 0.500022
0.946970 1.000000 0.500022
1.000000 1.000000 0.500022
0.045535 0.050292 0.619993
0.165990 0.050891 0.619993
0.292937 0.051491 0.619993
0.426376 0.052091 0.619993
0.564885 0.052691 0.619993
0.698739 0.053291 0.619993
0.826100 0.053891 0.619993
0.946970 0.054492 0.619993
1.000000 0.054766 0.619993
0.045535 0.167193 0.619993
0.165990 0.167824 0.619993
0.292937 0.168456 0.619993
0.426376 0.169088 0.619993
0.564885 0.169720 0.619993
0.698739 0.170352 0.619993
0.826100 0.170985 0.619993
0.946970 0.171617 0.619993
1.000000 0.171906 0.619993
0.045535 0.290192 0.619993
0.165990 0.290856 0.619993
0.292937 0.291520 0.619993
0.426376 0.292184 0.619993
0.564885 0.292848 0.619993
0.698739 0.293512 0.619993
0.826100 0.294177 0.619993
0.946970 0.294842 0.619993
1.000000 0.295145 0.619993
0.045535 0.419290 0.619993
0.165990 0.419986 0.619993
0.292937 0.420682 0.619993
0.426376 0.421378 0.619993
0.564885 0.422074 0.619993
0.698739 0.422771 0.619993
0.826100 0.423467 0.619993
0.946970 0.422917 0.619993
1.000000 0.422599 0.619993
0.045535 0.553522 0.619993
0.165990 0.554224 0.619993
0.292937 0.554926 0.619993
0.426376 0.555487 0.619993
0.564885 0.554786 0.619993
0.698739 0.554084 0.619993
0.826100 0.553381 0.619993
0.946970 0.552679 0.619993
1.000000 0.552358 0.619993
0.045535 0.683459 0.619993
0.165990 0.682788 0.619993
0.292937 0.682118 0.619993
0.426376 0.681447 0.619993
0.564885 0.680776 0.619993
0.698739 0.680105 0.619993
0.826100 0.679434 0.619993
0.946970 0.678763 0.619993
1.000000 0.678456 0.619993
0.045535 0.803632 0.619993
0.165990 0.802993 0.619993
0.292937 0.802353 0.619993
0.426376 0.801714 0.619993
0.564885 0.801074 0.619993
0.698739 0.800434 0.619993
0.826100 0.799793 0.619993
0.946970 0.799153 0.619993
1.000000 0.798861 0.619993
0.045535 0.918112 0.619993
0.165990 0.917503 0.619993
0.292937 0.916895 0.619993
0.426376 0.916286 0.619993
0.564885 0.915677 0.619993
0.698739 0.915068 0.619993
0.826100 0.914459 0.619993
0.946970 0.913850 0.619993
1.000000 0.913572 0.619993
0.045535 1.000000 0.619993
0.165990 1.000000 0.619993
0.292937 1.000000 0.619993
0.426376 1.000000 0.619993
0.564885 1.000000 0.619993
0.698739 1.000000 0.619993
0.826100 1.000000 0.619993
0.946970 1.000000 0.619993
1.000000 1.000000 0.619993
0.045535 0.050472 0.735880
0.165990 0.051072 0.735880
0.292937 0.051671 0.735880
0.426376 0.052271 0.735880
0.564885 0.052871 0.735880
0.698739 0.053471 0.735880
0.826100 0.054072 0.735880
0.946970 0.054672 0.735880
1.000000 0.054947 0.735880
0.045535 0.167383 0.735880
0.165990 0.168015 0.735880
0.292937 0.168646 0.735880
0.426376 0.169278 0.735880
0.564885 0.169911 0.735880
0.698739 0.170543 0.735880
0.826100 0.171175 0.735880
0.946970 0.171808 0.735880
1.000000 0.172097 0.735880
0.045535 0.290392 0.735880
0.165990 0.291056 0.735880
0.292937 0.291720 0.735880
0.426376 0.292384 0.735880
0.564885 0.293048 0.735880
0.698739 0.293713 0.735880
0.826100 0.294377 0.735880
0.946970 0.295042 0.735880
1.000000 0.295345 0.735880
0.045535 0.419500 0.735880
0.165990 0.420195 0.735880
0.292937 0.420891 0.735880
0.426376 0.421588 0.735880
0.564885 0.422284 0.735880
0.698739 0.422980 0.735880
0.826100 0.423404 0.735880
0.946970 0.422708 0.735880
1.000000 0.422390 0.735880
0.045535 0.553733 0.735880
0.165990 0.554435 0.735880
0.292937 0.555137 0.735880
0.426376 0.555276 0.735880
0.564885 0.554574 0.735880
0.698739 0.553872 0.735880
0.826100 0.553170 0.735880
0.946970 0.552467 0.735880
1.000000 0.552147 0.735880
0.045535 0.683257 0.735880
0.165990 0.682587 0.735880
0.292937 0.681916 0.735880
0.426376 0.681245 0.735880
0.564885 0.680574 0.735880
0.698739 0.679903 0.735880
0.826100 0.679232 0.735880
0.946970 0.678561 0.735880
1.000000 0.678254 0.735880
0.045535 0.803440 0.735880
0.165990 0.802800 0.735880
0.292937 0.802161 0.735880
0.426376 0.801521 0.735880
0.564885 0.800881 0.735880
0.698739 0.800241 0.735880
0.826100 0.799601 0.735880
0.946970 0.798960 0.735880
1.000000 0.798668 0.735880
0.045535 0.917928 0.735880
0.165990 0.917320 0.735880
0.292937 0.916712 0.735880
0.426376 0.916103 0.735880
0.564885 0.915494 0.735880
0.698739 0.914885 0.735880
0.826100 0.914276 0.735880
0.946970 0.913666 0.735880
1.000000 0.913388 0.735880
0.045535 1.000000 0.735880
0.165990 1.000000 0.735880
0.292937 1.000000 0.735880
0.426376 1.000000 0.735880
0.564885 1.000000 0.735880
0.698739 1.000000 0.735880
0.826100 1.000000 0.735880
0.946970 1.000000 0.735880
1.000000 1.000000 0.735880
0.045535 0.050653 0.847683
0.165990 0.051252 0.847683
0.292937 0.051852 0.847683
0.426376 0.052452 0.847683
0.564885 0.053052 0.847683
0.698739 0.053652 0.847683
0.826100 0.054253 0.847683
0.946970 0.054853 0.847683
1.000000 0.055128 0.847683
0.045535 0.167573 0.847683
0.165990 0.168205 0.847683
0.292937 0.168837 0.847683
0.426376 0.169469 0.847683
0.564885 0.170101 0.847683
0.698739 0.170733 0.847683
0.826100 0.171366 0.847683
0.946970 0.171999 0.847683
1.000000 0.172288 0.847683
0.045535 0.290592 0.847683
0.165990 0.291256 0.847683
0.292937 0.291920 0.847683
0.426376 0.292584 0.847683
0.564885 0.293248 0.847683
0.698739 0.293913 0.847683
0.826100 0.294577 0.847683
0.946970 0.295242 0.847683
1.000000 0.295546 0.847683
0.045535 0.419709 0.847683
0.165990 0.420405 0.847683
0.292937 0.421101 0.847683
0.426376 0.421797 0.847683
0.564885 0.422494 0.847683
0.698739 0.423190 0.847683
0.826100 0.423194 0.847683
0.946970 0.422498 0.847683
1.000000 0.422180 0.847683
0.045535 0.553945 0.847683
0.165990 0.554647 0.847683
0.292937 0.555349 0.847683
0.426376 0.555065 0.847683
0.564885 0.554363 0.847683
0.698739 0.553661 0.847683
0.826100 0.552958 0.847683
0.946970 0.552256 0.847683
1.000000 0.551935 0.847683
0.045535 0.683055 0.847683
0.165990 0.682385 0.847683
0.292937 0.681714 0.847683
0.426376 0.681043 0.847683
0.564885 0.680372 0.847683
0.698739 0.679701 0.847683
0.826100 0.679030 0.847683
0.946970 0.678358 0.847683
1.000000 0.678052 0.847683
0.045535 0.803247 0.847683
0.165990 0.802608 0.847683
0.292937 0.801968 0.847683
0.426376 0.801328 0.847683
0.564885 0.800688 0.847683
0.698739 0.800048 0.847683
0.826100 0.799408 0.847683
0.946970 0.798767 0.847683
1.000000 0.798475 0.847683
0.045535 0.917745 0.847683
0.165990 0.917137 0.847683
0.292937 0.916528 0.847683
0.426376 0.915920 0.847683
0.564885 0.915311 0.847683
0.698739 0.914702 0.847683
0.826100 0.914092 0.847683
0.946970 0.913483 0.847683
1.000000 0.913204 0.847683
0.045535 1.000000 0.847683
0.165990 1.000000 0.847683
0.292937 1.000000 0.847683
0.426376 1.000000 0.847683
0.564885 1.000000 0.847683
0.698739 1.000000 0.847683
0.826100 1.000000 0.847683
0.946970 1.000000 0.847683
1.000000 1.000000 0.847683
0.045535 0.050833 0.955401
0.165990 0.051433 0.955401
0.292937 0.052033 0.955401
0.426376 0.052633 0.955401
0.564885 0.053233 0.955401
0.698739 0.053833 0.955401
0.826100 0.054434 0.955401
0.946970 0.055034 0.955401
1.000000 0.055308 0.955401
0.045535 0.167763 0.955401
0.165990 0.168395 0.955401
0.292937 0.169027 0.955401
0.426376 0.169659 0.955401
0.564885 0.170291 0.955401
0.698739 0.170924 0.955401
0.826100 0.171556 0.955401
0.946970 0.172189 0.955401
1.000000 0.172478 0.955401
0.045535 0.290792 0.955401
0.165990 0.291456 0.955401
0.292937 0.292120 0.955401
0.426376 0.292784 0.955401
0.564885 0.293448 0.955401
0.698739 0.294113 0.955401
0.826100 0.294777 0.955401
0.946970 0.295442 0.955401
1.000000 0.295746 0.955401
0.045535 0.419919 0.955401
0.165990 0.420615 0.955401
0.292937 0.421311 0.955401
0.426376 0.422007 0.955401
0.564885 0.422703 0.955401
0.698739 0.423400 0.955401
0.826100 0.422985 0.955401
0.946970 0.422288 0.955401
1.000000 0.421970 0.955401
0.045535 0.554156 0.955401
0.165990 0.554858 0.955401
0.292937 0.555555 0.955401
0.426376 0.554853 0.955401
0.564885 0.554151 0.955401
0.698739 0.553449 0.955401
0.826100 0.552747 0.955401
0.946970 0.552044 0.955401
1.000000 0.551723 0.955401
0.045535 0.682853 0.955401
0.165990 0.682183 0.955401
0.292937 0.681512 0.955401
0.426376 0.680841 0.955401
0.564885 0.680170 0.955401
0.698739 0.679499 0.955401
0.826100 0.678828 0.955401
0.946970 0.678156 0.955401
1.000000 0.677849 0.955401
0.045535 0.803054 0.955401
0.165990 0.802415 0.955401
0.292937 0.801775 0.955401
0.426376 0.801135 0.955401
0.564885 0.800495 0.955401
0.698739 0.799855 0.955401
0.826100 0.799215 0.955401
0.946970 0.798574 0.955401
1.000000 0.798282 0.955401
0.045535 0.917562 0.955401
0.165990 0.916954 0.955401
0.292937 0.916345 0.955401
0.426376 0.915736 0.955401
0.564885 0.915127 0.955401
0.698739 0.914518 0.955401
0.826100 0.913909 0.955401
0.946970 0.913299 0.955401
1.000000 0.913021 0.955401
0.045535 1.000000 0.955401
0.165990 1.000000 0.955401
0.292937 1.000000 0.955401
0.426376 1.000000 0.955401
0.564885 1.000000 0.955401
0.698739 1.000000 0.955401
0.826100 1.000000 0.955401
0.946970 1.000000 0.955401
1.000000 1.000000 0.955401
